(Description:)
(Drill the holes for version 7 of the TWIPi peripheral PCB board.)
(Files was generated in FlatCAM then manually updated to use PathPilot tool offsets)
(Author: Andrew Mitchell)
(History:)
(2018-10-31: Test7 FlatCAM file updated with ATC and related G-codes by hand)

N01(Setup job. G-Codes do the following...)
(Absolute distance mode)
(Coordinate system 1)
(Maintain defined feed velocity)
(Reset all scale factors to 1)
(XY-plane as active)
(Cutter compensation off)
(Cancel all canned cycles)
(Set active feed rate to units per minute)
(Incremental distance mode for I and K offsets, return I and K to their default behaviour)
(Cancel tool length compensation)
G90 G54 G64 G50 G17 G40 G80 G94 G91.1 G49
G20 (Inch)
G30 (Rapid traverse to saved absolute position)

N10(Retrieve drill bit used for first set of holes)
(Tool change code does the following...)
(Tool 22 – 1.1mm, 0.0433" drill for components. Want 1.0mm drill but broke it)
(Apply tool length offset)
(Tool number associated with length of tool specified by number - same as T above)
(Tool change)
T22 G43 H22 M6 
(MSG, Change to tool dia=0.0433)

N11(Move to Z start position, kick off Fog Buster and start spindle)
G00 Z0.1000 (Rapid move to Z start position)
M8 (Start Flood Coolant. Note Fog Buster connect to flood coolant control on our machine)
F3.50 (Set feed rate of 3.5 IPM)
M03 S10000 (Rotate spindle clockwise at 10,000 RPM) 
G4 P1 (Dwell for 1 second to allow spindle to get up to speed)

N12(This is the drilling of the first set of holes as generated by FlatCAM)
G00 X2.9000Y0.5500
G01 Z-0.0700
G01 Z0
G00 Z0.1000
G00 X0.9500Y0.4500
G01 Z-0.0700
G01 Z0
G00 Z0.1000
G00 X1.0500Y0.4500
G01 Z-0.0700
G01 Z0
G00 Z0.1000
G00 X1.1500Y0.4500
G01 Z-0.0700
G01 Z0
G00 Z0.1000
G00 X3.7500Y0.4500
G01 Z-0.0700
G01 Z0
G00 Z0.1000
G00 X3.8500Y0.4500
G01 Z-0.0700
G01 Z0
G00 Z0.1000
G00 X3.9500Y0.4500
G01 Z-0.0700
G01 Z0
G00 Z0.1000
G00 X3.4500Y0.0500
G01 Z-0.0700
G01 Z0
G00 Z0.1000
G00 X3.4500Y0.1500
G01 Z-0.0700
G01 Z0
G00 Z0.1000
G00 X3.2000Y0.0500
G01 Z-0.0700
G01 Z0
G00 Z0.1000
G00 X3.2000Y0.1500
G01 Z-0.0700
G01 Z0
G00 Z0.1000
G00 X2.4000Y0.0500
G01 Z-0.0700
G01 Z0
G00 Z0.1000
G00 X2.4000Y0.1500
G01 Z-0.0700
G01 Z0
G00 Z0.1000
G00 X1.4500Y0.0500
G01 Z-0.0700
G01 Z0
G00 Z0.1000
G00 X1.4500Y0.1500
G01 Z-0.0700
G01 Z0
G00 Z0.1000
G00 X0.6500Y0.0500
G01 Z-0.0700
G01 Z0
G00 Z0.1000
G00 X0.6500Y0.1500
G01 Z-0.0700
G01 Z0
G00 Z0.1000
G00 X2.7000Y0.4500
G01 Z-0.0700
G01 Z0
G00 Z0.1000
G00 X2.8000Y0.4500
G01 Z-0.0700
G01 Z0
G00 Z0.1000
G00 X2.9000Y0.4500
G01 Z-0.0700
G01 Z0
G00 Z0.1000
G00 X2.7000Y0.5500
G01 Z-0.0700
G01 Z0
G00 Z0.1000
G00 X2.8000Y0.5500
G01 Z-0.0700
G01 Z0
G00 Z0.1000
G00 X3.4500Y0.3000
G01 Z-0.0700
G01 Z0
G00 Z0.1000
G00 X3.4500Y0.5000
G01 Z-0.0700
G01 Z0
G00 Z0.1000
G00 X3.2000Y0.3000
G01 Z-0.0700
G01 Z0
G00 Z0.1000
G00 X3.2000Y0.5000
G01 Z-0.0700
G01 Z0
G00 Z0.1000
G00 X2.4000Y0.3000
G01 Z-0.0700
G01 Z0
G00 Z0.1000
G00 X2.4000Y0.5000
G01 Z-0.0700
G01 Z0
G00 Z0.1000
G00 X1.4500Y0.3000
G01 Z-0.0700
G01 Z0
G00 Z0.1000
G00 X1.4500Y0.5000
G01 Z-0.0700
G01 Z0
G00 Z0.1000
G00 X0.6500Y0.3000
G01 Z-0.0700
G01 Z0
G00 Z0.1000
G00 X0.6500Y0.5000
G01 Z-0.0700
G01 Z0
G00 Z0.1000
G00 X1.2000Y1.0000
G01 Z-0.0700
G01 Z0
G00 Z0.1000
G00 X1.3000Y1.0000
G01 Z-0.0700
G01 Z0
G00 Z0.1000
G00 X1.3000Y0.7000
G01 Z-0.0700
G01 Z0
G00 Z0.1000
G00 X1.2000Y0.7000
G01 Z-0.0700
G01 Z0
G00 Z0.1000
G00 X1.4000Y1.0000
G01 Z-0.0700
G01 Z0
G00 Z0.1000
G00 X1.5000Y1.0000
G01 Z-0.0700
G01 Z0
G00 Z0.1000
G00 X1.4000Y0.7000
G01 Z-0.0700
G01 Z0
G00 Z0.1000
G00 X1.5000Y0.7000
G01 Z-0.0700
G01 Z0
G00 Z0.1000

N20(Retrieve drill bit used for second set of holes)
M5 (Stop spindle rotation)
M9 (All coolant off)
(Tool change code does the following...)
(Tool 22 – 1.1mm, 0.0433" drill for components. Want 1.0mm drill but broke it)
(Apply tool length offset)
(Tool number associated with length of tool specified by number - same as T above)
(Tool change)
T22 G43 H22 M6 
(MSG, for now use same tool. Change when we have more bits. Tool dia=0.0433)

N21(Move to Z start position, kick off Fog Buster and start spindle)
G00 Z0.1000 (Rapid move to Z start position)
M8 (Start Flood Coolant. Note Fog Buster connect to flood coolant control on our machine)
F3.50 (Set feed rate of 3.5 IPM)
M03 S10000 (Rotate spindle clockwise at 10,000 RPM) 
G4 P1 (Dwell for 1 second to allow spindle to get up to speed)

N22(This is the drilling of the second set of holes as generated by FlatCAM)
G00 X1.9980Y0.6000
G01 Z-0.0700
G01 Z0
G00 Z0.1000
G00 X1.9000Y0.6000
G01 Z-0.0700
G01 Z0
G00 Z0.1000
G00 X1.9000Y0.5210
G01 Z-0.0700
G01 Z0
G00 Z0.1000
G00 X1.9980Y0.5210
G01 Z-0.0700
G01 Z0
G00 Z0.1000

N30(Retrieve drill bit used for third set of holes)
M5 (Stop spindle rotation)
M9 (All coolant off)
(Tool change code does the following...)
(Tool 22 – 1.1mm, 0.0433" drill for components. Want 1.0mm drill but broke it)
(Apply tool length offset)
(Tool number associated with length of tool specified by number - same as T above)
(Tool change)
T22 G43 H22 M6 
(MSG, for now use same tool. Change when we have more bits. Tool dia=0.0433)

N31(Move to Z start position, kick off Fog Buster and start spindle)
G00 Z0.1000 (Rapid move to Z start position)
M8 (Start Flood Coolant. Note Fog Buster connect to flood coolant control on our machine)
F3.50 (Set feed rate of 3.5 IPM)
M03 S10000 (Rotate spindle clockwise at 10,000 RPM) 
G4 P1 (Dwell for 1 second to allow spindle to get up to speed)

N32(This is the drilling of the third set of holes as generated by FlatCAM)
G00 X1.3000Y1.3000
G01 Z-0.0700
G01 Z0
G00 Z0.1000
G00 X3.9000Y1.7500
G01 Z-0.0700
G01 Z0
G00 Z0.1000
G00 X3.9000Y1.6500
G01 Z-0.0700
G01 Z0
G00 Z0.1000
G00 X3.9000Y1.5500
G01 Z-0.0700
G01 Z0
G00 Z0.1000
G00 X1.8000Y2.1000
G01 Z-0.0700
G01 Z0
G00 Z0.1000
G00 X1.7000Y2.1000
G01 Z-0.0700
G01 Z0
G00 Z0.1000
G00 X1.6000Y2.1000
G01 Z-0.0700
G01 Z0
G00 Z0.1000
G00 X1.5000Y2.1000
G01 Z-0.0700
G01 Z0
G00 Z0.1000
G00 X1.5000Y1.3000
G01 Z-0.0700
G01 Z0
G00 Z0.1000
G00 X1.4000Y1.3000
G01 Z-0.0700
G01 Z0
G00 Z0.1000
G00 X2.4000Y1.1500
G01 Z-0.0700
G01 Z0
G00 Z0.1000
G00 X2.4000Y1.2500
G01 Z-0.0700
G01 Z0
G00 Z0.1000
G00 X1.5150Y1.6940
G01 Z-0.0700
G01 Z0
G00 Z0.1000
G00 X1.6000Y1.3000
G01 Z-0.0700
G01 Z0
G00 Z0.1000
G00 X2.6020Y1.6940
G01 Z-0.0700
G01 Z0
G00 Z0.1000
G00 X2.4930Y1.6940
G01 Z-0.0700
G01 Z0
G00 Z0.1000
G00 X2.3850Y1.6940
G01 Z-0.0700
G01 Z0
G00 Z0.1000
G00 X2.2760Y1.6940
G01 Z-0.0700
G01 Z0
G00 Z0.1000
G00 X2.1670Y1.6940
G01 Z-0.0700
G01 Z0
G00 Z0.1000
G00 X2.0590Y1.6940
G01 Z-0.0700
G01 Z0
G00 Z0.1000
G00 X1.9500Y1.6940
G01 Z-0.0700
G01 Z0
G00 Z0.1000
G00 X1.8410Y1.6940
G01 Z-0.0700
G01 Z0
G00 Z0.1000
G00 X1.7330Y1.6940
G01 Z-0.0700
G01 Z0
G00 Z0.1000
G00 X1.6240Y1.6940
G01 Z-0.0700
G01 Z0
G00 Z0.1000
G00 X1.4070Y1.6940
G01 Z-0.0700
G01 Z0
G00 Z0.1000
G00 X1.2980Y1.6940
G01 Z-0.0700
G01 Z0
G00 Z0.1000
G00 X2.5480Y1.8060
G01 Z-0.0700
G01 Z0
G00 Z0.1000
G00 X2.4390Y1.8060
G01 Z-0.0700
G01 Z0
G00 Z0.1000
G00 X2.3300Y1.8060
G01 Z-0.0700
G01 Z0
G00 Z0.1000
G00 X2.2220Y1.8060
G01 Z-0.0700
G01 Z0
G00 Z0.1000
G00 X2.1130Y1.8060
G01 Z-0.0700
G01 Z0
G00 Z0.1000
G00 X2.0040Y1.8060
G01 Z-0.0700
G01 Z0
G00 Z0.1000
G00 X1.8960Y1.8060
G01 Z-0.0700
G01 Z0
G00 Z0.1000
G00 X1.7870Y1.8060
G01 Z-0.0700
G01 Z0
G00 Z0.1000
G00 X1.6780Y1.8060
G01 Z-0.0700
G01 Z0
G00 Z0.1000
G00 X1.5700Y1.8060
G01 Z-0.0700
G01 Z0
G00 Z0.1000
G00 X1.4610Y1.8060
G01 Z-0.0700
G01 Z0
G00 Z0.1000
G00 X1.3520Y1.8060
G01 Z-0.0700
G01 Z0
G00 Z0.1000
G00 X3.9000Y0.8500
G01 Z-0.0700
G01 Z0
G00 Z0.1000
G00 X3.9000Y0.9500
G01 Z-0.0700
G01 Z0
G00 Z0.1000
G00 X3.9000Y1.0500
G01 Z-0.0700
G01 Z0
G00 Z0.1000
G00 X3.9000Y1.1500
G01 Z-0.0700
G01 Z0
G00 Z0.1000
G00 X3.9000Y1.2500
G01 Z-0.0700
G01 Z0
G00 Z0.1000
G00 X3.3000Y0.8500
G01 Z-0.0700
G01 Z0
G00 Z0.1000
G00 X3.3000Y0.9500
G01 Z-0.0700
G01 Z0
G00 Z0.1000
G00 X3.3000Y1.0500
G01 Z-0.0700
G01 Z0
G00 Z0.1000
G00 X3.3000Y1.1500
G01 Z-0.0700
G01 Z0
G00 Z0.1000
G00 X3.3000Y1.2500
G01 Z-0.0700
G01 Z0
G00 Z0.1000
G00 X3.0000Y0.8500
G01 Z-0.0700
G01 Z0
G00 Z0.1000
G00 X3.0000Y0.9500
G01 Z-0.0700
G01 Z0
G00 Z0.1000
G00 X3.0000Y1.0500
G01 Z-0.0700
G01 Z0
G00 Z0.1000
G00 X3.0000Y1.1500
G01 Z-0.0700
G01 Z0
G00 Z0.1000
G00 X3.0000Y1.2500
G01 Z-0.0700
G01 Z0
G00 Z0.1000
G00 X2.4000Y0.8500
G01 Z-0.0700
G01 Z0
G00 Z0.1000
G00 X2.4000Y0.9500
G01 Z-0.0700
G01 Z0
G00 Z0.1000
G00 X2.4000Y1.0500
G01 Z-0.0700
G01 Z0
G00 Z0.1000

N40(Retrieve drill bit used for fourth set of holes)
M5 (Stop spindle rotation)
M9 (All coolant off)
(Tool change code does the following...)
(Tool 22 – 1.1mm, 0.0433" drill for components. Want 1.0mm drill but broke it)
(Apply tool length offset)
(Tool number associated with length of tool specified by number - same as T above)
(Tool change)
T22 G43 H22 M6 
(MSG, for now use same tool. Change when we have more bits. Tool dia=0.0433)

N41(Move to Z start position, kick off Fog Buster and start spindle)
G00 Z0.1000 (Rapid move to Z start position)
M8 (Start Flood Coolant. Note Fog Buster connect to flood coolant control on our machine)
F3.50 (Set feed rate of 3.5 IPM)
M03 S10000 (Rotate spindle clockwise at 10,000 RPM) 
G4 P1 (Dwell for 1 second to allow spindle to get up to speed)

N42(This is the drilling of the fourth set of holes as generated by FlatCAM)
G00 X2.9000Y0.2500
G01 Z-0.0700
G01 Z0
G00 Z0.1000
G00 X3.9500Y0.2500
G01 Z-0.0700
G01 Z0
G00 Z0.1000
G00 X3.7500Y0.2500
G01 Z-0.0700
G01 Z0
G00 Z0.1000
G00 X0.9500Y0.2500
G01 Z-0.0700
G01 Z0
G00 Z0.1000
G00 X1.1500Y0.2500
G01 Z-0.0700
G01 Z0
G00 Z0.1000
G00 X2.7000Y0.2500
G01 Z-0.0700
G01 Z0
G00 Z0.1000

N50(Retrieve drill bit used for fifth set of holes)
M5 (Stop spindle rotation)
M9 (All coolant off)
(Tool change code does the following...)
(Tool 22 – 1.1mm, 0.0433" drill for components. Want 1.0mm drill but broke it)
(Apply tool length offset)
(Tool number associated with length of tool specified by number - same as T above)
(Tool change)
T22 G43 H22 M6 
(MSG, for now use same tool. Change when we have more bits. Tool dia=0.0433)

N51(Move to Z start position, kick off Fog Buster and start spindle)
G00 Z0.1000 (Rapid move to Z start position)
M8 (Start Flood Coolant. Note Fog Buster connect to flood coolant control on our machine)
F3.50 (Set feed rate of 3.5 IPM)
M03 S10000 (Rotate spindle clockwise at 10,000 RPM) 
G4 P1 (Dwell for 1 second to allow spindle to get up to speed)

N52(This is the drilling of the fifth set of holes as generated by FlatCAM)
G00 X2.1860Y0.4150
G01 Z-0.0700
G01 Z0
G00 Z0.1000
G00 X1.7120Y0.4150
G01 Z-0.0700
G01 Z0
G00 Z0.1000

N60(Retrieve drill bit used for sixth set of holes)
M5 (Stop spindle rotation)
M9 (All coolant off)
(Tool change code does the following...)
(Tool 10 – 7/16, 0.4375" drill for mounting holes)
(Apply tool length offset)
(Tool number associated with length of tool specified by number - same as T above)
(Tool change)
T10 G43 H10 M6 
(MSG, drill mounting holes. Tool dia=0.4375)

N61(Move to Z start position, kick off Fog Buster and start spindle)
G00 Z0.1000 (Rapid move to Z start position)
M8 (Start Flood Coolant. Note Fog Buster connect to flood coolant control on our machine)
F3.50 (Set feed rate of 3.5 IPM)
M03 S10000 (Rotate spindle clockwise at 10,000 RPM) 
G4 P1 (Dwell for 1 second to allow spindle to get up to speed)

N62(This is the drilling of the sixth set of holes as generated by FlatCAM)
G00 X2.8760Y1.7500
G01 Z-0.0700
G01 Z0
G00 Z0.1000
G00 X1.0240Y1.7500
G01 Z-0.0700
G01 Z0
G00 Z0.1000
G00 X0.0000Y0.0000

N70(End job)
M5 (Stop spindle rotation)
M9 (All coolant off)
G30 (Rapid traverse to saved absolute position)
M30 (Program end and rewind)
