%
(4x5 PCB holder)
(Used to see CAM setup)
(T7  D=0.375 CR=0. - ZMIN=-0.073 - flat end mill)
G90 G54 G64 G50 G17 G40 G80 G94 G91.1 G49
G20 (Inch)
G30

N10(2D Adaptive1)
T7 G43 H7 M6
S5000 M3 M8
G54
G0 X1.434 Y4.2616
G0 Z0.6
G0 Z0.2
G0 Z0.015
G1 Z-0.0225 F11.
G1 X1.4337 Y4.2617 Z-0.027
G1 X1.4329 Y4.2619 Z-0.0315
G1 X1.4316 Y4.2622 Z-0.0358
G1 X1.4298 Y4.2627 Z-0.0399
G1 X1.4275 Y4.2633 Z-0.0438
G1 X1.4248 Y4.264 Z-0.0474
G1 X1.4217 Y4.2648 Z-0.0506
G1 X1.4183 Y4.2657 Z-0.0534
G1 X1.4145 Y4.2666 Z-0.0557
G1 X1.4105 Y4.2676 Z-0.0576
G1 X1.4063 Y4.2687 Z-0.0589
G1 X1.402 Y4.2698 Z-0.0597
G1 X1.3976 Y4.2709 Z-0.06
G3 X1.1935 Y4.3003 I-0.2376 J-0.9274
G1 X1.1757
G1 X1.1742 Y4.3002
G1 X1.1671 Y4.2948
G1 X1.159 Y4.2875
G1 X1.1498 Y4.2779
G1 X1.1398 Y4.2654
G1 X1.1288 Y4.2493
G1 X1.1171 Y4.2288
G1 X1.1047 Y4.2021
G1 X1.0916 Y4.167
G1 X1.0789 Y4.1221
G1 X1.0695 Y4.0764
G1 X1.0626 Y4.0302
G1 X1.0576 Y3.9838
G1 X1.0538 Y3.9372
G1 X1.051 Y3.8906
G1 X1.0489 Y3.844
G1 X1.0474 Y3.7973
G1 X1.0462 Y3.7506
G1 X1.0454 Y3.704
G1 X1.0447 Y3.6573
G1 X1.0443 Y3.6106
G1 X1.0439 Y3.5639
G1 X1.0436 Y3.5172
G1 X1.0434 Y3.4705
G1 X1.0432 Y3.3771
G1 X1.043 Y3.237
G1 X1.0429 Y3.0036
G1 Y2.3499
G1 Y0.7763
G1 X1.0443 Y0.7613
G1 X1.0487 Y0.747
G1 X1.0558 Y0.7337
G1 X1.0653 Y0.7221
G1 X1.0769 Y0.7126
G1 X1.0901 Y0.7055
G1 X1.1045 Y0.7012
G1 X1.1194 Y0.6997
G3 X1.1465 Y0.7127 I-0.0013 J0.0375
G1 X1.1495 Y0.7161 Z-0.0597
G1 X1.1524 Y0.7195 Z-0.0589
G1 X1.1552 Y0.7228 Z-0.0576
G1 X1.1579 Y0.7259 Z-0.0557
G1 X1.1604 Y0.7288 Z-0.0534
G1 X1.1628 Y0.7315 Z-0.0506
G1 X1.1649 Y0.7339 Z-0.0474
G1 X1.1667 Y0.7361 Z-0.0438
G1 X1.1682 Y0.7378 Z-0.0399
G1 X1.1694 Y0.7392 Z-0.0358
G1 X1.1703 Y0.7403 Z-0.0315
G1 X1.1708 Y0.7409 Z-0.027
G1 X1.171 Y0.7411 Z-0.0225
G0 Z0.2
G0 X1.2376 Y4.2724
G0 Z0.015
G1 Z-0.0225 F11.
G1 X1.2374 Y4.2726 Z-0.027
G1 X1.2366 Y4.273 Z-0.0315
G1 X1.2355 Y4.2737 Z-0.0358
G1 X1.2339 Y4.2746 Z-0.0399
G1 X1.2319 Y4.2758 Z-0.0438
G1 X1.2295 Y4.2772 Z-0.0474
G1 X1.2267 Y4.2789 Z-0.0506
G1 X1.2237 Y4.2807 Z-0.0534
G1 X1.2203 Y4.2827 Z-0.0557
G1 X1.2168 Y4.2848 Z-0.0576
G1 X1.2131 Y4.287 Z-0.0589
G1 X1.2092 Y4.2893 Z-0.0597
G1 X1.2054 Y4.2916 Z-0.06
G3 X1.1757 Y4.3003 I-0.0318 J-0.0536
G1 X1.1245
G1 X1.1185 Y4.3
G1 X1.109 Y4.2968
G1 X1.0981 Y4.2921
G1 X1.0863 Y4.2858
G1 X1.0742 Y4.278
G1 X1.0604 Y4.2676
G1 X1.0466 Y4.2553
G1 X1.032 Y4.2399
G1 X1.0168 Y4.2212
G1 X1.0009 Y4.1979
G1 X0.985 Y4.1702
G1 X0.9686 Y4.1352
G1 X0.9521 Y4.0915
G1 X0.9392 Y4.0466
G1 X0.929 Y4.001
G1 X0.9211 Y3.955
G1 X0.9148 Y3.9087
G1 X0.9099 Y3.8623
G1 X0.9061 Y3.8158
G1 X0.9032 Y3.7692
G1 X0.9008 Y3.7225
G1 X0.899 Y3.6759
G1 X0.8976 Y3.6292
G1 X0.8965 Y3.5825
G1 X0.8957 Y3.5359
G1 X0.8951 Y3.4892
G1 X0.8945 Y3.4425
G1 X0.8942 Y3.3958
G1 X0.8939 Y3.3491
G1 X0.8936 Y3.3024
G1 X0.8935 Y3.2557
G1 X0.8932 Y3.1623
G1 X0.893 Y3.0223
G1 X0.8929 Y2.7888
G1 Y2.3686
G1 Y0.9211
G1 X0.8936 Y0.8744
G1 X0.8966 Y0.8361
G1 X0.9016 Y0.8049
G1 X0.9081 Y0.7784
G1 X0.9154 Y0.7561
G1 X0.9167 Y0.7532
G1 X0.9235 Y0.7402
G1 X0.9323 Y0.7286
G1 X0.943 Y0.7186
G1 X0.9552 Y0.7105
G1 X0.9686 Y0.7045
G1 X0.9827 Y0.7009
G1 X0.9973 Y0.6997
G3 X1.0244 Y0.7127 I-0.0013 J0.0375
G1 X1.0273 Y0.7161 Z-0.0597
G1 X1.0302 Y0.7195 Z-0.0589
G1 X1.0331 Y0.7228 Z-0.0576
G1 X1.0358 Y0.7259 Z-0.0557
G1 X1.0383 Y0.7288 Z-0.0534
G1 X1.0406 Y0.7315 Z-0.0506
G1 X1.0427 Y0.7339 Z-0.0474
G1 X1.0445 Y0.7361 Z-0.0438
G1 X1.0461 Y0.7378 Z-0.0399
G1 X1.0473 Y0.7392 Z-0.0358
G1 X1.0482 Y0.7403 Z-0.0315
G1 X1.0487 Y0.7409 Z-0.027
G1 X1.0489 Y0.7411 Z-0.0225
G0 Z0.2
G0 X1.1864 Y4.2724
G0 Z0.015
G1 Z-0.0225 F11.
G1 X1.1862 Y4.2726 Z-0.027
G1 X1.1855 Y4.273 Z-0.0315
G1 X1.1843 Y4.2737 Z-0.0358
G1 X1.1827 Y4.2746 Z-0.0399
G1 X1.1807 Y4.2758 Z-0.0438
G1 X1.1783 Y4.2772 Z-0.0474
G1 X1.1755 Y4.2789 Z-0.0506
G1 X1.1725 Y4.2807 Z-0.0534
G1 X1.1691 Y4.2827 Z-0.0557
G1 X1.1656 Y4.2848 Z-0.0576
G1 X1.1619 Y4.287 Z-0.0589
G1 X1.1581 Y4.2893 Z-0.0597
G1 X1.1542 Y4.2916 Z-0.06
G3 X1.1245 Y4.3003 I-0.0318 J-0.0536
G1 X1.0458
G1 X1.0427 Y4.3001
G1 X1.0326 Y4.2991
G1 X1.0219 Y4.2971
G1 X1.0099 Y4.2938
G1 X0.997 Y4.2892
G1 X0.9833 Y4.283
G1 X0.968 Y4.2745
G1 X0.9528 Y4.2644
G1 X0.9355 Y4.2508
G1 X0.9188 Y4.2353
G1 X0.9003 Y4.2153
G1 X0.8824 Y4.1924
G1 X0.8635 Y4.1637
G1 X0.8442 Y4.1286
G1 X0.8251 Y4.086
G1 X0.8094 Y4.042
G1 X0.7966 Y3.9971
G1 X0.7861 Y3.9516
G1 X0.7777 Y3.9057
G1 X0.7708 Y3.8595
G1 X0.7652 Y3.8132
G1 X0.7607 Y3.7667
G1 X0.7571 Y3.7201
G1 X0.7542 Y3.6735
G1 X0.7519 Y3.6269
G1 X0.75 Y3.5802
G1 X0.7485 Y3.5336
G1 X0.7473 Y3.4869
G1 X0.7464 Y3.4402
G1 X0.7456 Y3.3935
G1 X0.745 Y3.3468
G1 X0.7446 Y3.3002
G1 X0.7442 Y3.2535
G1 X0.7439 Y3.2068
G1 X0.7437 Y3.1601
G1 X0.7434 Y3.0667
G1 X0.7432 Y2.9733
G1 X0.743 Y2.8332
G1 X0.7429 Y2.5998
G1 Y2.413
G1 Y1.059
G1 X0.7431 Y1.0123
G1 X0.744 Y0.9656
G1 X0.7463 Y0.9189
G1 X0.7507 Y0.8725
G1 X0.7574 Y0.8297
G1 X0.7651 Y0.7972
G1 X0.7739 Y0.7702
G1 X0.7809 Y0.7535
G1 X0.7876 Y0.7405
G1 X0.7965 Y0.7288
G1 X0.8072 Y0.7187
G1 X0.8194 Y0.7106
G1 X0.8328 Y0.7046
G1 X0.847 Y0.7009
G1 X0.8616 Y0.6997
G1 X0.9973
G3 X1.0244 Y0.7127 I-0.0013 J0.0375
G1 X1.0273 Y0.7161 Z-0.0597
G1 X1.0302 Y0.7195 Z-0.0589
G1 X1.0331 Y0.7228 Z-0.0576
G1 X1.0358 Y0.7259 Z-0.0557
G1 X1.0383 Y0.7288 Z-0.0534
G1 X1.0406 Y0.7315 Z-0.0506
G1 X1.0427 Y0.7339 Z-0.0474
G1 X1.0445 Y0.7361 Z-0.0438
G1 X1.0461 Y0.7378 Z-0.0399
G1 X1.0473 Y0.7392 Z-0.0358
G1 X1.0482 Y0.7403 Z-0.0315
G1 X1.0487 Y0.7409 Z-0.027
G1 X1.0489 Y0.7411 Z-0.0225
G0 Z0.2
G0 X1.1077 Y4.2724
G0 Z0.015
G1 Z-0.0225 F11.
G1 X1.1074 Y4.2726 Z-0.027
G1 X1.1067 Y4.273 Z-0.0315
G1 X1.1056 Y4.2737 Z-0.0358
G1 X1.104 Y4.2746 Z-0.0399
G1 X1.102 Y4.2758 Z-0.0438
G1 X1.0996 Y4.2772 Z-0.0474
G1 X1.0968 Y4.2789 Z-0.0506
G1 X1.0937 Y4.2807 Z-0.0534
G1 X1.0904 Y4.2827 Z-0.0557
G1 X1.0869 Y4.2848 Z-0.0576
G1 X1.0831 Y4.287 Z-0.0589
G1 X1.0793 Y4.2893 Z-0.0597
G1 X1.0754 Y4.2916 Z-0.06
G3 X1.0458 Y4.3003 I-0.0318 J-0.0536
G1 X0.9395
G1 X0.9257 Y4.2996
G1 X0.9139 Y4.2981
G1 X0.9015 Y4.2954
G1 X0.8871 Y4.2911
G1 X0.8726 Y4.2855
G1 X0.856 Y4.2774
G1 X0.8394 Y4.2676
G1 X0.8209 Y4.2546
G1 X0.8021 Y4.2391
G1 X0.7821 Y4.2195
G1 X0.7622 Y4.1967
G1 X0.7412 Y4.1683
G1 X0.7197 Y4.1338
G1 X0.7094 Y4.1139
G1 X0.7041 Y4.1011
G1 X0.7008 Y4.0876
G1 X0.6997 Y4.0737
G3 X0.7628 Y4.0477 I0.0375 J0.0013
G1 X0.9638 Y4.2354
G3 X0.9395 Y4.3003 I-0.0256 J0.0274
G1 X0.8157
G1 X0.8026 Y4.2997
G1 X0.7907 Y4.2982
G1 X0.7767 Y4.2952
G1 X0.7622 Y4.2909
G1 X0.7556 Y4.2884
G1 X0.742 Y4.2817
G1 X0.7297 Y4.2728
G1 X0.7192 Y4.262
G1 X0.7107 Y4.2494
G1 X0.7045 Y4.2356
G1 X0.7007 Y4.221
G1 X0.6996 Y4.2059
G3 X0.7588 Y4.1771 I0.0375 J0.0017
G1 X0.8361 Y4.2323
G3 X0.8157 Y4.3003 I-0.0218 J0.0305
G1 X0.8045
G1 X0.782 Y4.3005
G1 X0.7707 Y4.3012
G1 X0.7482 Y4.3039
G1 X0.742 Y4.305
G1 X0.737 Y4.3059
G1 X0.7314 Y4.3062
G1 X0.7257 Y4.3057
G1 X0.7201 Y4.3042
G1 X0.7145 Y4.3018
G1 X0.7083 Y4.2979
G1 X0.7058 Y4.2957
G1 X0.7032 Y4.2931
G1 X0.7007 Y4.2899
G1 X0.6986 Y4.2866
G1 X0.696 Y4.281
G1 X0.6945 Y4.2754
G1 X0.6938 Y4.2698
G1 X0.694 Y4.2642
G1 X0.6959 Y4.2529
G1 X0.6987 Y4.2305
G1 X0.6994 Y4.2192
G1 X0.6996 Y4.1967
G1 X0.6997 Y4.1855
G1 Y0.8145
G1 X0.6996 Y0.8033
G1 X0.6994 Y0.7808
G1 X0.6993 Y0.7716
G1 X0.7019 Y0.7566
G1 X0.7073 Y0.7425
G1 X0.7153 Y0.7296
G1 X0.7257 Y0.7185
G1 X0.7381 Y0.7097
G1 X0.7519 Y0.7035
G1 X0.7667 Y0.7
G1 X0.7818 Y0.6995
G3 X0.8482 Y0.7826 I-0.0073 J0.0738
G3 X0.6994 Y0.7808 I-0.0743 J-0.0093
G1 X0.6987 Y0.7696
G1 X0.6959 Y0.7471
G1 X0.694 Y0.7358
G1 X0.6938 Y0.7302
G1 X0.6945 Y0.7246
G1 X0.696 Y0.719
G1 X0.6986 Y0.7134
G1 X0.7007 Y0.7101
G1 X0.7032 Y0.7069
G1 X0.7058 Y0.7043
G1 X0.7083 Y0.7021
G1 X0.7145 Y0.6981
G1 X0.7201 Y0.6957
G1 X0.7257 Y0.6943
G1 X0.7314 Y0.6938
G1 X0.737 Y0.6941
G1 X0.7482 Y0.6961
G1 X0.7707 Y0.6988
G1 X0.782 Y0.6995
G1 X0.8045 Y0.6997
G1 X0.827
G1 X0.8616
G3 X0.8887 Y0.7127 I-0.0013 J0.0375
G1 X0.8917 Y0.7161 Z-0.0597
G1 X0.8946 Y0.7195 Z-0.0589
G1 X0.8974 Y0.7228 Z-0.0576
G1 X0.9001 Y0.7259 Z-0.0557
G1 X0.9026 Y0.7288 Z-0.0534
G1 X0.905 Y0.7315 Z-0.0506
G1 X0.9071 Y0.7339 Z-0.0474
G1 X0.9089 Y0.7361 Z-0.0438
G1 X0.9104 Y0.7378 Z-0.0399
G1 X0.9116 Y0.7392 Z-0.0358
G1 X0.9125 Y0.7403 Z-0.0315
G1 X0.913 Y0.7409 Z-0.027
G1 X0.9132 Y0.7411 Z-0.0225
G0 Z0.6
G0 X1.554 Y3.7568
G0 Z0.2
G0 Z0.102
G3 X1.9067 Y3.8067 Z0.0825 I0.1764 J0.0249 F1.5
G3 X1.554 Y3.7568 Z0.0629 I-0.1764 J-0.0249
G3 X1.9067 Y3.8067 Z0.0434 I0.1764 J0.0249
G3 X1.554 Y3.7568 Z0.0238 I-0.1764 J-0.0249
G3 X1.9067 Y3.8067 Z0.0043 I0.1764 J0.0249
G3 X1.554 Y3.7568 Z-0.0152 I-0.1764 J-0.0249
G3 X1.9067 Y3.8067 Z-0.0348 I0.1764 J0.0249
G3 X1.554 Y3.7568 Z-0.0543 I-0.1764 J-0.0249
G3 X1.9085 Y3.7817 Z-0.073 I0.1764 J0.0249
G3 X1.5522 I-0.1781 J0.
G3 X1.9085 I0.1781 J0.
G1 X1.9087 Y3.7934 F11.
G1 X1.9156 Y3.8396
G1 X1.9184 Y3.8449
G1 X1.9207 Y3.8504
G1 X1.9227 Y3.8567
G1 X1.9244 Y3.8638
G1 X1.9256 Y3.8717
G1 X1.9263 Y3.8803
G1 X1.9262 Y3.8896
G1 X1.9253 Y3.8996
G1 X1.9235 Y3.9102
G1 X1.9207 Y3.9213
G1 X1.9168 Y3.9327
G1 X1.9117 Y3.9444
G1 X1.9054 Y3.9563
G1 X1.8978 Y3.9682
G1 X1.8889 Y3.9799
G1 X1.8786 Y3.9913
G1 X1.8671 Y4.0023
G1 X1.8542 Y4.0127
G1 X1.8401 Y4.0224
G1 X1.8248 Y4.0311
G1 X1.8084 Y4.0388
G1 X1.791 Y4.0453
G1 X1.7727 Y4.0505
G1 X1.7537 Y4.0543
G1 X1.7341 Y4.0566
G1 X1.714 Y4.0573
G1 X1.6936 Y4.0565
G1 X1.6731 Y4.0539
G1 X1.6526 Y4.0497
G1 X1.6323 Y4.0437
G1 X1.6124 Y4.0361
G1 X1.5929 Y4.0268
G1 X1.5742 Y4.0159
G1 X1.5562 Y4.0035
G1 X1.5392 Y3.9896
G1 X1.5233 Y3.9742
G1 X1.5086 Y3.9576
G1 X1.4952 Y3.9398
G1 X1.4833 Y3.9209
G1 X1.4729 Y3.901
G1 X1.4641 Y3.8803
G1 X1.4569 Y3.8589
G1 X1.4515 Y3.837
G1 X1.4479 Y3.8147
G1 X1.4461 Y3.7921
G1 X1.446 Y3.7694
G1 X1.4479 Y3.7468
G1 X1.4515 Y3.7243
G1 X1.4569 Y3.7022
G1 X1.4641 Y3.6806
G1 X1.473 Y3.6596
G1 X1.4835 Y3.6394
G1 X1.4957 Y3.62
G1 X1.5094 Y3.6017
G1 X1.5245 Y3.5846
G1 X1.5409 Y3.5687
G1 X1.5586 Y3.5542
G1 X1.5774 Y3.5412
G1 X1.5971 Y3.5297
G1 X1.6178 Y3.5198
G1 X1.6391 Y3.5116
G1 X1.6611 Y3.5051
G1 X1.6835 Y3.5004
G1 X1.7062 Y3.4976
G1 X1.7291 Y3.4965
G1 X1.752 Y3.4974
G1 X1.7747 Y3.5
G1 X1.7972 Y3.5045
G1 X1.8192 Y3.5107
G1 X1.8406 Y3.5187
G1 X1.8614 Y3.5284
G1 X1.8813 Y3.5397
G1 X1.9002 Y3.5526
G1 X1.9181 Y3.567
G1 X1.9347 Y3.5827
G1 X1.95 Y3.5998
G1 X1.9639 Y3.618
G1 X1.9769 Y3.6383
G1 X1.999 Y3.6794
G1 X2.0162 Y3.7173
G1 X2.0276 Y3.7492
G1 X2.0356 Y3.7784
G1 X2.0407 Y3.8057
G1 X2.0435 Y3.8322
G1 X2.0441 Y3.8581
G1 X2.0427 Y3.8833
G1 X2.0394 Y3.908
G1 X2.0341 Y3.9321
G1 X2.0269 Y3.9556
G1 X2.0178 Y3.9786
G1 X2.0068 Y4.0008
G1 X1.994 Y4.0223
G1 X1.9794 Y4.0428
G1 X1.963 Y4.0623
G1 X1.9449 Y4.0807
G1 X1.9251 Y4.0978
G1 X1.9037 Y4.1134
G1 X1.8807 Y4.1275
G1 X1.8564 Y4.1399
G1 X1.8309 Y4.1504
G1 X1.8042 Y4.1589
G1 X1.7766 Y4.1654
G1 X1.7483 Y4.1696
G1 X1.7194 Y4.1716
G1 X1.6902 Y4.1713
G1 X1.6608 Y4.1686
G1 X1.6315 Y4.1635
G1 X1.6025 Y4.156
G1 X1.5739 Y4.1461
G1 X1.546 Y4.1339
G1 X1.519 Y4.1194
G1 X1.4931 Y4.1026
G1 X1.4685 Y4.0837
G1 X1.4453 Y4.0628
G1 X1.4238 Y4.04
G1 X1.4041 Y4.0155
G1 X1.3864 Y3.9893
G1 X1.3708 Y3.9617
G1 X1.3574 Y3.9329
G1 X1.3464 Y3.903
G1 X1.3377 Y3.8722
G1 X1.3316 Y3.8408
G1 X1.328 Y3.8089
G1 X1.3269 Y3.7768
G1 X1.3284 Y3.7447
G1 X1.3325 Y3.7127
G1 X1.3392 Y3.6811
G1 X1.3484 Y3.6502
G1 X1.36 Y3.6201
G1 X1.3741 Y3.5909
G1 X1.3904 Y3.563
G1 X1.409 Y3.5365
G1 X1.4296 Y3.5115
G1 X1.4522 Y3.4883
G1 X1.4765 Y3.4669
G1 X1.5026 Y3.4475
G1 X1.5301 Y3.4303
G1 X1.5589 Y3.4154
G1 X1.5888 Y3.4028
G1 X1.6196 Y3.3926
G1 X1.6511 Y3.385
G1 X1.6832 Y3.3799
G1 X1.7156 Y3.3774
G1 X1.7481 Y3.3775
G1 X1.7804 Y3.3802
G1 X1.8125 Y3.3855
G1 X1.844 Y3.3934
G1 X1.8748 Y3.4038
G1 X1.9047 Y3.4166
G1 X1.9334 Y3.4317
G1 X1.9608 Y3.4491
G1 X1.987 Y3.4688
G1 X2.0147 Y3.4934
G1 X2.0423 Y3.5223
G1 X2.0685 Y3.5544
G1 X2.0923 Y3.589
G1 X2.1131 Y3.625
G1 X2.1304 Y3.6616
G1 X2.1444 Y3.6984
G1 X2.1551 Y3.7353
G1 X2.1626 Y3.7722
G1 X2.1671 Y3.809
G1 X2.1686 Y3.8455
G1 X2.1672 Y3.8816
G1 X2.1629 Y3.9172
G1 X2.1558 Y3.9522
G1 X2.146 Y3.9863
G1 X2.1335 Y4.0195
G1 X2.1183 Y4.0516
G1 X2.1006 Y4.0825
G1 X2.0803 Y4.112
G1 X2.0577 Y4.1399
G1 X2.0327 Y4.166
G1 X2.0055 Y4.1903
G1 X1.9762 Y4.2124
G1 X1.945 Y4.2323
G1 X1.912 Y4.2498
G1 X1.8774 Y4.2647
G1 X1.8415 Y4.2768
G1 X1.8044 Y4.2862
G1 X1.7664 Y4.2925
G1 X1.7278 Y4.2958
G1 X1.6887 Y4.296
G1 X1.6495 Y4.293
G1 X1.6103 Y4.2869
G1 X1.5716 Y4.2776
G1 X1.5335 Y4.2651
G1 X1.4963 Y4.2495
G1 X1.4603 Y4.2309
G1 X1.4257 Y4.2093
G1 X1.3928 Y4.185
G1 X1.3618 Y4.1579
G1 X1.333 Y4.1283
G1 X1.3065 Y4.0964
G1 X1.2826 Y4.0623
G1 X1.2615 Y4.0263
G1 X1.2433 Y3.9887
G1 X1.2281 Y3.9496
G1 X1.216 Y3.9093
G1 X1.2148 Y3.9035
G1 X1.2137 Y3.8974
G1 X1.2131 Y3.8913
G1 X1.2129 Y3.8852
G1 Y3.7592
G1 X1.2152 Y3.7126
G1 X1.2189 Y3.6773
G1 X1.2258 Y3.6411
G1 X1.2357 Y3.6045
G1 X1.2488 Y3.5683
G1 X1.265 Y3.5326
G1 X1.2844 Y3.4978
G1 X1.3067 Y3.4643
G1 X1.332 Y3.4322
G1 X1.36 Y3.402
G1 X1.3906 Y3.3739
G1 X1.4236 Y3.3483
G1 X1.4587 Y3.3252
G1 X1.4957 Y3.3049
G1 X1.5343 Y3.2876
G1 X1.5743 Y3.2735
G1 X1.6153 Y3.2626
G1 X1.6571 Y3.255
G1 X1.6995 Y3.2507
G1 X1.7421 Y3.2499
G1 X1.7846 Y3.2525
G1 X1.8269 Y3.2586
G1 X1.8685 Y3.2679
G1 X1.9092 Y3.2807
G1 X1.9489 Y3.2966
G1 X1.9881 Y3.3162
G1 X2.0269 Y3.3396
G1 X2.0648 Y3.3669
G1 X2.1004 Y3.3971
G1 X2.1336 Y3.43
G1 X2.1642 Y3.4653
G1 X2.192 Y3.5027
G1 X2.217 Y3.5422
G1 X2.2389 Y3.5834
G1 X2.2406 Y3.5873
G1 X2.2446 Y3.5986
G1 X2.247 Y3.6103
G1 X2.2479 Y3.6223
G1 Y3.9616
G1 X2.2462 Y3.995
G1 X2.2427 Y4.0219
G1 X2.2364 Y4.0512
G1 X2.227 Y4.0824
G1 X2.2148 Y4.1138
G1 X2.1994 Y4.1455
G1 X2.1804 Y4.1779
G1 X2.1577 Y4.2102
G1 X2.1314 Y4.2418
G1 X2.1018 Y4.2722
G1 X2.0943 Y4.2787
G1 X2.0816 Y4.2879
G1 X2.0675 Y4.2947
G1 X2.0524 Y4.2989
G1 X2.0368 Y4.3003
G1 X1.4654
G1 X1.4407 Y4.2991
G1 X1.4211 Y4.2965
G1 X1.4013 Y4.2923
G1 X1.3783 Y4.2854
G1 X1.3554 Y4.2764
G1 X1.3297 Y4.264
G1 X1.3036 Y4.2486
G1 X1.277 Y4.2299
G1 X1.2491 Y4.2068
G1 X1.2393 Y4.1972
G1 X1.2301 Y4.1867
G1 X1.2227 Y4.1748
G1 X1.2173 Y4.162
G1 X1.214 Y4.1484
G1 X1.2129 Y4.1345
G3 X1.2695 Y4.1036 I0.0375 J0.0013
G1 X1.4833 Y4.2306
G3 X1.4654 Y4.3003 I-0.0191 J0.0322
G1 X1.2968
G1 X1.2782 Y4.2994
G1 X1.265 Y4.2964
G1 X1.2526 Y4.2911
G1 X1.2413 Y4.2837
G1 X1.2315 Y4.2744
G1 X1.2236 Y4.2635
G1 X1.2177 Y4.2514
G1 X1.2141 Y4.2383
G1 X1.2129 Y4.2249
G3 X1.274 Y4.1971 I0.0375 J0.0013
G1 X1.3191 Y4.2337
G3 X1.2968 Y4.3003 I-0.0236 J0.0291
G1 X1.2518
G1 X1.2463 Y4.3
G1 X1.2406 Y4.2989
G1 X1.235 Y4.2968
G1 X1.2294 Y4.2935
G1 X1.2261 Y4.2909
G1 X1.2228 Y4.2877
G1 X1.2202 Y4.2845
G1 X1.2181 Y4.2814
G1 X1.2156 Y4.2764
G1 X1.2138 Y4.2708
G1 X1.213 Y4.2652
G1 X1.2129 Y4.2539
G1 Y3.8852
G3 X1.2533 Y3.8491 I0.0375 J0.0013
G1 X2.2134 Y3.9255
G3 X2.2479 Y3.9616 I-0.003 J0.0374
G1 Y4.1752
G1 X2.2471 Y4.1911
G1 X2.2448 Y4.2084
G1 X2.2407 Y4.2278
G1 X2.2376 Y4.2379
G1 X2.2317 Y4.2527
G1 X2.2231 Y4.2662
G1 X2.2122 Y4.2779
G1 X2.1994 Y4.2875
G1 X2.1851 Y4.2945
G1 X2.1697 Y4.2988
G1 X2.1538 Y4.3003
G3 X2.1235 Y4.2426 I0.0013 J-0.0375
G1 X2.1788 Y4.1563
G3 X2.2479 Y4.1752 I0.0316 J0.0202
G1 Y4.2539
G1 X2.2478 Y4.2652
G1 X2.2469 Y4.2708
G1 X2.2451 Y4.2764
G1 X2.2434 Y4.2801
G1 X2.2412 Y4.2837
G1 X2.238 Y4.2877
G1 X2.2339 Y4.2915
G1 X2.2299 Y4.2944
G1 X2.2249 Y4.2971
G1 X2.2199 Y4.2989
G1 X2.2187 Y4.2992
G1 X2.213 Y4.3002
G1 X2.2074 Y4.3003
G1 X2.0368
G3 X2.0178 Y4.2944 I0.0013 J-0.0375
G1 X2.0087 Y4.2885
G1 X1.2301 Y3.7895
G3 X1.2129 Y3.7592 I0.0202 J-0.0316
G1 Y3.5006
G1 X1.2136 Y3.4855
G1 X1.216 Y3.4672
G1 X1.2203 Y3.4471
G1 X1.2268 Y3.4255
G1 X1.2358 Y3.4024
G1 X1.2479 Y3.3773
G1 X1.2627 Y3.3523
G1 X1.2817 Y3.3252
G1 X1.3042 Y3.2982
G1 X1.3299 Y3.2718
G1 X1.3601 Y3.2454
G1 X1.3945 Y3.22
G1 X1.4327 Y3.1962
G1 X1.4736 Y3.1751
G1 X1.5167 Y3.1571
G1 X1.5611 Y3.1426
G1 X1.6065 Y3.1315
G1 X1.6525 Y3.1239
G1 X1.699 Y3.1196
G1 X1.7457 Y3.1188
G1 X1.7923 Y3.1213
G1 X1.8387 Y3.127
G1 X1.8845 Y3.1361
G1 X1.9295 Y3.1484
G1 X1.9736 Y3.1639
G1 X2.0164 Y3.1824
G1 X2.0579 Y3.2037
G1 X2.098 Y3.2278
G1 X2.1363 Y3.2544
G1 X2.1728 Y3.2835
G1 X2.2074 Y3.3149
G1 X2.2232 Y3.3313
G1 X2.2318 Y3.3416
G1 X2.2387 Y3.3532
G1 X2.2438 Y3.3656
G1 X2.2468 Y3.3787
G1 X2.2479 Y3.3921
G1 Y3.6223
G3 X2.2057 Y3.6582 I-0.0375 J-0.0013
G1 X1.2456 Y3.5365
G3 X1.2129 Y3.5006 I0.0047 J-0.0372
G1 Y3.3432
G1 X1.2139 Y3.3231
G1 X1.2158 Y3.3085
G1 X1.2194 Y3.2914
G1 X1.2248 Y3.2737
G1 X1.2324 Y3.2539
G1 X1.2425 Y3.2332
G1 X1.2557 Y3.2108
G1 X1.2717 Y3.1879
G1 X1.2923 Y3.1631
G1 X1.3154 Y3.1395
G1 X1.3437 Y3.1148
G1 X1.3769 Y3.0902
G1 X1.4134 Y3.0675
G1 X1.4543 Y3.0464
G1 X1.4973 Y3.0284
G1 X1.5417 Y3.0137
G1 X1.5869 Y3.0021
G1 X1.6328 Y2.9936
G1 X1.6792 Y2.9881
G1 X1.7258 Y2.9856
G1 X1.7725 Y2.9861
G1 X1.8191 Y2.9894
G1 X1.8653 Y2.9956
G1 X1.9112 Y3.0045
G1 X1.9564 Y3.0161
G1 X2.0009 Y3.0304
G1 X2.0444 Y3.0472
G1 X2.0869 Y3.0666
G1 X2.1282 Y3.0883
G1 X2.1683 Y3.1122
G1 X2.207 Y3.1384
G1 X2.2138 Y3.1436
G1 X2.2255 Y3.1545
G1 X2.2351 Y3.1673
G1 X2.2421 Y3.1816
G1 X2.2464 Y3.197
G1 X2.2479 Y3.2129
G1 Y3.3921
G3 X2.2085 Y3.4283 I-0.0375 J-0.0013
G1 X1.2484 Y3.3794
G3 X1.2129 Y3.3432 I0.0019 J-0.0375
G1 Y3.1971
G1 X1.2138 Y3.1779
G1 X1.2157 Y3.1636
G1 X1.219 Y3.1481
G1 X1.224 Y3.1314
G1 X1.2313 Y3.1127
G1 X1.2405 Y3.0937
G1 X1.253 Y3.0725
G1 X1.2679 Y3.0512
G1 X1.2869 Y3.0285
G1 X1.3096 Y3.0051
G1 X1.3358 Y2.9823
G1 X1.3676 Y2.9588
G1 X1.4046 Y2.9357
G1 X1.4461 Y2.9143
G1 X1.4892 Y2.8963
G1 X1.5334 Y2.8815
G1 X1.5786 Y2.8698
G1 X1.6245 Y2.861
G1 X1.6708 Y2.855
G1 X1.7174 Y2.8517
G1 X1.7641 Y2.851
G1 X1.8107 Y2.8529
G1 X1.8572 Y2.8573
G1 X1.9034 Y2.8642
G1 X1.9491 Y2.8735
G1 X1.9943 Y2.8852
G1 X2.0389 Y2.8991
G1 X2.0827 Y2.9152
G1 X2.1257 Y2.9335
G1 X2.1677 Y2.9538
G1 X2.2048 Y2.9746
G1 X2.2091 Y2.9774
G1 X2.2203 Y2.9863
G1 X2.2298 Y2.9969
G1 X2.2376 Y3.0089
G1 X2.2432 Y3.022
G1 X2.2467 Y3.0359
G1 X2.2479 Y3.0501
G1 Y3.2129
G3 X2.2098 Y3.2491 I-0.0375 J-0.0013
G1 X1.2497 Y3.2333
G3 X1.2129 Y3.1971 I0.0006 J-0.0375
G1 Y3.0509
G1 X1.2135 Y3.0388
G1 X1.2153 Y3.0247
G1 X1.2184 Y3.0102
G1 X1.2234 Y2.9935
G1 X1.2302 Y2.9762
G1 X1.2394 Y2.9571
G1 X1.2512 Y2.9371
G1 X1.2661 Y2.9159
G1 X1.2843 Y2.894
G1 X1.3069 Y2.8708
G1 X1.3325 Y2.8485
G1 X1.3636 Y2.8255
G1 X1.4003 Y2.8027
G1 X1.4418 Y2.7812
G1 X1.4848 Y2.7632
G1 X1.5291 Y2.7483
G1 X1.5742 Y2.7364
G1 X1.62 Y2.7273
G1 X1.6663 Y2.7208
G1 X1.7128 Y2.7168
G1 X1.7594 Y2.7153
G1 X1.8061 Y2.7162
G1 X1.8527 Y2.7193
G1 X1.8991 Y2.7247
G1 X1.9452 Y2.7323
G1 X1.9908 Y2.742
G1 X2.036 Y2.7537
G1 X2.0806 Y2.7675
G1 X2.1246 Y2.7832
G1 X2.1678 Y2.801
G1 X2.2003 Y2.8173
G1 X2.2057 Y2.8206
G1 X2.2178 Y2.8294
G1 X2.2282 Y2.8402
G1 X2.2366 Y2.8525
G1 X2.2428 Y2.8661
G1 X2.2466 Y2.8806
G1 X2.2479 Y2.8954
G1 Y3.0501
G3 X2.2104 Y3.0863 I-0.0375 J-0.0013
G1 X1.2504 Y3.0871
G3 X1.2129 Y3.0509 I0. J-0.0375
G1 Y2.916
G1 X1.2136 Y2.902
G1 X1.2154 Y2.8882
G1 X1.2184 Y2.874
G1 X1.2234 Y2.8573
G1 X1.2299 Y2.8406
G1 X1.2392 Y2.8215
G1 X1.2506 Y2.8021
G1 X1.2655 Y2.7809
G1 X1.2832 Y2.7595
G1 X1.3058 Y2.7364
G1 X1.3312 Y2.7143
G1 X1.3621 Y2.6914
G1 X1.3987 Y2.6686
G1 X1.4402 Y2.6472
G1 X1.4832 Y2.6291
G1 X1.5274 Y2.6141
G1 X1.5725 Y2.602
G1 X1.6183 Y2.5926
G1 X1.6644 Y2.5857
G1 X1.7109 Y2.5812
G1 X1.7576 Y2.579
G1 X1.8042
G1 X1.8509 Y2.5812
G1 X1.8974 Y2.5854
G1 X1.9437 Y2.5916
G1 X1.9896 Y2.5998
G1 X2.0352 Y2.6099
G1 X2.0804 Y2.6218
G1 X2.1249 Y2.6358
G1 X2.1663 Y2.6512
G1 X2.1972 Y2.6657
G1 X2.2037 Y2.6694
G1 X2.2163 Y2.6781
G1 X2.2272 Y2.6889
G1 X2.236 Y2.7014
G1 X2.2425 Y2.7153
G1 X2.2465 Y2.7301
G1 X2.2479 Y2.7454
G1 Y2.8954
G3 X2.2112 Y2.9316 I-0.0375 J-0.0013
G1 X1.2511 Y2.9522
G3 X1.2129 Y2.916 I-0.0008 J-0.0375
G1 Y2.7811
G1 X1.2136 Y2.7667
G1 X1.2154 Y2.7529
G1 X1.2184 Y2.7388
G1 X1.2234 Y2.7222
G1 X1.2298 Y2.7056
G1 X1.2391 Y2.6866
G1 X1.2504 Y2.6674
G1 X1.2653 Y2.6461
G1 X1.2829 Y2.625
G1 X1.3053 Y2.6019
G1 X1.3309 Y2.5797
G1 X1.3619 Y2.5567
G1 X1.3987 Y2.5338
G1 X1.4402 Y2.5124
G1 X1.4832 Y2.4943
G1 X1.5274 Y2.4791
G1 X1.5724 Y2.4668
G1 X1.6181 Y2.4571
G1 X1.6642 Y2.4498
G1 X1.7107 Y2.4449
G1 X1.7573 Y2.4421
G1 X1.804 Y2.4415
G1 X1.8506 Y2.4428
G1 X1.8972 Y2.446
G1 X1.9436 Y2.4511
G1 X1.9898 Y2.458
G1 X2.0357 Y2.4668
G1 X2.0811 Y2.4775
G1 X2.126 Y2.4903
G1 X2.165 Y2.5041
G1 X2.1952 Y2.5175
G1 X2.2023 Y2.5214
G1 X2.2153 Y2.5301
G1 X2.2265 Y2.5409
G1 X2.2356 Y2.5536
G1 X2.2424 Y2.5677
G1 X2.2465 Y2.5827
G1 X2.2479 Y2.5982
G1 Y2.7454
G3 X2.2118 Y2.7816 I-0.0375 J-0.0013
G1 X1.2517 Y2.8172
G3 X1.2129 Y2.7811 I-0.0014 J-0.0375
G1 Y2.6462
G1 X1.2136 Y2.6318
G1 X1.2154 Y2.6181
G1 X1.2184 Y2.604
G1 X1.2234 Y2.5874
G1 X1.2298 Y2.5708
G1 X1.2391 Y2.5518
G1 X1.2504 Y2.5326
G1 X1.2653 Y2.5113
G1 X1.2829 Y2.4902
G1 X1.3054 Y2.4671
G1 X1.3311 Y2.4446
G1 X1.3623 Y2.4215
G1 X1.3996 Y2.3983
G1 X1.4411 Y2.3769
G1 X1.4841 Y2.3587
G1 X1.5282 Y2.3435
G1 X1.5732 Y2.331
G1 X1.6188 Y2.321
G1 X1.6649 Y2.3134
G1 X1.7113 Y2.308
G1 X1.7578 Y2.3047
G1 X1.8045 Y2.3034
G1 X1.8512 Y2.304
G1 X1.8978 Y2.3064
G1 X1.9443 Y2.3106
G1 X1.9906 Y2.3166
G1 X2.0367 Y2.3243
G1 X2.0823 Y2.3341
G1 X2.1274 Y2.3462
G1 X2.1647 Y2.3589
G1 X2.1943 Y2.3718
G1 X2.2016 Y2.3757
G1 X2.2147 Y2.3843
G1 X2.2261 Y2.3951
G1 X2.2354 Y2.4078
G1 X2.2423 Y2.422
G1 X2.2465 Y2.4372
G1 X2.2479 Y2.4529
G1 Y2.5982
G3 X2.2123 Y2.6344 I-0.0375 J-0.0013
G1 X1.2522 Y2.6823
G3 X1.2129 Y2.6462 I-0.0019 J-0.0375
G1 Y2.5112
G1 X1.2136 Y2.497
G1 X1.2154 Y2.4832
G1 X1.2184 Y2.4691
G1 X1.2234 Y2.4525
G1 X1.2299 Y2.4359
G1 X1.2391 Y2.4168
G1 X1.2505 Y2.3975
G1 X1.2654 Y2.3763
G1 X1.2831 Y2.3549
G1 X1.3057 Y2.3317
G1 X1.3317 Y2.3091
G1 X1.3632 Y2.2858
G1 X1.4009 Y2.2623
G1 X1.4424 Y2.2409
G1 X1.4854 Y2.2226
G1 X1.5295 Y2.2073
G1 X1.5744 Y2.1945
G1 X1.62 Y2.1843
G1 X1.666 Y2.1764
G1 X1.7123 Y2.1706
G1 X1.7588 Y2.1668
G1 X1.8055 Y2.165
G1 X1.8522 Y2.1649
G1 X1.8988 Y2.1667
G1 X1.9454 Y2.1701
G1 X1.9918 Y2.1753
G1 X2.038 Y2.1824
G1 X2.0838 Y2.1915
G1 X2.129 Y2.2031
G1 X2.1648 Y2.2151
G1 X2.1939 Y2.2275
G1 X2.2011 Y2.2313
G1 X2.2144 Y2.2399
G1 X2.2259 Y2.2507
G1 X2.2353 Y2.2635
G1 X2.2422 Y2.2777
G1 X2.2464 Y2.293
G1 X2.2479 Y2.3087
G1 Y2.4529
G3 X2.2127 Y2.489 I-0.0375 J-0.0013
G1 X1.2526 Y2.5474
G3 X1.2129 Y2.5112 I-0.0023 J-0.0374
G1 Y2.3763
G1 X1.2136 Y2.3619
G1 X1.2154 Y2.3481
G1 X1.2184 Y2.334
G1 X1.2234 Y2.3174
G1 X1.2299 Y2.3006
G1 X1.2392 Y2.2816
G1 X1.2506 Y2.2621
G1 X1.2656 Y2.2408
G1 X1.2834 Y2.2193
G1 X1.3062 Y2.1959
G1 X1.3324 Y2.1731
G1 X1.3643 Y2.1495
G1 X1.4025 Y2.1257
G1 X1.444 Y2.1043
G1 X1.487 Y2.086
G1 X1.531 Y2.0705
G1 X1.5759 Y2.0576
G1 X1.6214 Y2.0471
G1 X1.6673 Y2.0388
G1 X1.7136 Y2.0327
G1 X1.7601 Y2.0285
G1 X1.8068 Y2.0262
G1 X1.8534 Y2.0256
G1 X1.9001 Y2.0268
G1 X1.9467 Y2.0297
G1 X1.9932 Y2.0343
G1 X2.0394 Y2.0408
G1 X2.0853 Y2.0495
G1 X2.1306 Y2.0607
G1 X2.1652 Y2.0722
G1 X2.1938 Y2.0843
G1 X2.2008 Y2.0879
G1 X2.2141 Y2.0965
G1 X2.2257 Y2.1073
G1 X2.2352 Y2.1201
G1 X2.2421 Y2.1344
G1 X2.2464 Y2.1497
G1 X2.2479 Y2.1655
G1 Y2.3087
G3 X2.213 Y2.3448 I-0.0375 J-0.0013
G1 X1.253 Y2.4124
G3 X1.2129 Y2.3763 I-0.0026 J-0.0374
G1 Y2.2414
G1 X1.2136 Y2.2265
G1 X1.2154 Y2.2127
G1 X1.2185 Y2.1985
G1 X1.2235 Y2.1818
G1 X1.23 Y2.165
G1 X1.2393 Y2.1459
G1 X1.2509 Y2.1262
G1 X1.2658 Y2.1049
G1 X1.2839 Y2.0832
G1 X1.3068 Y2.0597
G1 X1.3332 Y2.0366
G1 X1.3655 Y2.0128
G1 X1.4043 Y1.9886
G1 X1.4458 Y1.9672
G1 X1.4887 Y1.9488
G1 X1.5327 Y1.9332
G1 X1.5775 Y1.9202
G1 X1.6229 Y1.9094
G1 X1.6688 Y1.9009
G1 X1.7151 Y1.8944
G1 X1.7616 Y1.8898
G1 X1.8082 Y1.8871
G1 X1.8548 Y1.8861
G1 X1.9015 Y1.8868
G1 X1.9482 Y1.8892
G1 X1.9947 Y1.8935
G1 X2.0409 Y1.8996
G1 X2.0869 Y1.908
G1 X2.1323 Y1.919
G1 X2.1659 Y1.93
G1 X2.1941 Y1.9419
G1 X2.2006 Y1.9453
G1 X2.214 Y1.9538
G1 X2.2257 Y1.9647
G1 X2.2351 Y1.9775
G1 X2.2421 Y1.9918
G1 X2.2464 Y2.0071
G1 X2.2479 Y2.023
G1 Y2.1655
G3 X2.2133 Y2.2016 I-0.0375 J-0.0013
G1 X1.2533 Y2.2775
G3 X1.2129 Y2.2414 I-0.003 J-0.0374
G1 Y2.1065
G1 X1.2137 Y2.0907
G1 X1.2155 Y2.0768
G1 X1.2185 Y2.0626
G1 X1.2235 Y2.0459
G1 X1.2301 Y2.0289
G1 X1.2394 Y2.0098
G1 X1.2511 Y1.9899
G1 X1.2661 Y1.9686
G1 X1.2843 Y1.9466
G1 X1.3074 Y1.9229
G1 X1.3341 Y1.8997
G1 X1.3668 Y1.8755
G1 X1.4061 Y1.8511
G1 X1.4476 Y1.8296
G1 X1.4905 Y1.8112
G1 X1.5344 Y1.7955
G1 X1.5792 Y1.7823
G1 X1.6246 Y1.7713
G1 X1.6704 Y1.7625
G1 X1.7166 Y1.7557
G1 X1.7631 Y1.7508
G1 X1.8097 Y1.7477
G1 X1.8563 Y1.7464
G1 X1.903 Y1.7468
G1 X1.9497 Y1.7489
G1 X1.9962 Y1.7528
G1 X2.0425 Y1.7586
G1 X2.0885 Y1.7668
G1 X2.1334 Y1.7776
G1 X2.1664 Y1.7883
G1 X2.1942 Y1.8
G1 X2.2005 Y1.8032
G1 X2.2139 Y1.8118
G1 X2.2256 Y1.8226
G1 X2.2351 Y1.8354
G1 X2.2421 Y1.8497
G1 X2.2464 Y1.8651
G1 X2.2479 Y1.881
G1 Y2.023
G3 X2.2136 Y2.059 I-0.0375 J-0.0013
G1 X1.2536 Y2.1425
G3 X1.2129 Y2.1065 I-0.0033 J-0.0374
G1 Y1.9716
G1 X1.2137 Y1.9545
G1 X1.2156 Y1.9405
G1 X1.2186 Y1.9262
G1 X1.2236 Y1.9095
G1 X1.2303 Y1.8923
G1 X1.2395 Y1.8733
G1 X1.2514 Y1.8531
G1 X1.2664 Y1.8318
G1 X1.2848 Y1.8096
G1 X1.3081 Y1.7857
G1 X1.335 Y1.7623
G1 X1.368 Y1.7378
G1 X1.4077 Y1.7131
G1 X1.4492 Y1.6917
G1 X1.492 Y1.6732
G1 X1.536 Y1.6574
G1 X1.5807 Y1.644
G1 X1.626 Y1.6329
G1 X1.6719 Y1.6238
G1 X1.718 Y1.6168
G1 X1.7644 Y1.6116
G1 X1.811 Y1.6083
G1 X1.8577 Y1.6066
G1 X1.9043 Y1.6067
G1 X1.951 Y1.6086
G1 X1.9975 Y1.6122
G1 X2.0439 Y1.6179
G1 X2.0899 Y1.6259
G1 X2.134 Y1.6364
G1 X2.1666 Y1.6469
G1 X2.1942 Y1.6584
G1 X2.2003 Y1.6616
G1 X2.2138 Y1.6701
G1 X2.2255 Y1.681
G1 X2.235 Y1.6938
G1 X2.2421 Y1.7081
G1 X2.2464 Y1.7235
G1 X2.2479 Y1.7394
G1 Y1.881
G3 X2.2139 Y1.917 I-0.0375 J-0.0013
G1 X1.2539 Y2.0076
G3 X1.2129 Y1.9716 I-0.0035 J-0.0373
G1 Y1.8366
G1 X1.2138 Y1.8178
G1 X1.2157 Y1.8037
G1 X1.2187 Y1.7894
G1 X1.2237 Y1.7727
G1 X1.2305 Y1.7553
G1 X1.2397 Y1.7363
G1 X1.2518 Y1.7158
G1 X1.2667 Y1.6945
G1 X1.2853 Y1.6721
G1 X1.3087 Y1.6481
G1 X1.3359 Y1.6244
G1 X1.3693 Y1.5997
G1 X1.4089 Y1.5751
G1 X1.4504 Y1.5536
G1 X1.4932 Y1.535
G1 X1.5371 Y1.5191
G1 X1.5818 Y1.5055
G1 X1.6271 Y1.4942
G1 X1.6729 Y1.485
G1 X1.719 Y1.4777
G1 X1.7654 Y1.4723
G1 X1.8119 Y1.4687
G1 X1.8586 Y1.4668
G1 X1.9053 Y1.4667
G1 X1.9519 Y1.4683
G1 X1.9985 Y1.4718
G1 X2.0449 Y1.4772
G1 X2.0909 Y1.4851
G1 X2.1344 Y1.4954
G1 X2.1667 Y1.5058
G1 X2.1941 Y1.5172
G1 X2.2002 Y1.5203
G1 X2.2137 Y1.5288
G1 X2.2255 Y1.5397
G1 X2.235 Y1.5525
G1 X2.2421 Y1.5669
G1 X2.2464 Y1.5823
G1 X2.2479 Y1.5982
G1 Y1.7394
G3 X2.2142 Y1.7754 I-0.0375 J-0.0013
G1 X1.2541 Y1.8726
G3 X1.2129 Y1.8366 I-0.0038 J-0.0373
G1 Y1.6905
G1 X1.2133 Y1.6812
G1 X1.2152 Y1.667
G1 X1.2183 Y1.6525
G1 X1.2233 Y1.6358
G1 X1.2301 Y1.6182
G1 X1.2394 Y1.5992
G1 X1.2516 Y1.5785
G1 X1.2666 Y1.5571
G1 X1.2854 Y1.5345
G1 X1.309 Y1.5103
G1 X1.3364 Y1.4864
G1 X1.3701 Y1.4614
G1 X1.4098 Y1.4367
G1 X1.4512 Y1.4152
G1 X1.494 Y1.3966
G1 X1.5379 Y1.3805
G1 X1.5825 Y1.3668
G1 X1.6278 Y1.3554
G1 X1.6735 Y1.3459
G1 X1.7196 Y1.3385
G1 X1.766 Y1.3329
G1 X1.8125 Y1.3291
G1 X1.8591 Y1.327
G1 X1.9058 Y1.3267
G1 X1.9525 Y1.3281
G1 X1.9991 Y1.3314
G1 X2.0455 Y1.3367
G1 X2.0915 Y1.3445
G1 X2.1347 Y1.3546
G1 X2.1667 Y1.3649
G1 X2.194 Y1.3762
G1 X2.2001 Y1.3793
G1 X2.2136 Y1.3878
G1 X2.2254 Y1.3987
G1 X2.235 Y1.4115
G1 X2.2421 Y1.4259
G1 X2.2464 Y1.4413
G1 X2.2479 Y1.4572
G1 Y1.5982
G3 X2.214 Y1.6342 I-0.0375 J-0.0013
G1 X1.2539 Y1.7265
G3 X1.2129 Y1.6905 I-0.0036 J-0.0373
G1 Y1.5556
G1 X1.2135 Y1.5434
G1 X1.2153 Y1.5292
G1 X1.2184 Y1.5147
G1 X1.2234 Y1.498
G1 X1.2303 Y1.4803
G1 X1.2396 Y1.4612
G1 X1.2518 Y1.4405
G1 X1.2669 Y1.419
G1 X1.2858 Y1.3963
G1 X1.3095 Y1.372
G1 X1.3371 Y1.3479
G1 X1.3711 Y1.3227
G1 X1.4108 Y1.298
G1 X1.4522 Y1.2765
G1 X1.495 Y1.2578
G1 X1.5388 Y1.2416
G1 X1.5834 Y1.2279
G1 X1.6286 Y1.2163
G1 X1.6743 Y1.2067
G1 X1.7204 Y1.1991
G1 X1.7667 Y1.1933
G1 X1.8133 Y1.1893
G1 X1.8599 Y1.1871
G1 X1.9066 Y1.1866
G1 X1.9533 Y1.188
G1 X1.9999 Y1.1911
G1 X2.0462 Y1.1964
G1 X2.0923 Y1.2041
G1 X2.1351 Y1.2141
G1 X2.1669 Y1.2243
G1 X2.194 Y1.2355
G1 X2.2001 Y1.2385
G1 X2.2136 Y1.2471
G1 X2.2254 Y1.2579
G1 X2.235 Y1.2708
G1 X2.242 Y1.2851
G1 X2.2464 Y1.3006
G1 X2.2479 Y1.3165
G1 Y1.4572
G3 X2.2142 Y1.4932 I-0.0375 J-0.0013
G1 X1.2542 Y1.5916
G3 X1.2129 Y1.5556 I-0.0038 J-0.0373
G1 Y1.4206
G1 X1.2136 Y1.4054
G1 X1.2155 Y1.3912
G1 X1.2186 Y1.3766
G1 X1.2236 Y1.3599
G1 X1.2306 Y1.3421
G1 X1.2398 Y1.323
G1 X1.2521 Y1.3021
G1 X1.2672 Y1.2807
G1 X1.2862 Y1.2577
G1 X1.31 Y1.2333
G1 X1.3378 Y1.2091
G1 X1.3721 Y1.1837
G1 X1.4117 Y1.1591
G1 X1.4531 Y1.1375
G1 X1.4959 Y1.1188
G1 X1.5397 Y1.1025
G1 X1.5843 Y1.0887
G1 X1.6295 Y1.077
G1 X1.6751 Y1.0673
G1 X1.7212 Y1.0596
G1 X1.7675 Y1.0537
G1 X1.814 Y1.0496
G1 X1.8607 Y1.0472
G1 X1.9073 Y1.0466
G1 X1.954 Y1.0479
G1 X2.0006 Y1.051
G1 X2.047 Y1.0561
G1 X2.0931 Y1.0638
G1 X2.1355 Y1.0737
G1 X2.1672 Y1.0839
G1 X2.1941 Y1.0949
G1 X2.2 Y1.0979
G1 X2.2136 Y1.1065
G1 X2.2254 Y1.1174
G1 X2.235 Y1.1302
G1 X2.242 Y1.1446
G1 X2.2464 Y1.16
G1 X2.2479 Y1.1759
G1 Y1.3165
G3 X2.2144 Y1.3525 I-0.0375 J-0.0013
G1 X1.2544 Y1.4566
G3 X1.2129 Y1.4206 I-0.004 J-0.0373
G1 Y1.2857
G1 X1.2138 Y1.2671
G1 X1.2157 Y1.2528
G1 X1.2188 Y1.2382
G1 X1.2238 Y1.2215
G1 X1.2308 Y1.2036
G1 X1.24 Y1.1845
G1 X1.2524 Y1.1635
G1 X1.2675 Y1.142
G1 X1.2866 Y1.119
G1 X1.3105 Y1.0945
G1 X1.3385 Y1.0701
G1 X1.3729 Y1.0446
G1 X1.4126 Y1.0199
G1 X1.454 Y0.9983
G1 X1.4967 Y0.9796
G1 X1.5405 Y0.9633
G1 X1.585 Y0.9494
G1 X1.6302 Y0.9376
G1 X1.6759 Y0.9278
G1 X1.7219 Y0.92
G1 X1.7682 Y0.914
G1 X1.8147 Y0.9098
G1 X1.8614 Y0.9074
G1 X1.908 Y0.9067
G1 X1.9547 Y0.9078
G1 X2.0013 Y0.9108
G1 X2.0477 Y0.916
G1 X2.0938 Y0.9236
G1 X2.1359 Y0.9335
G1 X2.1674 Y0.9435
G1 X2.1943 Y0.9546
G1 X2.2 Y0.9575
G1 X2.2136 Y0.966
G1 X2.2254 Y0.9769
G1 X2.235 Y0.9897
G1 X2.242 Y1.0041
G1 X2.2464 Y1.0195
G1 X2.2479 Y1.0355
G1 Y1.1759
G3 X2.2146 Y1.2119 I-0.0375 J-0.0013
G1 X1.2546 Y1.3217
G3 X1.2129 Y1.2857 I-0.0043 J-0.0373
G1 Y1.1396
G1 X1.2134 Y1.129
G1 X1.2153 Y1.1147
G1 X1.2184 Y1.1
G1 X1.2234 Y1.0833
G1 X1.2305 Y1.0651
G1 X1.2397 Y1.0461
G1 X1.2522 Y1.0249
G1 X1.2673 Y1.0034
G1 X1.2866 Y0.9802
G1 X1.3106 Y0.9556
G1 X1.3387 Y0.9311
G1 X1.3734 Y0.9054
G1 X1.413 Y0.8807
G1 X1.4544 Y0.8591
G1 X1.4971 Y0.8403
G1 X1.5409 Y0.824
G1 X1.5854 Y0.81
G1 X1.6306 Y0.7981
G1 X1.6762 Y0.7883
G1 X1.7222 Y0.7803
G1 X1.7685 Y0.7743
G1 X1.815 Y0.77
G1 X1.8616 Y0.7675
G1 X1.9083 Y0.7667
G1 X1.955 Y0.7678
G1 X2.0016 Y0.7707
G1 X2.048 Y0.7758
G1 X2.0941 Y0.7834
G1 X2.136 Y0.7932
G1 X2.1675 Y0.8032
G1 X2.1943 Y0.8142
G1 X2.2 Y0.8172
G1 X2.2136 Y0.8257
G1 X2.2253 Y0.8366
G1 X2.2349 Y0.8494
G1 X2.242 Y0.8638
G1 X2.2464 Y0.8792
G1 X2.2479 Y0.8952
G1 Y1.0355
G3 X2.2144 Y1.0715 I-0.0375 J-0.0013
G1 X1.2544 Y1.1755
G3 X1.2129 Y1.1396 I-0.004 J-0.0373
G1 Y1.0046
G1 X1.2136 Y0.99
G1 X1.2155 Y0.9757
G1 X1.2186 Y0.961
G1 X1.2236 Y0.9443
G1 X1.2307 Y0.9261
G1 X1.24 Y0.907
G1 X1.2524 Y0.8858
G1 X1.2676 Y0.8643
G1 X1.2869 Y0.841
G1 X1.3109 Y0.8164
G1 X1.3392 Y0.7918
G1 X1.374 Y0.766
G1 X1.4136 Y0.7413
G1 X1.455 Y0.7197
G1 X1.4835 Y0.7071
G1 X1.4949 Y0.703
G1 X1.5067 Y0.7005
G1 X1.5188 Y0.6997
G1 X2.1287
G1 X2.1534 Y0.7009
G1 X2.1715 Y0.7033
G1 X2.1883 Y0.7069
G1 X2.2025 Y0.7126
G1 X2.2153 Y0.7208
G1 X2.2265 Y0.7311
G1 X2.2356 Y0.7434
G1 X2.2423 Y0.757
G1 X2.2465 Y0.7717
G1 X2.2479 Y0.7869
G3 X2.191 Y0.8177 I-0.0375 J-0.0013
G1 X2.1107 Y0.7693
G3 X2.1287 Y0.6997 I0.0194 J-0.0321
G1 X2.2074
G1 X2.213 Y0.6998
G1 X2.2187 Y0.7008
G1 X2.2199 Y0.7011
G1 X2.2249 Y0.7029
G1 X2.2299 Y0.7055
G1 X2.2339 Y0.7085
G1 X2.238 Y0.7123
G1 X2.2412 Y0.7163
G1 X2.2434 Y0.7199
G1 X2.2451 Y0.7236
G1 X2.2469 Y0.7292
G1 X2.2478 Y0.7348
G1 X2.2479 Y0.7461
G1 Y0.8952
G3 X2.2146 Y0.9311 I-0.0375 J-0.0013
G1 X1.2546 Y1.0406
G3 X1.2129 Y1.0046 I-0.0042 J-0.0373
G1 Y0.8697
G1 X1.2138 Y0.8509
G1 X1.2157 Y0.8366
G1 X1.2188 Y0.8219
G1 X1.2238 Y0.8052
G1 X1.231 Y0.7869
G1 X1.2402 Y0.7679
G1 X1.2527 Y0.7466
G1 X1.2595 Y0.7369
G1 X1.2684 Y0.7261
G1 X1.2789 Y0.7169
G1 X1.2908 Y0.7095
G1 X1.3036 Y0.7041
G1 X1.3172 Y0.7008
G1 X1.3311 Y0.6997
G3 X1.3619 Y0.7566 I-0.0013 J0.0375
G1 X1.2824 Y0.8878
G3 X1.2129 Y0.8697 I-0.0321 J-0.0194
G1 Y0.7461
G1 Y0.7399
G1 X1.213 Y0.7348
G1 X1.2138 Y0.7292
G1 X1.2156 Y0.7236
G1 X1.2181 Y0.7186
G1 X1.2202 Y0.7154
G1 X1.2227 Y0.7123
G1 X1.2261 Y0.709
G1 X1.2294 Y0.7064
G1 X1.235 Y0.7032
G1 X1.2407 Y0.7011
G1 X1.2463 Y0.7
G1 X1.2518 Y0.6997
G1 X1.5188
G3 X1.5459 Y0.7127 I-0.0013 J0.0375
G1 X1.5489 Y0.7161 Z-0.0727
G1 X1.5518 Y0.7195 Z-0.0719
G1 X1.5546 Y0.7228 Z-0.0706
G1 X1.5573 Y0.7259 Z-0.0687
G1 X1.5598 Y0.7288 Z-0.0664
G1 X1.5621 Y0.7315 Z-0.0636
G1 X1.5642 Y0.7339 Z-0.0604
G1 X1.566 Y0.7361 Z-0.0568
G1 X1.5676 Y0.7378 Z-0.0529
G1 X1.5688 Y0.7392 Z-0.0488
G1 X1.5697 Y0.7403 Z-0.0445
G1 X1.5702 Y0.7409 Z-0.04
G1 X1.5704 Y0.7411 Z-0.0355
G0 Z0.6
G0 X2.0266 Y0.7384
G0 Z0.2
G0 Z0.015
G1 Z-0.0225 F11.
G1 X2.0268 Y0.7383 Z-0.027
G1 X2.0276 Y0.7381 Z-0.0315
G1 X2.0289 Y0.7377 Z-0.0358
G1 X2.0307 Y0.7373 Z-0.0399
G1 X2.033 Y0.7367 Z-0.0438
G1 X2.0357 Y0.736 Z-0.0474
G1 X2.0388 Y0.7352 Z-0.0506
G1 X2.0423 Y0.7343 Z-0.0534
G1 X2.046 Y0.7334 Z-0.0557
G1 X2.05 Y0.7323 Z-0.0576
G1 X2.0542 Y0.7313 Z-0.0589
G1 X2.0585 Y0.7302 Z-0.0597
G1 X2.0629 Y0.729 Z-0.06
G3 X2.267 Y0.6997 I0.2376 J0.9274
G1 X2.2861
G1 X2.2876 Y0.6998
G1 X2.2949 Y0.7055
G1 X2.3032 Y0.7131
G1 X2.3125 Y0.7232
G1 X2.3227 Y0.7362
G1 X2.3337 Y0.7529
G1 X2.3456 Y0.7743
G1 X2.3581 Y0.8021
G1 X2.3713 Y0.8389
G1 X2.3835 Y0.884
G1 X2.3924 Y0.9298
G1 X2.399 Y0.976
G1 X2.4038 Y1.0225
G1 X2.4074 Y1.069
G1 X2.4101 Y1.1157
G1 X2.4121 Y1.1623
G1 X2.4135 Y1.209
G1 X2.4146 Y1.2556
G1 X2.4155 Y1.3023
G1 X2.4161 Y1.349
G1 X2.4165 Y1.3957
G1 X2.4169 Y1.4424
G1 X2.4171 Y1.4891
G1 X2.4173 Y1.5358
G1 X2.4176 Y1.6292
G1 X2.4177 Y1.7692
G1 X2.4178 Y2.0027
G1 X2.4179 Y2.6564
G1 Y4.2248
G1 X2.4164 Y4.2395
G1 X2.4121 Y4.2537
G1 X2.4051 Y4.2667
G1 X2.3957 Y4.2782
G1 X2.3843 Y4.2876
G1 X2.3712 Y4.2945
G1 X2.3571 Y4.2988
G1 X2.3423 Y4.3003
G3 X2.3152 Y4.2873 I0.0013 J-0.0375
G1 X2.3123 Y4.2839 Z-0.0597
G1 X2.3094 Y4.2805 Z-0.0589
G1 X2.3066 Y4.2772 Z-0.0576
G1 X2.3039 Y4.2741 Z-0.0557
G1 X2.3013 Y4.2712 Z-0.0534
G1 X2.299 Y4.2685 Z-0.0506
G1 X2.2969 Y4.266 Z-0.0474
G1 X2.2951 Y4.2639 Z-0.0438
G1 X2.2936 Y4.2621 Z-0.0399
G1 X2.2923 Y4.2607 Z-0.0358
G1 X2.2915 Y4.2597 Z-0.0315
G1 X2.2909 Y4.2591 Z-0.027
G1 X2.2908 Y4.2589 Z-0.0225
G0 Z0.2
G0 X2.2242 Y0.7276
G0 Z0.015
G1 Z-0.0225 F11.
G1 X2.2245 Y0.7274 Z-0.027
G1 X2.2252 Y0.727 Z-0.0315
G1 X2.2263 Y0.7263 Z-0.0358
G1 X2.2279 Y0.7254 Z-0.0399
G1 X2.2299 Y0.7242 Z-0.0438
G1 X2.2323 Y0.7227 Z-0.0474
G1 X2.2351 Y0.7211 Z-0.0506
G1 X2.2381 Y0.7193 Z-0.0534
G1 X2.2415 Y0.7173 Z-0.0557
G1 X2.245 Y0.7152 Z-0.0576
G1 X2.2487 Y0.713 Z-0.0589
G1 X2.2526 Y0.7107 Z-0.0597
G1 X2.2565 Y0.7084 Z-0.06
G3 X2.2861 Y0.6997 I0.0318 J0.0536
G1 X2.3373
G1 X2.3433 Y0.7
G1 X2.353 Y0.7034
G1 X2.3637 Y0.7081
G1 X2.376 Y0.7148
G1 X2.388 Y0.7226
G1 X2.4016 Y0.733
G1 X2.4157 Y0.7459
G1 X2.4302 Y0.7614
G1 X2.4456 Y0.7806
G1 X2.4613 Y0.8041
G1 X2.4773 Y0.8325
G1 X2.4939 Y0.8684
G1 X2.5099 Y0.9122
G1 X2.5226 Y0.9571
G1 X2.5325 Y1.0028
G1 X2.5403 Y1.0488
G1 X2.5464 Y1.0951
G1 X2.5512 Y1.1415
G1 X2.5549 Y1.1881
G1 X2.5578 Y1.2347
G1 X2.5601 Y1.2813
G1 X2.5618 Y1.328
G1 X2.5632 Y1.3747
G1 X2.5643 Y1.4213
G1 X2.5651 Y1.468
G1 X2.5657 Y1.5147
G1 X2.5662 Y1.5614
G1 X2.5666 Y1.6081
G1 X2.5669 Y1.6548
G1 X2.5671 Y1.7015
G1 X2.5673 Y1.7482
G1 X2.5675 Y1.8415
G1 X2.5677 Y1.9816
G1 X2.5678 Y2.2151
G1 X2.5679 Y2.6353
G1 Y4.0827
G1 X2.567 Y4.1294
G1 X2.5639 Y4.1669
G1 X2.5588 Y4.1974
G1 X2.5523 Y4.2237
G1 X2.5449 Y4.2458
G1 X2.5442 Y4.2472
G1 X2.5374 Y4.2601
G1 X2.5285 Y4.2717
G1 X2.5179 Y4.2816
G1 X2.5057 Y4.2896
G1 X2.4924 Y4.2955
G1 X2.4783 Y4.2991
G1 X2.4638 Y4.3003
G1 X2.4588
G3 X2.4317 Y4.2873 I0.0013 J-0.0375
G1 X2.4288 Y4.2839 Z-0.0597
G1 X2.4259 Y4.2805 Z-0.0589
G1 X2.423 Y4.2772 Z-0.0576
G1 X2.4203 Y4.2741 Z-0.0557
G1 X2.4178 Y4.2712 Z-0.0534
G1 X2.4155 Y4.2685 Z-0.0506
G1 X2.4134 Y4.266 Z-0.0474
G1 X2.4116 Y4.2639 Z-0.0438
G1 X2.41 Y4.2621 Z-0.0399
G1 X2.4088 Y4.2607 Z-0.0358
G1 X2.408 Y4.2597 Z-0.0315
G1 X2.4074 Y4.2591 Z-0.027
G1 X2.4072 Y4.2589 Z-0.0225
G0 Z0.2
G0 X2.2754 Y0.7276
G0 Z0.015
G1 Z-0.0225 F11.
G1 X2.2756 Y0.7274 Z-0.027
G1 X2.2763 Y0.727 Z-0.0315
G1 X2.2775 Y0.7263 Z-0.0358
G1 X2.2791 Y0.7254 Z-0.0399
G1 X2.2811 Y0.7242 Z-0.0438
G1 X2.2835 Y0.7227 Z-0.0474
G1 X2.2862 Y0.7211 Z-0.0506
G1 X2.2893 Y0.7193 Z-0.0534
G1 X2.2926 Y0.7173 Z-0.0557
G1 X2.2962 Y0.7152 Z-0.0576
G1 X2.2999 Y0.713 Z-0.0589
G1 X2.3037 Y0.7107 Z-0.0597
G1 X2.3076 Y0.7084 Z-0.06
G3 X2.3373 Y0.6997 I0.0318 J0.0536
G1 X2.416
G1 X2.422 Y0.7
G1 X2.4326 Y0.7014
G1 X2.4435 Y0.7038
G1 X2.4561 Y0.7077
G1 X2.4691 Y0.7129
G1 X2.4834 Y0.7199
G1 X2.4989 Y0.7291
G1 X2.5145 Y0.7402
G1 X2.5321 Y0.755
G1 X2.549 Y0.7717
G1 X2.5675 Y0.7931
G1 X2.5859 Y0.8182
G1 X2.6047 Y0.8489
G1 X2.624 Y0.8867
G1 X2.6418 Y0.9299
G1 X2.6563 Y0.9743
G1 X2.6682 Y1.0194
G1 X2.6779 Y1.0651
G1 X2.6857 Y1.1111
G1 X2.6921 Y1.1574
G1 X2.6973 Y1.2038
G1 X2.7014 Y1.2503
G1 X2.7048 Y1.2969
G1 X2.7074 Y1.3435
G1 X2.7096 Y1.3901
G1 X2.7113 Y1.4368
G1 X2.7127 Y1.4835
G1 X2.7138 Y1.5302
G1 X2.7146 Y1.5768
G1 X2.7153 Y1.6235
G1 X2.7159 Y1.6702
G1 X2.7163 Y1.7169
G1 X2.7166 Y1.7636
G1 X2.7169 Y1.8103
G1 X2.7171 Y1.857
G1 X2.7174 Y1.9504
G1 X2.7176 Y2.0437
G1 X2.7177 Y2.1838
G1 X2.7178 Y2.464
G1 Y2.5574
G1 X2.7179 Y3.9114
G1 X2.7178 Y3.9581
G1 X2.7175 Y4.0048
G1 X2.7162 Y4.0515
G1 X2.7133 Y4.0981
G1 X2.7079 Y4.1445
G1 X2.7009 Y4.1827
G1 X2.6927 Y4.2133
G1 X2.6835 Y4.239
G1 X2.6791 Y4.2487
G1 X2.6722 Y4.2613
G1 X2.6633 Y4.2725
G1 X2.6527 Y4.2821
G1 X2.6406 Y4.2899
G1 X2.6275 Y4.2956
G1 X2.6136 Y4.2991
G1 X2.5993 Y4.3003
G1 X2.4638
G3 X2.4367 Y4.2873 I0.0013 J-0.0375
G1 X2.4337 Y4.2839 Z-0.0597
G1 X2.4308 Y4.2805 Z-0.0589
G1 X2.428 Y4.2772 Z-0.0576
G1 X2.4253 Y4.2741 Z-0.0557
G1 X2.4228 Y4.2712 Z-0.0534
G1 X2.4205 Y4.2685 Z-0.0506
G1 X2.4184 Y4.266 Z-0.0474
G1 X2.4165 Y4.2639 Z-0.0438
G1 X2.415 Y4.2621 Z-0.0399
G1 X2.4138 Y4.2607 Z-0.0358
G1 X2.4129 Y4.2597 Z-0.0315
G1 X2.4124 Y4.2591 Z-0.027
G1 X2.4122 Y4.2589 Z-0.0225
G0 Z0.2
G0 X2.3541 Y0.7276
G0 Z0.015
G1 Z-0.0225 F11.
G1 X2.3543 Y0.7274 Z-0.027
G1 X2.355 Y0.727 Z-0.0315
G1 X2.3562 Y0.7263 Z-0.0358
G1 X2.3578 Y0.7254 Z-0.0399
G1 X2.3598 Y0.7242 Z-0.0438
G1 X2.3622 Y0.7227 Z-0.0474
G1 X2.3649 Y0.7211 Z-0.0506
G1 X2.368 Y0.7193 Z-0.0534
G1 X2.3713 Y0.7173 Z-0.0557
G1 X2.3749 Y0.7152 Z-0.0576
G1 X2.3786 Y0.713 Z-0.0589
G1 X2.3824 Y0.7107 Z-0.0597
G1 X2.3863 Y0.7084 Z-0.06
G3 X2.416 Y0.6997 I0.0318 J0.0536
G1 X2.5222
G1 X2.5352 Y0.7003
G1 X2.5469 Y0.7019
G1 X2.5597 Y0.7046
G1 X2.5733 Y0.7087
G1 X2.5888 Y0.7147
G1 X2.6043 Y0.7222
G1 X2.6221 Y0.7327
G1 X2.6395 Y0.7449
G1 X2.6591 Y0.7612
G1 X2.6781 Y0.7798
G1 X2.6988 Y0.8035
G1 X2.7196 Y0.8315
G1 X2.7406 Y0.8653
G1 X2.762 Y0.9068
G1 X2.78 Y0.9499
G1 X2.7952 Y0.9941
G1 X2.8079 Y1.039
G1 X2.8184 Y1.0845
G1 X2.8273 Y1.1303
G1 X2.8346 Y1.1765
G1 X2.8406 Y1.2228
G1 X2.8456 Y1.2692
G1 X2.8498 Y1.3157
G1 X2.8532 Y1.3623
G1 X2.856 Y1.4089
G1 X2.8582 Y1.4555
G1 X2.8601 Y1.5022
G1 X2.8616 Y1.5488
G1 X2.8628 Y1.5955
G1 X2.8638 Y1.6422
G1 X2.8646 Y1.6889
G1 X2.8653 Y1.7356
G1 X2.8658 Y1.7822
G1 X2.8662 Y1.8289
G1 X2.8665 Y1.8756
G1 X2.8668 Y1.9223
G1 X2.867 Y1.969
G1 X2.8673 Y2.0624
G1 X2.8675 Y2.1558
G1 X2.8677 Y2.2958
G1 X2.8678 Y2.5293
G1 Y2.576
G1 X2.8679 Y3.6499
G1 Y3.79
G1 X2.8678 Y3.8367
G1 X2.8676 Y3.8834
G1 X2.8671 Y3.9301
G1 X2.866 Y3.9767
G1 X2.8637 Y4.0234
G1 X2.86 Y4.0699
G1 X2.8544 Y4.1163
G1 X2.8463 Y4.1623
G1 X2.837 Y4.1991
G1 X2.8269 Y4.2287
G1 X2.8188 Y4.2476
G1 X2.8119 Y4.2603
G1 X2.803 Y4.2718
G1 X2.7924 Y4.2817
G1 X2.7803 Y4.2897
G1 X2.767 Y4.2955
G1 X2.7529 Y4.2991
G1 X2.7385 Y4.3003
G1 X2.5993
G3 X2.5722 Y4.2873 I0.0013 J-0.0375
G1 X2.5693 Y4.2839 Z-0.0597
G1 X2.5664 Y4.2805 Z-0.0589
G1 X2.5636 Y4.2772 Z-0.0576
G1 X2.5609 Y4.2741 Z-0.0557
G1 X2.5583 Y4.2712 Z-0.0534
G1 X2.556 Y4.2685 Z-0.0506
G1 X2.5539 Y4.266 Z-0.0474
G1 X2.5521 Y4.2639 Z-0.0438
G1 X2.5506 Y4.2621 Z-0.0399
G1 X2.5493 Y4.2607 Z-0.0358
G1 X2.5485 Y4.2597 Z-0.0315
G1 X2.5479 Y4.2591 Z-0.027
G1 X2.5478 Y4.2589 Z-0.0225
G0 Z0.2
G0 X2.4603 Y0.7276
G0 Z0.015
G1 Z-0.0225 F11.
G1 X2.4605 Y0.7274 Z-0.027
G1 X2.4612 Y0.727 Z-0.0315
G1 X2.4624 Y0.7263 Z-0.0358
G1 X2.464 Y0.7254 Z-0.0399
G1 X2.466 Y0.7242 Z-0.0438
G1 X2.4684 Y0.7227 Z-0.0474
G1 X2.4712 Y0.7211 Z-0.0506
G1 X2.4742 Y0.7193 Z-0.0534
G1 X2.4776 Y0.7173 Z-0.0557
G1 X2.4811 Y0.7152 Z-0.0576
G1 X2.4848 Y0.713 Z-0.0589
G1 X2.4887 Y0.7107 Z-0.0597
G1 X2.4925 Y0.7084 Z-0.06
G3 X2.5222 Y0.6997 I0.0318 J0.0536
G1 X2.6459
G1 X2.6587 Y0.7003
G1 X2.6707 Y0.7019
G1 X2.6848 Y0.7049
G1 X2.6993 Y0.7092
G1 X2.7155 Y0.7156
G1 X2.7327 Y0.7239
G1 X2.7509 Y0.7347
G1 X2.7708 Y0.7486
G1 X2.7908 Y0.7652
G1 X2.812 Y0.7859
G1 X2.8343 Y0.8115
G1 X2.8564 Y0.8414
G1 X2.8794 Y0.8783
G1 X2.9008 Y0.9198
G1 X2.9191 Y0.9627
G1 X2.9348 Y1.0067
G1 X2.9481 Y1.0515
G1 X2.9594 Y1.0968
G1 X2.969 Y1.1424
G1 X2.9771 Y1.1884
G1 X2.984 Y1.2346
G1 X2.9897 Y1.2809
G1 X2.9946 Y1.3274
G1 X2.9986 Y1.3739
G1 X3.002 Y1.4205
G1 X3.0048 Y1.4671
G1 X3.0071 Y1.5137
G1 X3.0091 Y1.5604
G1 X3.0107 Y1.607
G1 X3.012 Y1.6537
G1 X3.0131 Y1.7004
G1 X3.014 Y1.7471
G1 X3.0147 Y1.7938
G1 X3.0153 Y1.8404
G1 X3.0158 Y1.8871
G1 X3.0162 Y1.9338
G1 X3.0165 Y1.9805
G1 X3.0168 Y2.0272
G1 X3.017 Y2.0739
G1 X3.0173 Y2.1673
G1 X3.0175 Y2.2607
G1 X3.0177 Y2.4007
G1 X3.0178 Y2.5408
G1 X3.0179 Y2.961
G1 X3.0178 Y3.7081
G1 Y3.7548
G1 X3.0176 Y3.8015
G1 X3.0171 Y3.8482
G1 X3.0162 Y3.8949
G1 X3.0146 Y3.9415
G1 X3.012 Y3.9881
G1 X3.0083 Y4.0347
G1 X3.003 Y4.0811
G1 X2.9957 Y4.1272
G1 X2.986 Y4.1729
G1 X2.9756 Y4.2085
G1 X2.9649 Y4.2369
G1 X2.9533 Y4.2614
G1 X2.9408 Y4.2831
G1 X2.9397 Y4.2847
G1 X2.9302 Y4.2959
G1 X2.9188 Y4.3052
G1 X2.9058 Y4.3122
G1 X2.8918 Y4.3166
G1 X2.8771 Y4.3182
G1 X2.8624 Y4.3171
G1 X2.8482 Y4.3132
G1 X2.837 Y4.31
G1 X2.8209 Y4.3056
G1 X2.8145 Y4.304
G1 X2.792 Y4.3013
G1 X2.7808 Y4.3005
G1 X2.7583 Y4.3003
G1 X2.7385
G3 X2.7114 Y4.2873 I0.0013 J-0.0375
G1 X2.7084 Y4.2839 Z-0.0597
G1 X2.7055 Y4.2805 Z-0.0589
G1 X2.7027 Y4.2772 Z-0.0576
G1 X2.7 Y4.2741 Z-0.0557
G1 X2.6975 Y4.2712 Z-0.0534
G1 X2.6951 Y4.2685 Z-0.0506
G1 X2.693 Y4.266 Z-0.0474
G1 X2.6912 Y4.2639 Z-0.0438
G1 X2.6897 Y4.2621 Z-0.0399
G1 X2.6885 Y4.2607 Z-0.0358
G1 X2.6876 Y4.2597 Z-0.0315
G1 X2.6871 Y4.2591 Z-0.027
G1 X2.6869 Y4.2589 Z-0.0225
G0 Z0.2
G0 X2.584 Y0.7276
G0 Z0.015
G1 Z-0.0225 F11.
G1 X2.5842 Y0.7274 Z-0.027
G1 X2.5849 Y0.727 Z-0.0315
G1 X2.5861 Y0.7263 Z-0.0358
G1 X2.5877 Y0.7254 Z-0.0399
G1 X2.5897 Y0.7242 Z-0.0438
G1 X2.5921 Y0.7227 Z-0.0474
G1 X2.5948 Y0.7211 Z-0.0506
G1 X2.5979 Y0.7193 Z-0.0534
G1 X2.6012 Y0.7173 Z-0.0557
G1 X2.6048 Y0.7152 Z-0.0576
G1 X2.6085 Y0.713 Z-0.0589
G1 X2.6123 Y0.7107 Z-0.0597
G1 X2.6162 Y0.7084 Z-0.06
G3 X2.6459 Y0.6997 I0.0318 J0.0536
G1 X2.7471
G1 X2.7583 Y0.6996
G1 X2.7695
G1 X2.7864 Y0.7003
G1 X2.7992 Y0.7019
G1 X2.8131 Y0.7047
G1 X2.8289 Y0.7093
G1 X2.8449 Y0.7154
G1 X2.8636 Y0.7243
G1 X2.882 Y0.7349
G1 X2.9029 Y0.7494
G1 X2.9235 Y0.7662
G1 X2.9462 Y0.788
G1 X2.969 Y0.8138
G1 X2.9926 Y0.8452
G1 X3.0171 Y0.8839
G1 X3.0388 Y0.9252
G1 X3.0576 Y0.9679
G1 X3.0738 Y1.0117
G1 X3.0879 Y1.0562
G1 X3.0999 Y1.1013
G1 X3.1103 Y1.1469
G1 X3.1192 Y1.1927
G1 X3.1268 Y1.2388
G1 X3.1333 Y1.285
G1 X3.1388 Y1.3314
G1 X3.1436 Y1.3778
G1 X3.1475 Y1.4243
G1 X3.1509 Y1.4709
G1 X3.1537 Y1.5175
G1 X3.1561 Y1.5641
G1 X3.1581 Y1.6108
G1 X3.1598 Y1.6575
G1 X3.1612 Y1.7041
G1 X3.1624 Y1.7508
G1 X3.1634 Y1.7975
G1 X3.1642 Y1.8442
G1 X3.1648 Y1.8909
G1 X3.1654 Y1.9375
G1 X3.1658 Y1.9842
G1 X3.1662 Y2.0309
G1 X3.1665 Y2.0776
G1 X3.1668 Y2.1243
G1 X3.1671 Y2.2177
G1 X3.1674 Y2.3111
G1 X3.1676 Y2.4512
G1 X3.1677 Y2.5445
G1 X3.1678 Y2.8247
G1 X3.1679 Y3.5718
G1 X3.1678 Y3.6184
G1 Y3.6651
G1 X3.1676 Y3.7118
G1 X3.1672 Y3.7585
G1 X3.1666 Y3.8052
G1 X3.1655 Y3.8519
G1 X3.1638 Y3.8985
G1 X3.1613 Y3.9452
G1 X3.1578 Y3.9917
G1 X3.1531 Y4.0382
G1 X3.1469 Y4.0845
G1 X3.1388 Y4.1305
G1 X3.1283 Y4.176
G1 X3.1149 Y4.2207
G1 X3.1019 Y4.2539
G1 X3.0892 Y4.2801
G1 X3.0764 Y4.3018
G1 X3.0625 Y4.3216
G1 X3.0489 Y4.338
G1 X3.0344 Y4.3528
G1 X3.0305 Y4.3563
G1 X3.0191 Y4.3645
G1 X3.0063 Y4.3706
G1 X2.9927 Y4.3744
G1 X2.9787 Y4.3756
G1 X2.9646 Y4.3743
G1 X2.951 Y4.3706
G1 X2.9383 Y4.3644
G1 X2.9269 Y4.3561
G3 X2.9151 Y4.3285 I0.0256 J-0.0274
G1 Y4.324 Z-0.0597
G1 Y4.3195 Z-0.0589
G1 X2.9152 Y4.3152 Z-0.0576
G1 Y4.311 Z-0.0557
G1 Y4.3072 Z-0.0534
G1 X2.9153 Y4.3036 Z-0.0506
G1 Y4.3004 Z-0.0474
G1 Y4.2976 Z-0.0438
G1 Y4.2953 Z-0.0399
G1 Y4.2934 Z-0.0358
G1 Y4.2921 Z-0.0315
G1 Y4.2912 Z-0.027
G1 Y4.291 Z-0.0225
G0 Z0.2
G0 X2.7079 Y0.7279
G0 Z0.015
G1 Z-0.0225 F11.
G1 X2.7081 Y0.7278 Z-0.027
G1 X2.7088 Y0.7273 Z-0.0315
G1 X2.7099 Y0.7266 Z-0.0358
G1 X2.7115 Y0.7257 Z-0.0399
G1 X2.7135 Y0.7245 Z-0.0438
G1 X2.7159 Y0.723 Z-0.0474
G1 X2.7187 Y0.7214 Z-0.0506
G1 X2.7217 Y0.7195 Z-0.0534
G1 X2.725 Y0.7175 Z-0.0557
G1 X2.7286 Y0.7154 Z-0.0576
G1 X2.7323 Y0.7131 Z-0.0589
G1 X2.7361 Y0.7108 Z-0.0597
G1 X2.7399 Y0.7085 Z-0.06
G3 X2.7695 Y0.6996 I0.0322 J0.0533
G1 X2.7808 Y0.6995
G1 X2.792 Y0.6987
G1 X2.8145 Y0.6959
G1 X2.8208 Y0.6945
G1 X2.837 Y0.69
G1 X2.8482 Y0.6868
G1 X2.8498 Y0.6862
G1 X2.8555 Y0.6844
G1 X2.8647 Y0.6824
G1 X2.8749 Y0.681
G1 X2.8863 Y0.6804
G1 X2.8994 Y0.6808
G1 X2.9133 Y0.6823
G1 X2.9293 Y0.6853
G1 X2.9456 Y0.6898
G1 X2.9645 Y0.6967
G1 X2.9833 Y0.7053
G1 X3.0049 Y0.7174
G1 X3.0261 Y0.7315
G1 X3.0498 Y0.7504
G1 X3.0734 Y0.7723
G1 X3.0982 Y0.7995
G1 X3.1241 Y0.8329
G1 X3.1497 Y0.872
G1 X3.1721 Y0.9129
G1 X3.1918 Y0.9553
G1 X3.2091 Y0.9987
G1 X3.2242 Y1.0429
G1 X3.2373 Y1.0877
G1 X3.2488 Y1.1329
G1 X3.2587 Y1.1786
G1 X3.2673 Y1.2244
G1 X3.2747 Y1.2705
G1 X3.2812 Y1.3168
G1 X3.2867 Y1.3631
G1 X3.2915 Y1.4096
G1 X3.2956 Y1.4561
G1 X3.299 Y1.5027
G1 X3.302 Y1.5493
G1 X3.3046 Y1.5959
G1 X3.3067 Y1.6425
G1 X3.3085 Y1.6892
G1 X3.3101 Y1.7359
G1 X3.3114 Y1.7825
G1 X3.3125 Y1.8292
G1 X3.3134 Y1.8759
G1 X3.3141 Y1.9226
G1 X3.3148 Y1.9693
G1 X3.3153 Y2.0159
G1 X3.3158 Y2.0626
G1 X3.3161 Y2.1093
G1 X3.3164 Y2.156
G1 X3.3167 Y2.2027
G1 X3.3171 Y2.2961
G1 X3.3173 Y2.3895
G1 X3.3175 Y2.4829
G1 X3.3177 Y2.6696
G1 X3.3178 Y2.9498
G1 X3.3179 Y3.4634
G1 X3.3178 Y3.5568
G1 X3.3177 Y3.6035
G1 X3.3175 Y3.6502
G1 X3.3171 Y3.6968
G1 X3.3164 Y3.7435
G1 X3.3154 Y3.7902
G1 X3.3139 Y3.8369
G1 X3.3118 Y3.8835
G1 X3.309 Y3.9301
G1 X3.3053 Y3.9767
G1 X3.3004 Y4.0231
G1 X3.2941 Y4.0694
G1 X3.2862 Y4.1154
G1 X3.2763 Y4.161
G1 X3.2641 Y4.2061
G1 X3.2513 Y4.244
G1 X3.2451 Y4.2582
G1 X3.2367 Y4.2712
G1 X3.2262 Y4.2825
G1 X3.2139 Y4.292
G1 X3.2002 Y4.2992
G1 X3.1855 Y4.304
G1 X3.1791 Y4.3056
G1 X3.163 Y4.31
G1 X3.1518 Y4.3132
G1 X3.1405 Y4.3174
G1 X3.1293 Y4.3218
G1 X3.1181 Y4.3271
G1 X3.0956 Y4.3396
G1 X3.0843 Y4.347
G1 X3.0794 Y4.3506
G1 X3.0618 Y4.3659
G1 X3.0506 Y4.378
G1 X3.0455 Y4.3843
G1 X3.0394 Y4.3927
G1 X3.0331 Y4.4004
G1 X3.0243 Y4.4076
G1 X3.0139 Y4.4124
G1 X3.0027 Y4.4144
G1 X2.9913 Y4.4136
G1 X2.9805 Y4.41
G1 X2.9709 Y4.4038
G1 X2.9632 Y4.3954
G3 X2.9545 Y4.3682 I0.0439 J-0.029
G3 X3.0474 Y4.365 I0.0464 J-0.0016
G3 X3.0394 Y4.3927 I-0.0464 J0.0016
G1 X3.029 Y4.4068
G1 X3.0281 Y4.4078
G1 X3.0253 Y4.4107
G1 X3.0225 Y4.413
G1 X3.0197 Y4.4149
G1 X3.0169 Y4.4165
G1 X3.0134 Y4.4181
G1 X3.0095 Y4.4193
G1 X3.0056 Y4.4201
G1 X3. Y4.4205
G1 X2.9944 Y4.4201
G1 X2.9905 Y4.4193
G1 X2.9867 Y4.4181
G1 X2.9831 Y4.4165
G1 X2.9803 Y4.4149
G1 X2.9775 Y4.413
G1 X2.9747 Y4.4107
G1 X2.9719 Y4.4078
G1 X2.971 Y4.4068
G1 X2.9668 Y4.4006
G3 X2.9621 Y4.3709 I0.0316 J-0.0202
G1 X2.9632 Y4.3666 Z-0.0597
G1 X2.9644 Y4.3622 Z-0.0589
G1 X2.9655 Y4.3581 Z-0.0576
G1 X2.9665 Y4.3541 Z-0.0557
G1 X2.9675 Y4.3503 Z-0.0534
G1 X2.9684 Y4.3469 Z-0.0506
G1 X2.9692 Y4.3438 Z-0.0474
G1 X2.9699 Y4.3411 Z-0.0438
G1 X2.9705 Y4.3388 Z-0.0399
G1 X2.971 Y4.337 Z-0.0358
G1 X2.9713 Y4.3357 Z-0.0315
G1 X2.9715 Y4.3349 Z-0.027
G1 X2.9716 Y4.3347 Z-0.0225
G0 Z0.2
G0 X2.8018 Y0.7342
G0 Z0.015
G1 Z-0.0225 F11.
G1 X2.802 Y0.734 Z-0.027
G1 X2.8025 Y0.7334 Z-0.0315
G1 X2.8033 Y0.7323 Z-0.0358
G1 X2.8045 Y0.7309 Z-0.0399
G1 X2.806 Y0.729 Z-0.0438
G1 X2.8077 Y0.7269 Z-0.0474
G1 X2.8097 Y0.7243 Z-0.0506
G1 X2.8119 Y0.7216 Z-0.0534
G1 X2.8143 Y0.7185 Z-0.0557
G1 X2.8169 Y0.7153 Z-0.0576
G1 X2.8196 Y0.7119 Z-0.0589
G1 X2.8224 Y0.7084 Z-0.0597
G1 X2.8252 Y0.7049 Z-0.06
G3 X2.8498 Y0.6862 I0.0488 J0.0388
G1 X2.8595 Y0.6825
G1 X2.8707 Y0.6782
G1 X2.882 Y0.6728
G1 X2.9044 Y0.6604
G1 X2.9106 Y0.6563
G1 X2.9188 Y0.6515
G1 X2.924 Y0.6485
G1 X2.9294 Y0.6459
G1 X2.9349 Y0.6435
G1 X2.9405 Y0.6414
G1 X2.9462 Y0.6396
G1 X2.952 Y0.6381
G1 X2.9579 Y0.6368
G1 X2.9638 Y0.6357
G1 X2.9697 Y0.6349
G1 X2.9757 Y0.6343
G1 X2.9817 Y0.6339
G1 X2.9877 Y0.6337
G1 X2.9937
G1 X2.9997 Y0.6339
G1 X3.0057 Y0.6343
G1 X3.0116 Y0.6348
G1 X3.0176 Y0.6355
G1 X3.0235 Y0.6364
G1 X3.0294 Y0.6374
G1 X3.0353 Y0.6386
G1 X3.0412 Y0.64
G1 X3.047 Y0.6415
G1 X3.0528 Y0.6431
G1 X3.0585 Y0.6448
G1 X3.0642 Y0.6467
G1 X3.0699 Y0.6487
G1 X3.0755 Y0.6508
G1 X3.081 Y0.6531
G1 X3.0865 Y0.6554
G1 X3.0896 Y0.6569
G1 X3.0926 Y0.6585
G1 X3.0955 Y0.6603
G3 X3.0728 Y0.7285 I-0.0216 J0.0306
G1 X3.0031 Y0.7265
G1 X2.9312 Y0.7244
G3 X2.9106 Y0.6563 I0.0011 J-0.0375
G1 X2.9157 Y0.653
G1 X2.9206 Y0.6495
G1 X2.9382 Y0.634
G1 X2.9494 Y0.6219
G1 X2.9547 Y0.6157
G1 X2.9565 Y0.6134
G1 X2.9606 Y0.6088
G1 X2.97 Y0.6013
G1 X2.9809 Y0.596
G1 X2.9926 Y0.5931
G1 X3.0046 Y0.5928
G1 X3.0165 Y0.5951
G1 X3.0276 Y0.5998
G1 X3.0374 Y0.6068
G1 X3.0455 Y0.6157
G3 X3.0376 Y0.6884 I-0.0426 J0.0321
G3 X2.9565 Y0.6134 I-0.0361 J-0.0423
G1 X2.9607 Y0.6081
G1 X2.9633 Y0.6045
G1 X2.971 Y0.5932
G1 X2.9719 Y0.5922
G1 X2.9747 Y0.5893
G1 X2.9775 Y0.587
G1 X2.9803 Y0.5851
G1 X2.9831 Y0.5835
G1 X2.9866 Y0.582
G1 X2.9905 Y0.5807
G1 X2.9944 Y0.5799
G1 X3. Y0.5795
G1 X3.0056 Y0.5799
G1 X3.0095 Y0.5807
G1 X3.0134 Y0.582
G1 X3.0169 Y0.5835
G1 X3.0197 Y0.5851
G1 X3.0225 Y0.587
G1 X3.0253 Y0.5893
G1 X3.0281 Y0.5922
G1 X3.029 Y0.5932
G1 X3.0373 Y0.6045
G1 X3.0394 Y0.6087
G1 X3.0417 Y0.6128
G1 X3.0434 Y0.6155
G1 X3.0454 Y0.6181
G1 X3.0476 Y0.6205
G1 X3.0559 Y0.6288
G1 X3.0647 Y0.6375
G1 X3.073 Y0.6458
G1 X3.0754 Y0.648
G1 X3.078 Y0.65
G1 X3.0807 Y0.6517
G1 X3.0848 Y0.654
G1 X3.089 Y0.6561
G1 X3.0956 Y0.6604
G1 X3.0962 Y0.6607
G1 X3.1319 Y0.683
G1 X3.137 Y0.6862
G1 X3.142 Y0.6894
G1 X3.147 Y0.6928
G1 X3.1519 Y0.6963
G1 X3.1567 Y0.6998
G1 X3.1615 Y0.7034
G1 X3.1663 Y0.7071
G1 X3.171 Y0.7108
G1 X3.1756 Y0.7146
G1 X3.1802 Y0.7185
G1 X3.1847 Y0.7224
G1 X3.1892 Y0.7264
G1 X3.1936 Y0.7305
G1 X3.198 Y0.7346
G1 X3.2023 Y0.7388
G1 X3.2065 Y0.743
G1 X3.2107 Y0.7473
G1 X3.2149 Y0.7516
G1 X3.219 Y0.756
G1 X3.223 Y0.7604
G1 X3.227 Y0.7649
G1 X3.231 Y0.7694
G1 X3.2349 Y0.774
G1 X3.2387 Y0.7786
G1 X3.2425 Y0.7833
G1 X3.2462 Y0.788
G1 X3.2499 Y0.7927
G1 X3.2536 Y0.7974
G1 X3.2572 Y0.8022
G1 X3.2607 Y0.8071
G1 X3.2642 Y0.812
G1 X3.2676 Y0.8169
G1 X3.271 Y0.8218
G1 X3.2744 Y0.8268
G1 X3.2777 Y0.8318
G1 X3.281 Y0.8368
G1 X3.2842 Y0.8419
G1 X3.2874 Y0.847
G1 X3.2905 Y0.8521
G1 X3.2936 Y0.8572
G1 X3.2966 Y0.8624
G1 X3.2996 Y0.8676
G1 X3.3026 Y0.8728
G1 X3.3055 Y0.8781
G1 X3.3084 Y0.8834
G1 X3.3113 Y0.8887
G1 X3.3141 Y0.894
G1 X3.3168 Y0.8993
G1 X3.3195 Y0.9047
G1 X3.3222 Y0.9101
G1 X3.325 Y0.9158
G1 X3.3279 Y0.9218
G1 X3.3308 Y0.928
G1 X3.3335 Y0.9339
G1 X3.3361 Y0.9395
G1 X3.3387 Y0.9454
G1 X3.3414 Y0.9516
G1 X3.3441 Y0.958
G1 X3.3469 Y0.9647
G1 X3.3498 Y0.9718
G1 X3.3526 Y0.9788
G1 X3.3565 Y0.9887
G1 X3.3605 Y0.9994
G1 X3.3632 Y1.0068
G1 X3.366 Y1.0147
G1 X3.3689 Y1.023
G1 X3.3715 Y1.0305
G1 X3.3741 Y1.0383
G1 X3.3768 Y1.0465
G1 X3.3795 Y1.0551
G1 X3.3823 Y1.0642
G1 X3.3851 Y1.0734
G1 X3.3876 Y1.0821
G1 X3.3903 Y1.0912
G1 X3.3929 Y1.1009
G1 X3.3957 Y1.1112
G1 X3.3985 Y1.1216
G1 X3.401 Y1.1316
G1 X3.4036 Y1.1422
G1 X3.4063 Y1.1535
G1 X3.4091 Y1.1656
G1 X3.4116 Y1.1768
G1 X3.4142 Y1.1887
G1 X3.4168 Y1.2015
G1 X3.4195 Y1.2152
G1 X3.422 Y1.228
G1 X3.4246 Y1.2419
G1 X3.4273 Y1.257
G1 X3.4298 Y1.2718
G1 X3.4323 Y1.2873
G1 X3.4349 Y1.3042
G1 X3.4374 Y1.3211
G1 X3.4399 Y1.3389
G1 X3.4425 Y1.3585
G1 X3.4449 Y1.3777
G1 X3.4474 Y1.3992
G1 X3.4498 Y1.421
G1 X3.4522 Y1.4451
G1 X3.4546 Y1.4701
G1 X3.4571 Y1.498
G1 X3.4594 Y1.5269
G1 X3.4617 Y1.5592
G1 X3.4641 Y1.5951
G1 X3.4664 Y1.6342
G1 X3.4686 Y1.6786
G1 X3.4706 Y1.7252
G1 X3.4724 Y1.7719
G1 X3.4738 Y1.8186
G1 X3.475 Y1.8653
G1 X3.4761 Y1.9119
G1 X3.477 Y1.9586
G1 X3.4777 Y2.0053
G1 X3.4783 Y2.052
G1 X3.4788 Y2.0987
G1 X3.4793 Y2.1454
G1 X3.4796 Y2.1921
G1 X3.4799 Y2.2388
G1 X3.4802 Y2.2854
G1 X3.4806 Y2.3788
G1 X3.4808 Y2.4722
G1 X3.4809 Y2.5189
G1 X3.4811 Y2.659
G1 X3.4813 Y2.8924
G1 X3.4814 Y3.3127
G1 X3.4813 Y3.4527
G1 X3.4812 Y3.4994
G1 X3.4811 Y3.5461
G1 X3.4809 Y3.5928
G1 X3.4804 Y3.6395
G1 X3.4798 Y3.6862
G1 X3.4789 Y3.7329
G1 X3.4775 Y3.7795
G1 X3.4757 Y3.8262
G1 X3.4733 Y3.8728
G1 X3.4701 Y3.9194
G1 X3.4661 Y3.9659
G1 X3.461 Y4.0123
G1 X3.4547 Y4.0586
G1 X3.447 Y4.1047
G1 X3.4448 Y4.1152
G1 X3.4427 Y4.125
G1 X3.4411 Y4.1324
G1 X3.4395 Y4.1393
G1 X3.4378 Y4.1465
G1 X3.4362 Y4.1533
G1 X3.4347 Y4.1591
G1 X3.4332 Y4.1649
G1 X3.4317 Y4.1707
G1 X3.4301 Y4.1765
G1 X3.4284 Y4.1822
G1 X3.4267 Y4.188
G1 X3.4249 Y4.1937
G1 X3.4231 Y4.1994
G1 X3.4212 Y4.2051
G1 X3.4192 Y4.2108
G1 X3.4171 Y4.2164
G1 X3.415 Y4.222
G1 X3.4128 Y4.2276
G1 X3.4106 Y4.2332
G1 X3.4082 Y4.2387
G1 X3.4058 Y4.2442
G1 X3.4029 Y4.2505
G1 X3.3958 Y4.2627
G1 X3.3869 Y4.2735
G1 X3.3764 Y4.2828
G1 X3.3645 Y4.2903
G1 X3.3516 Y4.2958
G1 X3.3379 Y4.2992
G1 X3.3239 Y4.3003
G1 X3.253
G1 X3.2417
G1 X3.2192 Y4.3005
G1 X3.208 Y4.3013
G1 X3.1855 Y4.304
G3 X3.1571 Y4.2944 I-0.0032 J-0.0374
G1 X3.1537 Y4.2913 Z-0.0597
G1 X3.1504 Y4.2883 Z-0.0589
G1 X3.1472 Y4.2854 Z-0.0576
G1 X3.1442 Y4.2826 Z-0.0557
G1 X3.1413 Y4.28 Z-0.0534
G1 X3.1387 Y4.2776 Z-0.0506
G1 X3.1363 Y4.2754 Z-0.0474
G1 X3.1343 Y4.2736 Z-0.0438
G1 X3.1325 Y4.272 Z-0.0399
G1 X3.1312 Y4.2707 Z-0.0358
G1 X3.1302 Y4.2698 Z-0.0315
G1 X3.1296 Y4.2693 Z-0.027
G1 X3.1294 Y4.2691 Z-0.0225
G0 Z0.2
G0 X3.0285 Y0.655
G0 Z0.015
G1 Z-0.0225 F11.
G1 X3.0288 Z-0.027
G1 X3.0296 Z-0.0315
G1 X3.031 Z-0.0358
G1 X3.0328 Y0.6549 Z-0.0399
G1 X3.0352 Y0.6548 Z-0.0438
G1 X3.038 Y0.6547 Z-0.0474
G1 X3.0412 Z-0.0506
G1 X3.0447 Y0.6545 Z-0.0534
G1 X3.0486 Y0.6544 Z-0.0557
G1 X3.0527 Y0.6543 Z-0.0576
G1 X3.057 Y0.6542 Z-0.0589
G1 X3.0615 Y0.6541 Z-0.0597
G1 X3.066 Y0.6539 Z-0.06
G3 X3.0962 Y0.6607 I0.0018 J0.0623
G1 X3.1181 Y0.6729
G1 X3.1293 Y0.6782
G1 X3.1423 Y0.6832
G1 X3.1518 Y0.6868
G1 X3.163 Y0.69
G1 X3.1792 Y0.6945
G1 X3.1855 Y0.696
G1 X3.208 Y0.6987
G1 X3.2192 Y0.6995
G1 X3.2252 Y0.6999
G1 X3.2379 Y0.7023
G1 X3.252 Y0.7062
G1 X3.2677 Y0.7119
G1 X3.2848 Y0.7197
G1 X3.3034 Y0.7301
G1 X3.3235 Y0.7435
G1 X3.3452 Y0.7606
G1 X3.3567 Y0.7714
G1 X3.3597 Y0.7744
G1 X3.3837 Y0.7991
G1 X3.3985 Y0.817
G1 X3.4056 Y0.8264
G1 X3.409 Y0.8311
G3 X3.3557 Y0.8822 I-0.0312 J0.0208
G1 X3.1981 Y0.7672
G3 X3.2192 Y0.6995 I0.0221 J-0.0303
G1 X3.2417 Y0.6996
G1 X3.253 Y0.6997
G1 X3.3317
G1 X3.3474 Y0.7005
G1 X3.359 Y0.702
G1 X3.3707 Y0.7027
G1 X3.3809 Y0.7019
G1 X3.3843 Y0.7013
G1 X3.3898 Y0.7004
G1 X3.3954 Y0.6999
G1 X3.4009 Y0.6997
G3 X3.4371 Y0.7385 I-0.0013 J0.0375
G3 X3.3983 Y0.7746 I-0.0375 J-0.0013
G3 X3.3235 Y0.7097 I0.0027 J-0.0787
G3 X3.3317 Y0.6997 I0.0084 J-0.0015
G1 X3.5402
G3 X3.5673 Y0.7127 I-0.0013 J0.0375
G1 X3.5702 Y0.7161 Z-0.0597
G1 X3.5732 Y0.7195 Z-0.0589
G1 X3.576 Y0.7228 Z-0.0576
G1 X3.5787 Y0.7259 Z-0.0557
G1 X3.5812 Y0.7288 Z-0.0534
G1 X3.5835 Y0.7315 Z-0.0506
G1 X3.5856 Y0.7339 Z-0.0474
G1 X3.5874 Y0.7361 Z-0.0438
G1 X3.589 Y0.7378 Z-0.0399
G1 X3.5902 Y0.7392 Z-0.0358
G1 X3.5911 Y0.7403 Z-0.0315
G1 X3.5916 Y0.7409 Z-0.027
G1 X3.5918 Y0.7411 Z-0.0225
G0 Z0.2
G0 X3.7781 Y4.2724
G0 Z0.015
G1 Z-0.0225 F11.
G1 X3.7778 Y4.2726 Z-0.027
G1 X3.7771 Y4.273 Z-0.0315
G1 X3.776 Y4.2737 Z-0.0358
G1 X3.7744 Y4.2746 Z-0.0399
G1 X3.7724 Y4.2758 Z-0.0438
G1 X3.77 Y4.2772 Z-0.0474
G1 X3.7672 Y4.2789 Z-0.0506
G1 X3.7641 Y4.2807 Z-0.0534
G1 X3.7608 Y4.2827 Z-0.0557
G1 X3.7573 Y4.2848 Z-0.0576
G1 X3.7536 Y4.287 Z-0.0589
G1 X3.7497 Y4.2893 Z-0.0597
G1 X3.7458 Y4.2916 Z-0.06
G3 X3.7162 Y4.3003 I-0.0318 J-0.0536
G1 X3.3239
G3 X3.2968 Y4.2873 I0.0013 J-0.0375
G1 X3.2939 Y4.2839 Z-0.0597
G1 X3.291 Y4.2805 Z-0.0589
G1 X3.2882 Y4.2772 Z-0.0576
G1 X3.2855 Y4.2741 Z-0.0557
G1 X3.2829 Y4.2712 Z-0.0534
G1 X3.2806 Y4.2685 Z-0.0506
G1 X3.2785 Y4.266 Z-0.0474
G1 X3.2767 Y4.2639 Z-0.0438
G1 X3.2752 Y4.2621 Z-0.0399
G1 X3.2739 Y4.2607 Z-0.0358
G1 X3.2731 Y4.2597 Z-0.0315
G1 X3.2725 Y4.2591 Z-0.027
G1 X3.2724 Y4.2589 Z-0.0225
G0 Z0.6
G0 X4.0933 Y3.7568
G0 Z0.2
G0 Z0.102
G3 X4.446 Y3.8067 Z0.0825 I0.1764 J0.0249 F1.5
G3 X4.0933 Y3.7568 Z0.0629 I-0.1764 J-0.0249
G3 X4.446 Y3.8067 Z0.0434 I0.1764 J0.0249
G3 X4.0933 Y3.7568 Z0.0238 I-0.1764 J-0.0249
G3 X4.446 Y3.8067 Z0.0043 I0.1764 J0.0249
G3 X4.0933 Y3.7568 Z-0.0152 I-0.1764 J-0.0249
G3 X4.446 Y3.8067 Z-0.0348 I0.1764 J0.0249
G3 X4.0933 Y3.7568 Z-0.0543 I-0.1764 J-0.0249
G3 X4.4478 Y3.7817 Z-0.073 I0.1764 J0.0249
G3 X4.0915 I-0.1781 J0.
G3 X4.4478 I0.1781 J0.
G1 X4.4479 Y3.7934 F11.
G1 X4.4549 Y3.8396
G1 X4.4577 Y3.8449
G1 X4.46 Y3.8504
G1 X4.462 Y3.8567
G1 X4.4637 Y3.8638
G1 X4.4649 Y3.8717
G1 X4.4655 Y3.8803
G1 Y3.8896
G1 X4.4646 Y3.8996
G1 X4.4628 Y3.9102
G1 X4.46 Y3.9213
G1 X4.4561 Y3.9327
G1 X4.451 Y3.9444
G1 X4.4447 Y3.9563
G1 X4.4371 Y3.9682
G1 X4.4282 Y3.9799
G1 X4.4179 Y3.9913
G1 X4.4063 Y4.0023
G1 X4.3935 Y4.0127
G1 X4.3794 Y4.0224
G1 X4.3641 Y4.0311
G1 X4.3477 Y4.0388
G1 X4.3303 Y4.0453
G1 X4.312 Y4.0505
G1 X4.293 Y4.0543
G1 X4.2734 Y4.0566
G1 X4.2533 Y4.0573
G1 X4.2329 Y4.0565
G1 X4.2124 Y4.0539
G1 X4.1919 Y4.0497
G1 X4.1716 Y4.0437
G1 X4.1516 Y4.0361
G1 X4.1322 Y4.0268
G1 X4.1134 Y4.0159
G1 X4.0955 Y4.0035
G1 X4.0785 Y3.9896
G1 X4.0626 Y3.9742
G1 X4.0479 Y3.9576
G1 X4.0345 Y3.9398
G1 X4.0226 Y3.9209
G1 X4.0122 Y3.901
G1 X4.0033 Y3.8803
G1 X3.9962 Y3.8589
G1 X3.9908 Y3.837
G1 X3.9872 Y3.8147
G1 X3.9853 Y3.7921
G1 Y3.7694
G1 X3.9871 Y3.7468
G1 X3.9907 Y3.7243
G1 X3.9962 Y3.7022
G1 X4.0033 Y3.6806
G1 X4.0122 Y3.6596
G1 X4.0228 Y3.6394
G1 X4.035 Y3.62
G1 X4.0486 Y3.6017
G1 X4.0637 Y3.5846
G1 X4.0802 Y3.5687
G1 X4.0979 Y3.5542
G1 X4.1166 Y3.5412
G1 X4.1364 Y3.5297
G1 X4.157 Y3.5198
G1 X4.1784 Y3.5116
G1 X4.2004 Y3.5051
G1 X4.2228 Y3.5004
G1 X4.2455 Y3.4976
G1 X4.2683 Y3.4965
G1 X4.2912 Y3.4974
G1 X4.314 Y3.5
G1 X4.3364 Y3.5045
G1 X4.3585 Y3.5107
G1 X4.3799 Y3.5187
G1 X4.4007 Y3.5284
G1 X4.4206 Y3.5397
G1 X4.4395 Y3.5526
G1 X4.4574 Y3.567
G1 X4.474 Y3.5827
G1 X4.4893 Y3.5998
G1 X4.5032 Y3.618
G1 X4.5162 Y3.6383
G1 X4.5382 Y3.6794
G1 X4.5554 Y3.7173
G1 X4.5669 Y3.7492
G1 X4.5749 Y3.7784
G1 X4.58 Y3.8057
G1 X4.5828 Y3.8322
G1 X4.5834 Y3.8581
G1 X4.582 Y3.8833
G1 X4.5786 Y3.908
G1 X4.5733 Y3.9321
G1 X4.5661 Y3.9556
G1 X4.557 Y3.9786
G1 X4.5461 Y4.0008
G1 X4.5333 Y4.0223
G1 X4.5187 Y4.0428
G1 X4.5023 Y4.0623
G1 X4.4842 Y4.0807
G1 X4.4644 Y4.0978
G1 X4.4429 Y4.1134
G1 X4.42 Y4.1275
G1 X4.3957 Y4.1399
G1 X4.3702 Y4.1504
G1 X4.3435 Y4.1589
G1 X4.3159 Y4.1654
G1 X4.2876 Y4.1696
G1 X4.2587 Y4.1716
G1 X4.2295 Y4.1713
G1 X4.2001 Y4.1686
G1 X4.1708 Y4.1635
G1 X4.1417 Y4.156
G1 X4.1132 Y4.1461
G1 X4.0853 Y4.1339
G1 X4.0583 Y4.1194
G1 X4.0324 Y4.1026
G1 X4.0078 Y4.0837
G1 X3.9846 Y4.0628
G1 X3.9631 Y4.04
G1 X3.9434 Y4.0155
G1 X3.9257 Y3.9893
G1 X3.9101 Y3.9617
G1 X3.8967 Y3.9329
G1 X3.8857 Y3.903
G1 X3.877 Y3.8722
G1 X3.8709 Y3.8408
G1 X3.8672 Y3.8089
G1 X3.8662 Y3.7768
G1 X3.8677 Y3.7447
G1 X3.8718 Y3.7127
G1 X3.8785 Y3.6811
G1 X3.8877 Y3.6502
G1 X3.8993 Y3.6201
G1 X3.9134 Y3.5909
G1 X3.9297 Y3.563
G1 X3.9483 Y3.5365
G1 X3.9689 Y3.5115
G1 X3.9914 Y3.4883
G1 X4.0158 Y3.4669
G1 X4.0418 Y3.4475
G1 X4.0693 Y3.4303
G1 X4.0981 Y3.4154
G1 X4.128 Y3.4028
G1 X4.1589 Y3.3926
G1 X4.1904 Y3.385
G1 X4.2225 Y3.3799
G1 X4.2549 Y3.3774
G1 X4.2873 Y3.3775
G1 X4.3197 Y3.3802
G1 X4.3518 Y3.3855
G1 X4.3833 Y3.3934
G1 X4.4141 Y3.4038
G1 X4.4439 Y3.4166
G1 X4.4727 Y3.4317
G1 X4.5001 Y3.4491
G1 X4.5262 Y3.4688
G1 X4.554 Y3.4934
G1 X4.5816 Y3.5223
G1 X4.6077 Y3.5544
G1 X4.6316 Y3.589
G1 X4.6524 Y3.625
G1 X4.6697 Y3.6616
G1 X4.6837 Y3.6984
G1 X4.6944 Y3.7353
G1 X4.7019 Y3.7722
G1 X4.7064 Y3.809
G1 X4.7079 Y3.8455
G1 X4.7065 Y3.8816
G1 X4.7022 Y3.9172
G1 X4.6951 Y3.9522
G1 X4.6853 Y3.9863
G1 X4.6727 Y4.0195
G1 X4.6576 Y4.0516
G1 X4.6399 Y4.0825
G1 X4.6196 Y4.112
G1 X4.597 Y4.1399
G1 X4.572 Y4.166
G1 X4.5448 Y4.1903
G1 X4.5155 Y4.2124
G1 X4.4843 Y4.2323
G1 X4.4513 Y4.2498
G1 X4.4167 Y4.2647
G1 X4.3808 Y4.2768
G1 X4.3437 Y4.2862
G1 X4.3057 Y4.2925
G1 X4.267 Y4.2958
G1 X4.228 Y4.296
G1 X4.1887 Y4.293
G1 X4.1496 Y4.2869
G1 X4.1109 Y4.2776
G1 X4.0728 Y4.2651
G1 X4.0356 Y4.2495
G1 X3.9996 Y4.2309
G1 X3.965 Y4.2093
G1 X3.9321 Y4.185
G1 X3.9011 Y4.1579
G1 X3.8723 Y4.1283
G1 X3.8458 Y4.0964
G1 X3.8219 Y4.0623
G1 X3.8008 Y4.0263
G1 X3.7825 Y3.9887
G1 X3.7673 Y3.9496
G1 X3.7553 Y3.9093
G1 X3.7541 Y3.9034
G1 X3.753 Y3.8974
G1 X3.7523 Y3.8913
G1 X3.7521 Y3.8852
G1 Y3.7592
G1 X3.7545 Y3.7126
G1 X3.7582 Y3.6773
G1 X3.765 Y3.6411
G1 X3.775 Y3.6045
G1 X3.7881 Y3.5683
G1 X3.8043 Y3.5326
G1 X3.8236 Y3.4978
G1 X3.846 Y3.4643
G1 X3.8713 Y3.4322
G1 X3.8993 Y3.402
G1 X3.9299 Y3.3739
G1 X3.9629 Y3.3482
G1 X3.998 Y3.3252
G1 X4.035 Y3.3049
G1 X4.0736 Y3.2876
G1 X4.1136 Y3.2735
G1 X4.1546 Y3.2626
G1 X4.1964 Y3.255
G1 X4.2388 Y3.2507
G1 X4.2814 Y3.2499
G1 X4.3239 Y3.2525
G1 X4.3662 Y3.2586
G1 X4.4078 Y3.2679
G1 X4.4485 Y3.2807
G1 X4.4882 Y3.2966
G1 X4.5274 Y3.3162
G1 X4.5662 Y3.3396
G1 X4.6041 Y3.3669
G1 X4.6397 Y3.3971
G1 X4.6729 Y3.43
G1 X4.7035 Y3.4653
G1 X4.7313 Y3.5027
G1 X4.7563 Y3.5422
G1 X4.7782 Y3.5835
G1 X4.7798 Y3.5873
G1 X4.7839 Y3.5986
G1 X4.7863 Y3.6103
G1 X4.7871 Y3.6223
G1 Y3.9616
G1 X4.7855 Y3.995
G1 X4.782 Y4.0219
G1 X4.7757 Y4.0512
G1 X4.7663 Y4.0824
G1 X4.7541 Y4.1138
G1 X4.7387 Y4.1455
G1 X4.7196 Y4.1779
G1 X4.697 Y4.2102
G1 X4.6707 Y4.2418
G1 X4.6411 Y4.2722
G1 X4.6336 Y4.2787
G1 X4.6209 Y4.2879
G1 X4.6068 Y4.2947
G1 X4.5917 Y4.2989
G1 X4.576 Y4.3003
G1 X4.0062
G1 X3.9798 Y4.299
G1 X3.9603 Y4.2964
G1 X3.9405 Y4.2922
G1 X3.9175 Y4.2853
G1 X3.8946 Y4.2764
G1 X3.8689 Y4.2639
G1 X3.8428 Y4.2486
G1 X3.8162 Y4.2298
G1 X3.7883 Y4.2067
G1 X3.7785 Y4.1971
G1 X3.7694 Y4.1866
G1 X3.762 Y4.1748
G1 X3.7566 Y4.162
G1 X3.7532 Y4.1484
G1 X3.7521 Y4.1345
G3 X3.8087 Y4.1035 I0.0375 J0.0013
G1 X4.0239 Y4.2305
G3 X4.0062 Y4.3003 I-0.0191 J0.0323
G1 X3.8375
G1 X3.8174 Y4.2993
G1 X3.8043 Y4.2963
G1 X3.7918 Y4.2911
G1 X3.7806 Y4.2837
G1 X3.7708 Y4.2744
G1 X3.7628 Y4.2635
G1 X3.7569 Y4.2513
G1 X3.7533 Y4.2383
G1 X3.7521 Y4.2249
G3 X3.8128 Y4.1967 I0.0375 J0.0013
G1 X3.8594 Y4.2333
G3 X3.8375 Y4.3003 I-0.0232 J0.0295
G1 X3.7926
G1 X3.787 Y4.3002
G1 X3.7813 Y4.2992
G1 X3.7801 Y4.2989
G1 X3.7751 Y4.2971
G1 X3.7701 Y4.2944
G1 X3.7661 Y4.2915
G1 X3.762 Y4.2877
G1 X3.7588 Y4.2837
G1 X3.7566 Y4.2801
G1 X3.7549 Y4.2764
G1 X3.7531 Y4.2708
G1 X3.7522 Y4.2652
G1 X3.7521 Y4.2539
G1 Y3.8852
G3 X3.7926 Y3.8491 I0.0375 J0.0013
G1 X4.7526 Y3.9255
G3 X4.7871 Y3.9616 I-0.003 J0.0374
G1 Y4.1752
G1 X4.7864 Y4.1911
G1 X4.7841 Y4.2084
G1 X4.7799 Y4.2278
G1 X4.7769 Y4.2379
G1 X4.7709 Y4.2527
G1 X4.7624 Y4.2662
G1 X4.7515 Y4.2779
G1 X4.7387 Y4.2875
G1 X4.7244 Y4.2945
G1 X4.709 Y4.2988
G1 X4.6931 Y4.3003
G3 X4.6628 Y4.2426 I0.0013 J-0.0375
G1 X4.7181 Y4.1563
G3 X4.7871 Y4.1752 I0.0316 J0.0202
G1 Y4.2539
G1 X4.787 Y4.2652
G1 X4.7862 Y4.2708
G1 X4.7844 Y4.2764
G1 X4.7819 Y4.2814
G1 X4.7798 Y4.2846
G1 X4.7772 Y4.2877
G1 X4.7739 Y4.291
G1 X4.7706 Y4.2935
G1 X4.765 Y4.2968
G1 X4.7592 Y4.2989
G1 X4.7537 Y4.3
G1 X4.7482 Y4.3003
G1 X4.576
G3 X4.5571 Y4.2944 I0.0013 J-0.0375
G1 X4.548 Y4.2885
G1 X3.7694 Y3.7895
G3 X3.7521 Y3.7592 I0.0202 J-0.0316
G1 Y3.5006
G1 X3.7529 Y3.4855
G1 X3.7553 Y3.4672
G1 X3.7596 Y3.4471
G1 X3.7661 Y3.4255
G1 X3.7751 Y3.4024
G1 X3.7872 Y3.3774
G1 X3.802 Y3.3523
G1 X3.821 Y3.3252
G1 X3.8434 Y3.2982
G1 X3.8691 Y3.2718
G1 X3.8994 Y3.2454
G1 X3.9338 Y3.22
G1 X3.972 Y3.1962
G1 X4.0129 Y3.1751
G1 X4.056 Y3.1571
G1 X4.1004 Y3.1426
G1 X4.1457 Y3.1315
G1 X4.1918 Y3.1239
G1 X4.2383 Y3.1196
G1 X4.285 Y3.1188
G1 X4.3316 Y3.1213
G1 X4.3779 Y3.127
G1 X4.4237 Y3.1361
G1 X4.4688 Y3.1484
G1 X4.5128 Y3.1638
G1 X4.5557 Y3.1824
G1 X4.5972 Y3.2037
G1 X4.6372 Y3.2278
G1 X4.6756 Y3.2544
G1 X4.7121 Y3.2835
G1 X4.7467 Y3.3149
G1 X4.7625 Y3.3313
G1 X4.7711 Y3.3416
G1 X4.778 Y3.3532
G1 X4.783 Y3.3657
G1 X4.7861 Y3.3787
G1 X4.7871 Y3.3921
G1 Y3.6223
G3 X4.745 Y3.6582 I-0.0375 J-0.0013
G1 X3.7849 Y3.5365
G3 X3.7521 Y3.5006 I0.0047 J-0.0372
G1 Y3.3432
G1 X3.7531 Y3.3231
G1 X3.7551 Y3.3085
G1 X3.7587 Y3.2914
G1 X3.764 Y3.2737
G1 X3.7717 Y3.2539
G1 X3.7818 Y3.2332
G1 X3.795 Y3.2108
G1 X3.811 Y3.1879
G1 X3.8316 Y3.1631
G1 X3.8547 Y3.1395
G1 X3.883 Y3.1148
G1 X3.9162 Y3.0902
G1 X3.9527 Y3.0675
G1 X3.9935 Y3.0464
G1 X4.0366 Y3.0284
G1 X4.0809 Y3.0137
G1 X4.1262 Y3.0021
G1 X4.1721 Y2.9936
G1 X4.2184 Y2.9881
G1 X4.2651 Y2.9856
G1 X4.3118 Y2.9861
G1 X4.3583 Y2.9894
G1 X4.4046 Y2.9956
G1 X4.4504 Y3.0045
G1 X4.4957 Y3.0161
G1 X4.5401 Y3.0304
G1 X4.5837 Y3.0472
G1 X4.6262 Y3.0666
G1 X4.6675 Y3.0883
G1 X4.7076 Y3.1122
G1 X4.7463 Y3.1384
G1 X4.7531 Y3.1436
G1 X4.7648 Y3.1545
G1 X4.7743 Y3.1673
G1 X4.7814 Y3.1816
G1 X4.7857 Y3.197
G1 X4.7871 Y3.2129
G1 Y3.3921
G3 X4.7478 Y3.4283 I-0.0375 J-0.0013
G1 X3.7877 Y3.3794
G3 X3.7521 Y3.3432 I0.0019 J-0.0375
G1 Y3.1971
G1 X3.7531 Y3.1779
G1 X3.755 Y3.1636
G1 X3.7583 Y3.1481
G1 X3.7633 Y3.1314
G1 X3.7706 Y3.1127
G1 X3.7798 Y3.0937
G1 X3.7923 Y3.0725
G1 X3.8072 Y3.0512
G1 X3.8261 Y3.0285
G1 X3.8489 Y3.0051
G1 X3.8751 Y2.9823
G1 X3.9069 Y2.9588
G1 X3.9439 Y2.9357
G1 X3.9854 Y2.9143
G1 X4.0284 Y2.8963
G1 X4.0727 Y2.8815
G1 X4.1179 Y2.8698
G1 X4.1638 Y2.861
G1 X4.2101 Y2.855
G1 X4.2566 Y2.8517
G1 X4.3033 Y2.851
G1 X4.35 Y2.8529
G1 X4.3965 Y2.8573
G1 X4.4426 Y2.8642
G1 X4.4884 Y2.8735
G1 X4.5336 Y2.8852
G1 X4.5782 Y2.8991
G1 X4.622 Y2.9152
G1 X4.665 Y2.9335
G1 X4.707 Y2.9538
G1 X4.7441 Y2.9746
G1 X4.7484 Y2.9774
G1 X4.7595 Y2.9863
G1 X4.7691 Y2.9969
G1 X4.7768 Y3.0089
G1 X4.7825 Y3.022
G1 X4.786 Y3.0359
G1 X4.7871 Y3.0501
G1 Y3.2129
G3 X4.7491 Y3.2491 I-0.0375 J-0.0013
G1 X3.789 Y3.2333
G3 X3.7521 Y3.1971 I0.0006 J-0.0375
G1 Y3.0509
G1 X3.7527 Y3.0388
G1 X3.7546 Y3.0247
G1 X3.7577 Y3.0102
G1 X3.7627 Y2.9935
G1 X3.7694 Y2.9762
G1 X3.7787 Y2.9571
G1 X3.7905 Y2.9371
G1 X3.8054 Y2.9159
G1 X3.8235 Y2.894
G1 X3.8462 Y2.8708
G1 X3.8717 Y2.8485
G1 X3.9029 Y2.8255
G1 X3.9395 Y2.8027
G1 X3.981 Y2.7812
G1 X4.0241 Y2.7632
G1 X4.0683 Y2.7483
G1 X4.1135 Y2.7364
G1 X4.1593 Y2.7273
G1 X4.2055 Y2.7208
G1 X4.252 Y2.7168
G1 X4.2987 Y2.7153
G1 X4.3454 Y2.7162
G1 X4.392 Y2.7193
G1 X4.4384 Y2.7247
G1 X4.4844 Y2.7323
G1 X4.5301 Y2.742
G1 X4.5753 Y2.7537
G1 X4.6199 Y2.7675
G1 X4.6639 Y2.7832
G1 X4.707 Y2.801
G1 X4.7396 Y2.8173
G1 X4.745 Y2.8206
G1 X4.7571 Y2.8294
G1 X4.7675 Y2.8402
G1 X4.7759 Y2.8525
G1 X4.7821 Y2.8661
G1 X4.7859 Y2.8806
G1 X4.7871 Y2.8954
G1 Y3.0501
G3 X4.7497 Y3.0863 I-0.0375 J-0.0013
G1 X3.7896 Y3.0871
G3 X3.7521 Y3.0509 I0. J-0.0375
G1 Y2.916
G1 X3.7528 Y2.902
G1 X3.7547 Y2.8882
G1 X3.7577 Y2.874
G1 X3.7627 Y2.8573
G1 X3.7692 Y2.8406
G1 X3.7784 Y2.8215
G1 X3.7899 Y2.8021
G1 X3.8048 Y2.7809
G1 X3.8225 Y2.7595
G1 X3.845 Y2.7364
G1 X3.8704 Y2.7143
G1 X3.9013 Y2.6914
G1 X3.938 Y2.6686
G1 X3.9795 Y2.6472
G1 X4.0225 Y2.6291
G1 X4.0667 Y2.6141
G1 X4.1118 Y2.602
G1 X4.1575 Y2.5926
G1 X4.2037 Y2.5857
G1 X4.2502 Y2.5812
G1 X4.2968 Y2.579
G1 X4.3435
G1 X4.3902 Y2.5812
G1 X4.4367 Y2.5854
G1 X4.4829 Y2.5916
G1 X4.5289 Y2.5997
G1 X4.5745 Y2.6099
G1 X4.6196 Y2.6218
G1 X4.6642 Y2.6358
G1 X4.7056 Y2.6512
G1 X4.7365 Y2.6657
G1 X4.743 Y2.6694
G1 X4.7556 Y2.6781
G1 X4.7665 Y2.6889
G1 X4.7753 Y2.7014
G1 X4.7818 Y2.7153
G1 X4.7858 Y2.7301
G1 X4.7871 Y2.7454
G1 Y2.8954
G3 X4.7505 Y2.9316 I-0.0375 J-0.0013
G1 X3.7904 Y2.9522
G3 X3.7521 Y2.916 I-0.0008 J-0.0375
G1 Y2.7811
G1 X3.7529 Y2.7667
G1 X3.7547 Y2.7529
G1 X3.7577 Y2.7388
G1 X3.7626 Y2.7222
G1 X3.7691 Y2.7056
G1 X3.7784 Y2.6866
G1 X3.7896 Y2.6674
G1 X3.8046 Y2.6461
G1 X3.8221 Y2.625
G1 X3.8446 Y2.6019
G1 X3.8701 Y2.5797
G1 X3.9011 Y2.5567
G1 X3.938 Y2.5338
G1 X3.9795 Y2.5124
G1 X4.0225 Y2.4943
G1 X4.0667 Y2.4791
G1 X4.1117 Y2.4668
G1 X4.1574 Y2.4571
G1 X4.2035 Y2.4498
G1 X4.2499 Y2.4449
G1 X4.2965 Y2.4421
G1 X4.3432 Y2.4415
G1 X4.3899 Y2.4428
G1 X4.4365 Y2.446
G1 X4.4829 Y2.4511
G1 X4.5291 Y2.458
G1 X4.5749 Y2.4668
G1 X4.6204 Y2.4775
G1 X4.6653 Y2.4903
G1 X4.7043 Y2.5041
G1 X4.7345 Y2.5175
G1 X4.7416 Y2.5214
G1 X4.7546 Y2.5301
G1 X4.7658 Y2.5409
G1 X4.7749 Y2.5536
G1 X4.7816 Y2.5677
G1 X4.7858 Y2.5827
G1 X4.7871 Y2.5982
G1 Y2.7454
G3 X4.7511 Y2.7816 I-0.0375 J-0.0013
G1 X3.791 Y2.8172
G3 X3.7521 Y2.7811 I-0.0014 J-0.0375
G1 Y2.6462
G1 X3.7529 Y2.6318
G1 X3.7546 Y2.6181
G1 X3.7577 Y2.604
G1 X3.7626 Y2.5874
G1 X3.7691 Y2.5708
G1 X3.7783 Y2.5518
G1 X3.7896 Y2.5326
G1 X3.8046 Y2.5113
G1 X3.8221 Y2.4902
G1 X3.8447 Y2.4671
G1 X3.8704 Y2.4446
G1 X3.9016 Y2.4215
G1 X3.9389 Y2.3983
G1 X3.9804 Y2.3769
G1 X4.0234 Y2.3587
G1 X4.0675 Y2.3435
G1 X4.1125 Y2.331
G1 X4.1581 Y2.321
G1 X4.2041 Y2.3134
G1 X4.2505 Y2.308
G1 X4.2971 Y2.3047
G1 X4.3438 Y2.3034
G1 X4.3905 Y2.304
G1 X4.4371 Y2.3064
G1 X4.4836 Y2.3106
G1 X4.5299 Y2.3166
G1 X4.5759 Y2.3243
G1 X4.6216 Y2.3341
G1 X4.6667 Y2.3462
G1 X4.704 Y2.3589
G1 X4.7336 Y2.3718
G1 X4.7408 Y2.3757
G1 X4.754 Y2.3843
G1 X4.7654 Y2.3951
G1 X4.7747 Y2.4078
G1 X4.7815 Y2.422
G1 X4.7857 Y2.4372
G1 X4.7871 Y2.4529
G1 Y2.5982
G3 X4.7515 Y2.6344 I-0.0375 J-0.0013
G1 X3.7915 Y2.6823
G3 X3.7521 Y2.6462 I-0.0019 J-0.0375
G1 Y2.5112
G1 X3.7528 Y2.497
G1 X3.7546 Y2.4832
G1 X3.7577 Y2.4691
G1 X3.7626 Y2.4525
G1 X3.7691 Y2.4359
G1 X3.7784 Y2.4168
G1 X3.7897 Y2.3975
G1 X3.8047 Y2.3763
G1 X3.8224 Y2.3549
G1 X3.845 Y2.3317
G1 X3.8709 Y2.3091
G1 X3.9025 Y2.2858
G1 X3.9402 Y2.2623
G1 X3.9817 Y2.2409
G1 X4.0247 Y2.2226
G1 X4.0687 Y2.2073
G1 X4.1137 Y2.1945
G1 X4.1592 Y2.1843
G1 X4.2052 Y2.1764
G1 X4.2516 Y2.1706
G1 X4.2981 Y2.1668
G1 X4.3448 Y2.165
G1 X4.3915 Y2.1649
G1 X4.4381 Y2.1667
G1 X4.4847 Y2.1701
G1 X4.5311 Y2.1753
G1 X4.5772 Y2.1824
G1 X4.623 Y2.1915
G1 X4.6683 Y2.2031
G1 X4.7041 Y2.2151
G1 X4.7332 Y2.2275
G1 X4.7404 Y2.2313
G1 X4.7536 Y2.2399
G1 X4.7652 Y2.2507
G1 X4.7745 Y2.2635
G1 X4.7815 Y2.2777
G1 X4.7857 Y2.293
G1 X4.7871 Y2.3087
G1 Y2.4529
G3 X4.7519 Y2.489 I-0.0375 J-0.0013
G1 X3.7919 Y2.5474
G3 X3.7521 Y2.5112 I-0.0023 J-0.0374
G1 Y2.3763
G1 X3.7529 Y2.3619
G1 X3.7547 Y2.3481
G1 X3.7577 Y2.334
G1 X3.7627 Y2.3174
G1 X3.7692 Y2.3006
G1 X3.7784 Y2.2816
G1 X3.7899 Y2.2621
G1 X3.8048 Y2.2408
G1 X3.8227 Y2.2193
G1 X3.8455 Y2.1959
G1 X3.8717 Y2.1731
G1 X3.9035 Y2.1495
G1 X3.9418 Y2.1257
G1 X3.9833 Y2.1043
G1 X4.0262 Y2.086
G1 X4.0703 Y2.0705
G1 X4.1152 Y2.0576
G1 X4.1606 Y2.0471
G1 X4.2066 Y2.0388
G1 X4.2529 Y2.0327
G1 X4.2994 Y2.0285
G1 X4.346 Y2.0261
G1 X4.3927 Y2.0256
G1 X4.4394 Y2.0268
G1 X4.486 Y2.0297
G1 X4.5324 Y2.0343
G1 X4.5787 Y2.0408
G1 X4.6246 Y2.0495
G1 X4.6699 Y2.0607
G1 X4.7045 Y2.0722
G1 X4.7331 Y2.0843
G1 X4.7401 Y2.0879
G1 X4.7534 Y2.0965
G1 X4.765 Y2.1073
G1 X4.7745 Y2.1201
G1 X4.7814 Y2.1344
G1 X4.7857 Y2.1497
G1 X4.7871 Y2.1655
G1 Y2.3087
G3 X4.7523 Y2.3448 I-0.0375 J-0.0013
G1 X3.7922 Y2.4124
G3 X3.7521 Y2.3763 I-0.0026 J-0.0374
G1 Y2.2414
G1 X3.7529 Y2.2265
G1 X3.7547 Y2.2127
G1 X3.7577 Y2.1985
G1 X3.7627 Y2.1818
G1 X3.7693 Y2.165
G1 X3.7785 Y2.1459
G1 X3.7901 Y2.1262
G1 X3.8051 Y2.1049
G1 X3.8231 Y2.0832
G1 X3.8461 Y2.0597
G1 X3.8725 Y2.0366
G1 X3.9048 Y2.0128
G1 X3.9435 Y1.9886
G1 X3.985 Y1.9672
G1 X4.0279 Y1.9488
G1 X4.072 Y1.9332
G1 X4.1168 Y1.9202
G1 X4.1622 Y1.9094
G1 X4.2081 Y1.9009
G1 X4.2544 Y1.8944
G1 X4.3008 Y1.8898
G1 X4.3474 Y1.887
G1 X4.3941 Y1.8861
G1 X4.4408 Y1.8868
G1 X4.4874 Y1.8892
G1 X4.5339 Y1.8935
G1 X4.5802 Y1.8996
G1 X4.6262 Y1.9079
G1 X4.6715 Y1.919
G1 X4.7052 Y1.93
G1 X4.7333 Y1.9419
G1 X4.7399 Y1.9453
G1 X4.7533 Y1.9538
G1 X4.7649 Y1.9647
G1 X4.7744 Y1.9775
G1 X4.7814 Y1.9918
G1 X4.7857 Y2.0071
G1 X4.7871 Y2.023
G1 Y2.1655
G3 X4.7526 Y2.2016 I-0.0375 J-0.0013
G1 X3.7926 Y2.2775
G3 X3.7521 Y2.2414 I-0.003 J-0.0374
G1 Y2.1065
G1 X3.7529 Y2.0907
G1 X3.7548 Y2.0768
G1 X3.7578 Y2.0626
G1 X3.7628 Y2.0459
G1 X3.7694 Y2.0289
G1 X3.7787 Y2.0098
G1 X3.7904 Y1.9899
G1 X3.8054 Y1.9686
G1 X3.8236 Y1.9466
G1 X3.8467 Y1.9229
G1 X3.8734 Y1.8997
G1 X3.906 Y1.8755
G1 X3.9453 Y1.8511
G1 X3.9868 Y1.8296
G1 X4.0297 Y1.8112
G1 X4.0737 Y1.7955
G1 X4.1185 Y1.7823
G1 X4.1639 Y1.7713
G1 X4.2097 Y1.7625
G1 X4.2559 Y1.7557
G1 X4.3023 Y1.7508
G1 X4.3489 Y1.7477
G1 X4.3956 Y1.7464
G1 X4.4423 Y1.7468
G1 X4.4889 Y1.7489
G1 X4.5355 Y1.7528
G1 X4.5818 Y1.7586
G1 X4.6278 Y1.7668
G1 X4.6727 Y1.7776
G1 X4.7057 Y1.7883
G1 X4.7335 Y1.8
G1 X4.7398 Y1.8032
G1 X4.7532 Y1.8118
G1 X4.7649 Y1.8226
G1 X4.7744 Y1.8354
G1 X4.7814 Y1.8497
G1 X4.7857 Y1.8651
G1 X4.7871 Y1.881
G1 Y2.023
G3 X4.7529 Y2.059 I-0.0375 J-0.0013
G1 X3.7929 Y2.1425
G3 X3.7521 Y2.1065 I-0.0033 J-0.0374
G1 Y1.9716
G1 X3.753 Y1.9545
G1 X3.7548 Y1.9405
G1 X3.7579 Y1.9262
G1 X3.7629 Y1.9095
G1 X3.7696 Y1.8923
G1 X3.7788 Y1.8733
G1 X3.7907 Y1.8531
G1 X3.8057 Y1.8318
G1 X3.8241 Y1.8096
G1 X3.8474 Y1.7857
G1 X3.8743 Y1.7623
G1 X3.9073 Y1.7378
G1 X3.947 Y1.7131
G1 X3.9884 Y1.6917
G1 X4.0313 Y1.6732
G1 X4.0752 Y1.6574
G1 X4.12 Y1.644
G1 X4.1653 Y1.6329
G1 X4.2111 Y1.6238
G1 X4.2573 Y1.6168
G1 X4.3037 Y1.6116
G1 X4.3503 Y1.6083
G1 X4.3969 Y1.6066
G1 X4.4436 Y1.6067
G1 X4.4903 Y1.6086
G1 X4.5368 Y1.6122
G1 X4.5832 Y1.6179
G1 X4.6292 Y1.6259
G1 X4.6733 Y1.6364
G1 X4.7058 Y1.6469
G1 X4.7334 Y1.6584
G1 X4.7396 Y1.6616
G1 X4.7531 Y1.6701
G1 X4.7648 Y1.681
G1 X4.7743 Y1.6938
G1 X4.7814 Y1.7081
G1 X4.7857 Y1.7235
G1 X4.7871 Y1.7394
G1 Y1.881
G3 X4.7532 Y1.917 I-0.0375 J-0.0013
G1 X3.7931 Y2.0076
G3 X3.7521 Y1.9716 I-0.0035 J-0.0373
G1 Y1.8366
G1 X3.7531 Y1.8178
G1 X3.7549 Y1.8037
G1 X3.758 Y1.7894
G1 X3.763 Y1.7727
G1 X3.7698 Y1.7553
G1 X3.779 Y1.7363
G1 X3.791 Y1.7158
G1 X3.806 Y1.6945
G1 X3.8246 Y1.6721
G1 X3.848 Y1.6481
G1 X3.8752 Y1.6244
G1 X3.9086 Y1.5997
G1 X3.9482 Y1.575
G1 X3.9897 Y1.5536
G1 X4.0325 Y1.535
G1 X4.0764 Y1.5191
G1 X4.1211 Y1.5055
G1 X4.1664 Y1.4942
G1 X4.2121 Y1.485
G1 X4.2583 Y1.4777
G1 X4.3046 Y1.4723
G1 X4.3512 Y1.4687
G1 X4.3979 Y1.4668
G1 X4.4445 Y1.4667
G1 X4.4912 Y1.4683
G1 X4.5378 Y1.4718
G1 X4.5841 Y1.4772
G1 X4.6302 Y1.4851
G1 X4.6737 Y1.4954
G1 X4.706 Y1.5058
G1 X4.7334 Y1.5171
G1 X4.7395 Y1.5203
G1 X4.753 Y1.5288
G1 X4.7647 Y1.5397
G1 X4.7743 Y1.5525
G1 X4.7814 Y1.5669
G1 X4.7857 Y1.5823
G1 X4.7871 Y1.5982
G1 Y1.7394
G3 X4.7534 Y1.7754 I-0.0375 J-0.0013
G1 X3.7934 Y1.8726
G3 X3.7521 Y1.8366 I-0.0038 J-0.0373
G1 Y1.6905
G1 X3.7526 Y1.6812
G1 X3.7545 Y1.667
G1 X3.7576 Y1.6525
G1 X3.7626 Y1.6358
G1 X3.7694 Y1.6182
G1 X3.7787 Y1.5992
G1 X3.7908 Y1.5785
G1 X3.8058 Y1.5571
G1 X3.8247 Y1.5345
G1 X3.8482 Y1.5103
G1 X3.8756 Y1.4864
G1 X3.9094 Y1.4614
G1 X3.9491 Y1.4367
G1 X3.9905 Y1.4152
G1 X4.0333 Y1.3966
G1 X4.0772 Y1.3805
G1 X4.1218 Y1.3668
G1 X4.1671 Y1.3554
G1 X4.2128 Y1.3459
G1 X4.2589 Y1.3385
G1 X4.3052 Y1.3329
G1 X4.3518 Y1.3291
G1 X4.3984 Y1.327
G1 X4.4451 Y1.3267
G1 X4.4918 Y1.3281
G1 X4.5383 Y1.3314
G1 X4.5847 Y1.3367
G1 X4.6308 Y1.3445
G1 X4.6739 Y1.3546
G1 X4.706 Y1.3649
G1 X4.7332 Y1.3762
G1 X4.7394 Y1.3793
G1 X4.7529 Y1.3878
G1 X4.7647 Y1.3987
G1 X4.7743 Y1.4115
G1 X4.7813 Y1.4259
G1 X4.7857 Y1.4413
G1 X4.7871 Y1.4572
G1 Y1.5982
G3 X4.7533 Y1.6342 I-0.0375 J-0.0013
G1 X3.7932 Y1.7265
G3 X3.7521 Y1.6905 I-0.0036 J-0.0373
G1 Y1.5556
G1 X3.7527 Y1.5434
G1 X3.7546 Y1.5292
G1 X3.7577 Y1.5147
G1 X3.7627 Y1.498
G1 X3.7696 Y1.4803
G1 X3.7788 Y1.4612
G1 X3.7911 Y1.4404
G1 X3.8061 Y1.419
G1 X3.825 Y1.3963
G1 X3.8487 Y1.372
G1 X3.8764 Y1.3479
G1 X3.9104 Y1.3227
G1 X3.95 Y1.298
G1 X3.9915 Y1.2765
G1 X4.0343 Y1.2578
G1 X4.0781 Y1.2416
G1 X4.1227 Y1.2279
G1 X4.1679 Y1.2163
G1 X4.2136 Y1.2067
G1 X4.2597 Y1.1991
G1 X4.306 Y1.1933
G1 X4.3525 Y1.1893
G1 X4.3992 Y1.1871
G1 X4.4459 Y1.1866
G1 X4.4925 Y1.1879
G1 X4.5391 Y1.1911
G1 X4.5855 Y1.1964
G1 X4.6316 Y1.2041
G1 X4.6744 Y1.2141
G1 X4.7062 Y1.2243
G1 X4.7333 Y1.2355
G1 X4.7393 Y1.2385
G1 X4.7529 Y1.2471
G1 X4.7647 Y1.2579
G1 X4.7742 Y1.2708
G1 X4.7813 Y1.2851
G1 X4.7857 Y1.3006
G1 X4.7871 Y1.3165
G1 Y1.4572
G3 X4.7535 Y1.4932 I-0.0375 J-0.0013
G1 X3.7934 Y1.5916
G3 X3.7521 Y1.5556 I-0.0038 J-0.0373
G1 Y1.4206
G1 X3.7529 Y1.4054
G1 X3.7548 Y1.3912
G1 X3.7579 Y1.3766
G1 X3.7629 Y1.3599
G1 X3.7698 Y1.3421
G1 X3.7791 Y1.323
G1 X3.7914 Y1.3021
G1 X3.8064 Y1.2807
G1 X3.8255 Y1.2577
G1 X3.8493 Y1.2333
G1 X3.8771 Y1.2091
G1 X3.9113 Y1.1837
G1 X3.951 Y1.1591
G1 X3.9924 Y1.1375
G1 X4.0352 Y1.1187
G1 X4.0789 Y1.1025
G1 X4.1235 Y1.0887
G1 X4.1687 Y1.077
G1 X4.2144 Y1.0673
G1 X4.2605 Y1.0596
G1 X4.3068 Y1.0537
G1 X4.3533 Y1.0496
G1 X4.3999 Y1.0472
G1 X4.4466 Y1.0466
G1 X4.4933 Y1.0479
G1 X4.5399 Y1.051
G1 X4.5863 Y1.0561
G1 X4.6323 Y1.0638
G1 X4.6748 Y1.0737
G1 X4.7064 Y1.0839
G1 X4.7334 Y1.0949
G1 X4.7393 Y1.0979
G1 X4.7529 Y1.1065
G1 X4.7646 Y1.1174
G1 X4.7742 Y1.1302
G1 X4.7813 Y1.1446
G1 X4.7857 Y1.16
G1 X4.7871 Y1.1759
G1 Y1.3165
G3 X4.7537 Y1.3525 I-0.0375 J-0.0013
G1 X3.7937 Y1.4566
G3 X3.7521 Y1.4206 I-0.004 J-0.0373
G1 Y1.2857
G1 X3.7531 Y1.2671
G1 X3.7549 Y1.2528
G1 X3.7581 Y1.2382
G1 X3.7631 Y1.2215
G1 X3.7701 Y1.2036
G1 X3.7793 Y1.1845
G1 X3.7917 Y1.1635
G1 X3.8068 Y1.142
G1 X3.8259 Y1.119
G1 X3.8498 Y1.0945
G1 X3.8777 Y1.0701
G1 X3.9122 Y1.0446
G1 X3.9518 Y1.0199
G1 X3.9932 Y0.9983
G1 X4.036 Y0.9796
G1 X4.0797 Y0.9633
G1 X4.1243 Y0.9494
G1 X4.1695 Y0.9376
G1 X4.2152 Y0.9278
G1 X4.2612 Y0.92
G1 X4.3075 Y0.914
G1 X4.354 Y0.9098
G1 X4.4006 Y0.9074
G1 X4.4473 Y0.9067
G1 X4.494 Y0.9078
G1 X4.5406 Y0.9108
G1 X4.587 Y0.916
G1 X4.633 Y0.9236
G1 X4.6752 Y0.9335
G1 X4.7067 Y0.9435
G1 X4.7336 Y0.9546
G1 X4.7393 Y0.9575
G1 X4.7529 Y0.966
G1 X4.7646 Y0.9769
G1 X4.7742 Y0.9897
G1 X4.7813 Y1.0041
G1 X4.7857 Y1.0195
G1 X4.7871 Y1.0355
G1 Y1.1759
G3 X4.7539 Y1.2119 I-0.0375 J-0.0013
G1 X3.7939 Y1.3217
G3 X3.7521 Y1.2857 I-0.0043 J-0.0373
G1 Y1.1396
G1 X3.7527 Y1.129
G1 X3.7545 Y1.1147
G1 X3.7577 Y1.1
G1 X3.7627 Y1.0833
G1 X3.7698 Y1.0651
G1 X3.779 Y1.0461
G1 X3.7915 Y1.0249
G1 X3.8066 Y1.0034
G1 X3.8258 Y0.9802
G1 X3.8498 Y0.9556
G1 X3.878 Y0.9311
G1 X3.9126 Y0.9054
G1 X3.9523 Y0.8807
G1 X3.9937 Y0.8591
G1 X4.0364 Y0.8403
G1 X4.0801 Y0.824
G1 X4.1247 Y0.81
G1 X4.1698 Y0.7981
G1 X4.2155 Y0.7883
G1 X4.2615 Y0.7803
G1 X4.3078 Y0.7743
G1 X4.3543 Y0.77
G1 X4.4009 Y0.7675
G1 X4.4476 Y0.7667
G1 X4.4943 Y0.7678
G1 X4.5409 Y0.7707
G1 X4.5873 Y0.7758
G1 X4.6334 Y0.7834
G1 X4.6753 Y0.7932
G1 X4.7067 Y0.8032
G1 X4.7335 Y0.8142
G1 X4.7393 Y0.8172
G1 X4.7528 Y0.8257
G1 X4.7646 Y0.8366
G1 X4.7742 Y0.8494
G1 X4.7813 Y0.8638
G1 X4.7857 Y0.8792
G1 X4.7871 Y0.8952
G1 Y1.0355
G3 X4.7537 Y1.0715 I-0.0375 J-0.0013
G1 X3.7937 Y1.1755
G3 X3.7521 Y1.1396 I-0.004 J-0.0373
G1 Y1.0046
G1 X3.7529 Y0.99
G1 X3.7547 Y0.9757
G1 X3.7579 Y0.961
G1 X3.7629 Y0.9443
G1 X3.77 Y0.9261
G1 X3.7792 Y0.907
G1 X3.7917 Y0.8858
G1 X3.8068 Y0.8643
G1 X3.8261 Y0.841
G1 X3.8502 Y0.8164
G1 X3.8784 Y0.7918
G1 X3.9132 Y0.766
G1 X3.9529 Y0.7413
G1 X3.9943 Y0.7197
G1 X4.0227 Y0.7071
G1 X4.0341 Y0.703
G1 X4.046 Y0.7005
G1 X4.0581 Y0.6997
G1 X4.6695
G1 X4.6926 Y0.7008
G1 X4.7107 Y0.7032
G1 X4.7275 Y0.7068
G1 X4.7417 Y0.7125
G1 X4.7546 Y0.7207
G1 X4.7658 Y0.7311
G1 X4.7749 Y0.7433
G1 X4.7816 Y0.757
G1 X4.7858 Y0.7717
G1 X4.7871 Y0.7869
G3 X4.73 Y0.8176 I-0.0375 J-0.0013
G1 X4.6512 Y0.7691
G3 X4.6695 Y0.6997 I0.0196 J-0.032
G1 X4.7482
G1 X4.7537 Y0.7
G1 X4.7594 Y0.7011
G1 X4.765 Y0.7032
G1 X4.7706 Y0.7064
G1 X4.774 Y0.709
G1 X4.7773 Y0.7123
G1 X4.7798 Y0.7154
G1 X4.7819 Y0.7185
G1 X4.7844 Y0.7236
G1 X4.7862 Y0.7292
G1 X4.787 Y0.7348
G1 X4.7871 Y0.7461
G1 Y0.8952
G3 X4.7539 Y0.9311 I-0.0375 J-0.0013
G1 X3.7939 Y1.0406
G3 X3.7521 Y1.0046 I-0.0042 J-0.0373
G1 Y0.8697
G1 X3.7531 Y0.8509
G1 X3.7549 Y0.8366
G1 X3.7581 Y0.8219
G1 X3.7631 Y0.8052
G1 X3.7702 Y0.7869
G1 X3.7795 Y0.7679
G1 X3.792 Y0.7466
G1 X3.7988 Y0.7369
G1 X3.8077 Y0.7261
G1 X3.8182 Y0.7169
G1 X3.83 Y0.7095
G1 X3.8429 Y0.7041
G1 X3.8565 Y0.7008
G1 X3.8704 Y0.6997
G3 X3.9012 Y0.7566 I-0.0013 J0.0375
G1 X3.8217 Y0.8878
G3 X3.7521 Y0.8697 I-0.0321 J-0.0194
G1 Y0.7461
G1 X3.7522 Y0.7399
G1 Y0.7348
G1 X3.7531 Y0.7292
G1 X3.7549 Y0.7236
G1 X3.7566 Y0.7199
G1 X3.7588 Y0.7163
G1 X3.762 Y0.7123
G1 X3.7661 Y0.7085
G1 X3.7701 Y0.7055
G1 X3.7751 Y0.7029
G1 X3.7801 Y0.7011
G1 X3.7813 Y0.7008
G1 X3.787 Y0.6998
G1 X3.7926 Y0.6997
G1 X4.0581
G3 X4.0852 Y0.7127 I-0.0013 J0.0375
G1 X4.0881 Y0.7161 Z-0.0727
G1 X4.091 Y0.7195 Z-0.0719
G1 X4.0938 Y0.7228 Z-0.0706
G1 X4.0965 Y0.7259 Z-0.0687
G1 X4.0991 Y0.7288 Z-0.0664
G1 X4.1014 Y0.7315 Z-0.0636
G1 X4.1035 Y0.7339 Z-0.0604
G1 X4.1053 Y0.7361 Z-0.0568
G1 X4.1068 Y0.7378 Z-0.0529
G1 X4.1081 Y0.7392 Z-0.0488
G1 X4.1089 Y0.7403 Z-0.0445
G1 X4.1095 Y0.7409 Z-0.04
G1 X4.1096 Y0.7411 Z-0.0355
G0 Z0.6
G0 X4.566 Y0.7384
G0 Z0.2
G0 Z0.015
G1 Z-0.0225 F11.
G1 X4.5663 Y0.7383 Z-0.027
G1 X4.5671 Y0.7381 Z-0.0315
G1 X4.5684 Y0.7377 Z-0.0358
G1 X4.5702 Y0.7373 Z-0.0399
G1 X4.5725 Y0.7367 Z-0.0438
G1 X4.5752 Y0.736 Z-0.0474
G1 X4.5783 Y0.7352 Z-0.0506
G1 X4.5817 Y0.7343 Z-0.0534
G1 X4.5855 Y0.7334 Z-0.0557
G1 X4.5895 Y0.7323 Z-0.0576
G1 X4.5937 Y0.7313 Z-0.0589
G1 X4.598 Y0.7302 Z-0.0597
G1 X4.6024 Y0.729 Z-0.06
G3 X4.8065 Y0.6997 I0.2376 J0.9274
G1 X4.8243
G1 X4.8258 Y0.6998
G1 X4.8329 Y0.7052
G1 X4.841 Y0.7125
G1 X4.8502 Y0.7221
G1 X4.8602 Y0.7346
G1 X4.8711 Y0.7506
G1 X4.8829 Y0.7712
G1 X4.8953 Y0.7978
G1 X4.9084 Y0.8329
G1 X4.9211 Y0.8778
G1 X4.9305 Y0.9235
G1 X4.9374 Y0.9697
G1 X4.9424 Y1.0161
G1 X4.9462 Y1.0627
G1 X4.949 Y1.1093
G1 X4.9511 Y1.1559
G1 X4.9526 Y1.2026
G1 X4.9538 Y1.2493
G1 X4.9546 Y1.296
G1 X4.9553 Y1.3426
G1 X4.9558 Y1.3893
G1 X4.9561 Y1.436
G1 X4.9564 Y1.4827
G1 X4.9566 Y1.5294
G1 X4.9568 Y1.6228
G1 X4.957 Y1.7629
G1 X4.9571 Y1.9963
G1 Y2.65
G1 Y4.2237
G1 X4.9557 Y4.2387
G1 X4.9513 Y4.253
G1 X4.9442 Y4.2663
G1 X4.9347 Y4.2779
G1 X4.9231 Y4.2874
G1 X4.9099 Y4.2945
G1 X4.8955 Y4.2988
G1 X4.8806 Y4.3003
G3 X4.8535 Y4.2873 I0.0013 J-0.0375
G1 X4.8505 Y4.2839 Z-0.0597
G1 X4.8476 Y4.2805 Z-0.0589
G1 X4.8448 Y4.2772 Z-0.0576
G1 X4.8421 Y4.2741 Z-0.0557
G1 X4.8396 Y4.2712 Z-0.0534
G1 X4.8372 Y4.2685 Z-0.0506
G1 X4.8351 Y4.266 Z-0.0474
G1 X4.8333 Y4.2639 Z-0.0438
G1 X4.8318 Y4.2621 Z-0.0399
G1 X4.8306 Y4.2607 Z-0.0358
G1 X4.8297 Y4.2597 Z-0.0315
G1 X4.8292 Y4.2591 Z-0.027
G1 X4.829 Y4.2589 Z-0.0225
G0 Z0.2
G0 X4.7624 Y0.7276
G0 Z0.015
G1 Z-0.0225 F11.
G1 X4.7626 Y0.7274 Z-0.027
G1 X4.7634 Y0.727 Z-0.0315
G1 X4.7645 Y0.7263 Z-0.0358
G1 X4.7661 Y0.7254 Z-0.0399
G1 X4.7681 Y0.7242 Z-0.0438
G1 X4.7705 Y0.7227 Z-0.0474
G1 X4.7733 Y0.7211 Z-0.0506
G1 X4.7763 Y0.7193 Z-0.0534
G1 X4.7797 Y0.7173 Z-0.0557
G1 X4.7832 Y0.7152 Z-0.0576
G1 X4.7869 Y0.713 Z-0.0589
G1 X4.7908 Y0.7107 Z-0.0597
G1 X4.7946 Y0.7084 Z-0.06
G3 X4.8243 Y0.6997 I0.0318 J0.0536
G1 X4.8755
G1 X4.8815 Y0.7
G1 X4.891 Y0.7032
G1 X4.9019 Y0.7079
G1 X4.9137 Y0.7142
G1 X4.9258 Y0.7219
G1 X4.9396 Y0.7324
G1 X4.9533 Y0.7447
G1 X4.968 Y0.7601
G1 X4.9832 Y0.7788
G1 X4.9991 Y0.802
G1 X5.015 Y0.8298
G1 X5.0314 Y0.8648
G1 X5.0479 Y0.9085
G1 X5.0608 Y0.9533
G1 X5.071 Y0.9989
G1 X5.0789 Y1.0449
G1 X5.0852 Y1.0912
G1 X5.0901 Y1.1376
G1 X5.0939 Y1.1842
G1 X5.0969 Y1.2308
G1 X5.0992 Y1.2774
G1 X5.101 Y1.3241
G1 X5.1024 Y1.3707
G1 X5.1035 Y1.4174
G1 X5.1043 Y1.4641
G1 X5.105 Y1.5108
G1 X5.1055 Y1.5575
G1 X5.1059 Y1.6042
G1 X5.1062 Y1.6508
G1 X5.1064 Y1.6975
G1 X5.1066 Y1.7442
G1 X5.1068 Y1.8376
G1 X5.107 Y1.9777
G1 X5.1071 Y2.2111
G1 Y2.6314
G1 Y4.0788
G1 X5.1064 Y4.1255
G1 X5.1034 Y4.1639
G1 X5.0984 Y4.1951
G1 X5.0919 Y4.2216
G1 X5.0846 Y4.2439
G1 X5.0833 Y4.2468
G1 X5.0765 Y4.2598
G1 X5.0677 Y4.2714
G1 X5.057 Y4.2814
G1 X5.0448 Y4.2895
G1 X5.0315 Y4.2954
G1 X5.0173 Y4.2991
G1 X5.0027 Y4.3003
G3 X4.9756 Y4.2873 I0.0013 J-0.0375
G1 X4.9727 Y4.2839 Z-0.0597
G1 X4.9698 Y4.2805 Z-0.0589
G1 X4.9669 Y4.2772 Z-0.0576
G1 X4.9642 Y4.2741 Z-0.0557
G1 X4.9617 Y4.2712 Z-0.0534
G1 X4.9594 Y4.2685 Z-0.0506
G1 X4.9573 Y4.266 Z-0.0474
G1 X4.9555 Y4.2639 Z-0.0438
G1 X4.9539 Y4.2621 Z-0.0399
G1 X4.9527 Y4.2607 Z-0.0358
G1 X4.9518 Y4.2597 Z-0.0315
G1 X4.9513 Y4.2591 Z-0.027
G1 X4.9511 Y4.2589 Z-0.0225
G0 Z0.2
G0 X4.8136 Y0.7276
G0 Z0.015
G1 Z-0.0225 F11.
G1 X4.8138 Y0.7274 Z-0.027
G1 X4.8145 Y0.727 Z-0.0315
G1 X4.8157 Y0.7263 Z-0.0358
G1 X4.8173 Y0.7254 Z-0.0399
G1 X4.8193 Y0.7242 Z-0.0438
G1 X4.8217 Y0.7227 Z-0.0474
G1 X4.8245 Y0.7211 Z-0.0506
G1 X4.8275 Y0.7193 Z-0.0534
G1 X4.8308 Y0.7173 Z-0.0557
G1 X4.8344 Y0.7152 Z-0.0576
G1 X4.8381 Y0.713 Z-0.0589
G1 X4.8419 Y0.7107 Z-0.0597
G1 X4.8458 Y0.7084 Z-0.06
G3 X4.8755 Y0.6997 I0.0318 J0.0536
G1 X4.9542
G1 X4.9573 Y0.6998
G1 X4.9674 Y0.7009
G1 X4.9781 Y0.7029
G1 X4.9901 Y0.7061
G1 X5.003 Y0.7108
G1 X5.0167 Y0.717
G1 X5.032 Y0.7255
G1 X5.0472 Y0.7356
G1 X5.0645 Y0.7492
G1 X5.0812 Y0.7647
G1 X5.0997 Y0.7847
G1 X5.1176 Y0.8076
G1 X5.1365 Y0.8363
G1 X5.1558 Y0.8714
G1 X5.1749 Y0.914
G1 X5.1906 Y0.9579
G1 X5.2034 Y1.0028
G1 X5.2139 Y1.0484
G1 X5.2224 Y1.0943
G1 X5.2292 Y1.1404
G1 X5.2348 Y1.1868
G1 X5.2393 Y1.2333
G1 X5.2429 Y1.2798
G1 X5.2458 Y1.3264
G1 X5.2482 Y1.3731
G1 X5.25 Y1.4197
G1 X5.2515 Y1.4664
G1 X5.2527 Y1.5131
G1 X5.2536 Y1.5597
G1 X5.2544 Y1.6064
G1 X5.255 Y1.6531
G1 X5.2554 Y1.6998
G1 X5.2558 Y1.7465
G1 X5.2561 Y1.7932
G1 X5.2563 Y1.8399
G1 X5.2566 Y1.9333
G1 X5.2568 Y2.0267
G1 X5.257 Y2.1667
G1 X5.2571 Y2.4002
G1 Y2.587
G1 Y3.941
G1 X5.257 Y3.9877
G1 X5.256 Y4.0344
G1 X5.2537 Y4.081
G1 X5.2493 Y4.1275
G1 X5.2427 Y4.1703
G1 X5.2349 Y4.2028
G1 X5.2261 Y4.2298
G1 X5.2191 Y4.2465
G1 X5.2124 Y4.2595
G1 X5.2035 Y4.2712
G1 X5.1928 Y4.2813
G1 X5.1806 Y4.2894
G1 X5.1672 Y4.2954
G1 X5.153 Y4.2991
G1 X5.1384 Y4.3003
G1 X5.0027
G3 X4.9756 Y4.2873 I0.0013 J-0.0375
G1 X4.9727 Y4.2839 Z-0.0597
G1 X4.9698 Y4.2805 Z-0.0589
G1 X4.9669 Y4.2772 Z-0.0576
G1 X4.9642 Y4.2741 Z-0.0557
G1 X4.9617 Y4.2712 Z-0.0534
G1 X4.9594 Y4.2685 Z-0.0506
G1 X4.9573 Y4.266 Z-0.0474
G1 X4.9555 Y4.2639 Z-0.0438
G1 X4.9539 Y4.2621 Z-0.0399
G1 X4.9527 Y4.2607 Z-0.0358
G1 X4.9518 Y4.2597 Z-0.0315
G1 X4.9513 Y4.2591 Z-0.027
G1 X4.9511 Y4.2589 Z-0.0225
G0 Z0.2
G0 X4.8923 Y0.7276
G0 Z0.015
G1 Z-0.0225 F11.
G1 X4.8926 Y0.7274 Z-0.027
G1 X4.8933 Y0.727 Z-0.0315
G1 X4.8944 Y0.7263 Z-0.0358
G1 X4.896 Y0.7254 Z-0.0399
G1 X4.898 Y0.7242 Z-0.0438
G1 X4.9004 Y0.7227 Z-0.0474
G1 X4.9032 Y0.7211 Z-0.0506
G1 X4.9063 Y0.7193 Z-0.0534
G1 X4.9096 Y0.7173 Z-0.0557
G1 X4.9131 Y0.7152 Z-0.0576
G1 X4.9169 Y0.713 Z-0.0589
G1 X4.9207 Y0.7107 Z-0.0597
G1 X4.9246 Y0.7084 Z-0.06
G3 X4.9542 Y0.6997 I0.0318 J0.0536
G1 X5.0605
G1 X5.0743 Y0.7004
G1 X5.0861 Y0.7019
G1 X5.0986 Y0.7046
G1 X5.1129 Y0.7089
G1 X5.1274 Y0.7145
G1 X5.1441 Y0.7226
G1 X5.1606 Y0.7324
G1 X5.1791 Y0.7454
G1 X5.1979 Y0.7609
G1 X5.2179 Y0.7805
G1 X5.2378 Y0.8033
G1 X5.2589 Y0.8317
G1 X5.2803 Y0.8662
G1 X5.2906 Y0.8861
G1 X5.2959 Y0.8989
G1 X5.2992 Y0.9123
G1 X5.3003 Y0.9262
G3 X5.2372 Y0.9523 I-0.0375 J-0.0013
G1 X5.0363 Y0.7646
G3 X5.0605 Y0.6997 I0.0256 J-0.0274
G1 X5.1843
G1 X5.1974 Y0.7003
G1 X5.2093 Y0.7018
G1 X5.2233 Y0.7048
G1 X5.2378 Y0.7091
G1 X5.2444 Y0.7116
G1 X5.258 Y0.7182
G1 X5.2703 Y0.7271
G1 X5.2808 Y0.738
G1 X5.2893 Y0.7505
G1 X5.2955 Y0.7643
G1 X5.2993 Y0.779
G1 X5.3004 Y0.7941
G3 X5.2412 Y0.8229 I-0.0375 J-0.0017
G1 X5.1639 Y0.7677
G3 X5.1843 Y0.6997 I0.0218 J-0.0305
G1 X5.1955
G1 X5.218 Y0.6995
G1 X5.2293 Y0.6988
G1 X5.2518 Y0.6961
G1 X5.258 Y0.695
G1 X5.263 Y0.6941
G1 X5.2686 Y0.6938
G1 X5.2743 Y0.6943
G1 X5.2799 Y0.6957
G1 X5.2855 Y0.6982
G1 X5.2917 Y0.7021
G1 X5.2942 Y0.7043
G1 X5.2968 Y0.7069
G1 X5.2993 Y0.7101
G1 X5.3014 Y0.7134
G1 X5.304 Y0.719
G1 X5.3055 Y0.7246
G1 X5.3062 Y0.7302
G1 X5.306 Y0.7358
G1 X5.3041 Y0.7471
G1 X5.3013 Y0.7696
G1 X5.3006 Y0.7808
G1 X5.3003 Y0.8033
G1 Y0.8145
G1 Y4.1855
G1 Y4.1967
G1 X5.3006 Y4.2192
G1 Y4.2284
G1 X5.2981 Y4.2434
G1 X5.2927 Y4.2575
G1 X5.2847 Y4.2704
G1 X5.2743 Y4.2814
G1 X5.2619 Y4.2903
G1 X5.2481 Y4.2965
G1 X5.2333 Y4.3
G1 X5.2182 Y4.3005
G3 X5.1518 Y4.2174 I0.0073 J-0.0738
G3 X5.3006 Y4.2192 I0.0743 J0.0093
G1 X5.3013 Y4.2305
G1 X5.3041 Y4.2529
G1 X5.306 Y4.2642
G1 X5.3062 Y4.2698
G1 X5.3055 Y4.2754
G1 X5.304 Y4.281
G1 X5.3014 Y4.2866
G1 X5.2993 Y4.2899
G1 X5.2968 Y4.2931
G1 X5.2942 Y4.2957
G1 X5.2916 Y4.2979
G1 X5.2855 Y4.3018
G1 X5.2799 Y4.3042
G1 X5.2743 Y4.3057
G1 X5.2686 Y4.3062
G1 X5.263 Y4.3059
G1 X5.2518 Y4.3039
G1 X5.2293 Y4.3012
G1 X5.218 Y4.3005
G1 X5.1955 Y4.3003
G1 X5.173
G1 X5.1384
G3 X5.1113 Y4.2873 I0.0013 J-0.0375
G1 X5.1083 Y4.2839 Z-0.0597
G1 X5.1054 Y4.2805 Z-0.0589
G1 X5.1026 Y4.2772 Z-0.0576
G1 X5.0999 Y4.2741 Z-0.0557
G1 X5.0974 Y4.2712 Z-0.0534
G1 X5.095 Y4.2685 Z-0.0506
G1 X5.093 Y4.266 Z-0.0474
G1 X5.0911 Y4.2639 Z-0.0438
G1 X5.0896 Y4.2621 Z-0.0399
G1 X5.0884 Y4.2607 Z-0.0358
G1 X5.0875 Y4.2597 Z-0.0315
G1 X5.087 Y4.2591 Z-0.027
G1 X5.0868 Y4.2589 Z-0.0225
G0 Z0.6

N20(2D Contour1)
S5000 M3 M8
G0 X3.5821 Y4.2078
G0 Z0.6
G0 Z0.2
G1 Z0.0394 F5.
G1 Z-0.0225
G1 Y4.2081 Z-0.027
G1 Y4.2089 Z-0.0315
G1 Y4.2102 Z-0.0358
G1 Y4.2121 Z-0.0399
G1 Y4.2144 Z-0.0438
G1 Y4.2172 Z-0.0474
G1 Y4.2204 Z-0.0506
G1 Y4.224 Z-0.0534
G1 Y4.2279 Z-0.0557
G1 Y4.232 Z-0.0576
G1 Y4.2363 Z-0.0589
G1 Y4.2408 Z-0.0597
G1 Y4.2453 Z-0.06
G1 Y4.2828 F11.
G3 X3.5446 Y4.3203 I-0.0375 J0.
G1 X3.2236
G2 X3.0124 Y4.5093 I0. J0.2125
G3 X2.9876 I-0.0124 J-0.0015
G2 X2.7764 Y4.3203 I-0.2112 J0.0235
G1 X2.4554
G3 X2.4179 Y4.2828 I0. J-0.0375
G1 Y4.2453
G1 Y4.2408 Z-0.0597
G1 Y4.2363 Z-0.0589
G1 Y4.232 Z-0.0576
G1 Y4.2279 Z-0.0557
G1 Y4.224 Z-0.0534
G1 Y4.2204 Z-0.0506
G1 Y4.2172 Z-0.0474
G1 Y4.2144 Z-0.0438
G1 Y4.2121 Z-0.0399
G1 Y4.2102 Z-0.0358
G1 Y4.2089 Z-0.0315
G1 Y4.2081 Z-0.027
G1 Y4.2078 Z-0.0225
G0 Z0.2
G0 X1.0429
G1 Z0.0394 F5.
G1 Z-0.0225
G1 Y4.2081 Z-0.027
G1 Y4.2089 Z-0.0315
G1 Y4.2102 Z-0.0358
G1 Y4.2121 Z-0.0399
G1 Y4.2144 Z-0.0438
G1 Y4.2172 Z-0.0474
G1 Y4.2204 Z-0.0506
G1 Y4.224 Z-0.0534
G1 Y4.2279 Z-0.0557
G1 Y4.232 Z-0.0576
G1 Y4.2363 Z-0.0589
G1 Y4.2408 Z-0.0597
G1 Y4.2453 Z-0.06
G1 Y4.2828 F11.
G3 X1.0054 Y4.3203 I-0.0375 J0.
G1 X0.7854
G1 X0.7852
G2 X0.6353 Y4.3824 I0.0002 J0.2125
G3 X0.6177 Y4.3646 I-0.0088 J-0.0089
G2 X0.6797 Y4.2145 I-0.1505 J-0.15
G1 Y0.7854
G2 X0.6177 Y0.6354 I-0.2125 J0.
G3 X0.6354 Y0.6177 I0.0089 J-0.0088
G2 X0.7854 Y0.6797 I0.15 J-0.1505
G1 X1.0054
G3 X1.0429 Y0.7172 I0. J0.0375
G1 Y0.7547
G1 Y0.7592 Z-0.0597
G1 Y0.7637 Z-0.0589
G1 Y0.768 Z-0.0576
G1 Y0.7721 Z-0.0557
G1 Y0.776 Z-0.0534
G1 Y0.7796 Z-0.0506
G1 Y0.7828 Z-0.0474
G1 Y0.7856 Z-0.0438
G1 Y0.7879 Z-0.0399
G1 Y0.7898 Z-0.0358
G1 Y0.7911 Z-0.0315
G1 Y0.7919 Z-0.027
G1 Y0.7922 Z-0.0225
G0 Z0.2
G0 X2.4179
G1 Z0.0394 F5.
G1 Z-0.0225
G1 Y0.7919 Z-0.027
G1 Y0.7911 Z-0.0315
G1 Y0.7898 Z-0.0358
G1 Y0.7879 Z-0.0399
G1 Y0.7856 Z-0.0438
G1 Y0.7828 Z-0.0474
G1 Y0.7796 Z-0.0506
G1 Y0.776 Z-0.0534
G1 Y0.7721 Z-0.0557
G1 Y0.768 Z-0.0576
G1 Y0.7637 Z-0.0589
G1 Y0.7592 Z-0.0597
G1 Y0.7547 Z-0.06
G1 Y0.7172 F11.
G3 X2.4554 Y0.6797 I0.0375 J0.
G1 X2.7764
G2 X2.9876 Y0.4908 I0. J-0.2125
G3 X3.0124 I0.0124 J0.0014
G2 X3.2236 Y0.6797 I0.2112 J-0.0236
G1 X3.5446
G3 X3.5821 Y0.7172 I0. J0.0375
G1 Y0.7547
G1 Y0.7592 Z-0.0597
G1 Y0.7637 Z-0.0589
G1 Y0.768 Z-0.0576
G1 Y0.7721 Z-0.0557
G1 Y0.776 Z-0.0534
G1 Y0.7796 Z-0.0506
G1 Y0.7828 Z-0.0474
G1 Y0.7856 Z-0.0438
G1 Y0.7879 Z-0.0399
G1 Y0.7898 Z-0.0358
G1 Y0.7911 Z-0.0315
G1 Y0.7919 Z-0.027
G1 Y0.7922 Z-0.0225
G0 Z0.2
G0 X4.9571
G1 Z0.0394 F5.
G1 Z-0.0225
G1 Y0.7919 Z-0.027
G1 Y0.7911 Z-0.0315
G1 Y0.7898 Z-0.0358
G1 Y0.7879 Z-0.0399
G1 Y0.7856 Z-0.0438
G1 Y0.7828 Z-0.0474
G1 Y0.7796 Z-0.0506
G1 Y0.776 Z-0.0534
G1 Y0.7721 Z-0.0557
G1 Y0.768 Z-0.0576
G1 Y0.7637 Z-0.0589
G1 Y0.7592 Z-0.0597
G1 Y0.7547 Z-0.06
G1 Y0.7172 F11.
G3 X4.9946 Y0.6797 I0.0375 J0.
G1 X5.2145
G2 X5.3646 Y0.6177 I0.0001 J-0.2125
G3 X5.3824 Y0.6353 I0.0088 J0.0088
G2 X5.3203 Y0.7852 I0.1504 J0.1501
G1 Y0.7854
G1 Y4.2146
G2 X5.3824 Y4.3647 I0.2125 J0.
G3 X5.3647 Y4.3824 I-0.0089 J0.0088
G2 X5.2146 Y4.3203 I-0.1501 J0.1504
G1 X4.9946
G3 X4.9571 Y4.2828 I0. J-0.0375
G1 Y4.2453
G1 Y4.2408 Z-0.0597
G1 Y4.2363 Z-0.0589
G1 Y4.232 Z-0.0576
G1 Y4.2279 Z-0.0557
G1 Y4.224 Z-0.0534
G1 Y4.2204 Z-0.0506
G1 Y4.2172 Z-0.0474
G1 Y4.2144 Z-0.0438
G1 Y4.2121 Z-0.0399
G1 Y4.2102 Z-0.0358
G1 Y4.2089 Z-0.0315
G1 Y4.2081 Z-0.027
G1 Y4.2078 Z-0.0225
G0 Z0.6
G0 X4.6946 Y1.1797
G0 Z0.2
G1 Z0.0394 F5.
G1 Z-0.0355
G1 X4.6949 Z-0.04
G1 X4.6957 Z-0.0445
G1 X4.6971 Z-0.0488
G1 X4.6989 Z-0.0529
G1 X4.7013 Z-0.0568
G1 X4.7041 Z-0.0604
G1 X4.7073 Z-0.0636
G1 X4.7108 Z-0.0664
G1 X4.7147 Z-0.0687
G1 X4.7188 Z-0.0706
G1 X4.7232 Z-0.0719
G1 X4.7276 Z-0.0727
G1 X4.7321 Z-0.073
G1 X4.7696 F11.
G3 X4.8071 Y1.2172 I0. J0.0375
G1 Y4.3203
G1 X3.7321
G1 Y0.6797
G1 X4.8071
G1 Y1.2172
G3 X4.7696 Y1.2547 I-0.0375 J0.
G1 X4.7321
G1 X4.7276 Z-0.0727
G1 X4.7232 Z-0.0719
G1 X4.7188 Z-0.0706
G1 X4.7147 Z-0.0687
G1 X4.7108 Z-0.0664
G1 X4.7073 Z-0.0636
G1 X4.7041 Z-0.0604
G1 X4.7013 Z-0.0568
G1 X4.6989 Z-0.0529
G1 X4.6971 Z-0.0488
G1 X4.6957 Z-0.0445
G1 X4.6949 Z-0.04
G1 X4.6946 Z-0.0355
G0 Z0.2
G0 X2.1554 Y3.7453
G1 Z0.0394 F5.
G1 Z-0.0355
G1 X2.1556 Z-0.04
G1 X2.1565 Z-0.0445
G1 X2.1578 Z-0.0488
G1 X2.1597 Z-0.0529
G1 X2.162 Z-0.0568
G1 X2.1648 Z-0.0604
G1 X2.168 Z-0.0636
G1 X2.1716 Z-0.0664
G1 X2.1754 Z-0.0687
G1 X2.1796 Z-0.0706
G1 X2.1839 Z-0.0719
G1 X2.1883 Z-0.0727
G1 X2.1929 Z-0.073
G1 X2.2304 F11.
G3 X2.2679 Y3.7828 I0. J0.0375
G1 Y4.3203
G1 X1.1929
G1 Y0.6797
G1 X2.2679
G1 Y3.7828
G3 X2.2304 Y3.8203 I-0.0375 J0.
G1 X2.1929
G1 X2.1883 Z-0.0727
G1 X2.1839 Z-0.0719
G1 X2.1796 Z-0.0706
G1 X2.1754 Z-0.0687
G1 X2.1716 Z-0.0664
G1 X2.168 Z-0.0636
G1 X2.1648 Z-0.0604
G1 X2.162 Z-0.0568
G1 X2.1597 Z-0.0529
G1 X2.1578 Z-0.0488
G1 X2.1565 Z-0.0445
G1 X2.1556 Z-0.04
G1 X2.1554 Z-0.0355
G0 Z0.6

N30(2D Adaptive2)
S5000 M3 M8
G0 X1.554 Y3.7568
G0 Z0.6
G0 Z0.2
G0 Z0.102
G3 X1.9067 Y3.8067 Z0.0825 I0.1764 J0.0249 F1.5
G3 X1.554 Y3.7568 Z0.0629 I-0.1764 J-0.0249
G3 X1.9067 Y3.8067 Z0.0434 I0.1764 J0.0249
G3 X1.554 Y3.7568 Z0.0238 I-0.1764 J-0.0249
G3 X1.9067 Y3.8067 Z0.0043 I0.1764 J0.0249
G3 X1.554 Y3.7568 Z-0.0152 I-0.1764 J-0.0249
G3 X1.9067 Y3.8067 Z-0.0348 I0.1764 J0.0249
G3 X1.554 Y3.7568 Z-0.0543 I-0.1764 J-0.0249
G3 X1.9085 Y3.7817 Z-0.073 I0.1764 J0.0249
G3 X1.5522 I-0.1781 J0.
G3 X1.9085 I0.1781 J0.
G1 X1.9087 Y3.7934 F11.
G1 X1.9156 Y3.8396
G1 X1.9184 Y3.8449
G1 X1.9207 Y3.8504
G1 X1.9227 Y3.8567
G1 X1.9244 Y3.8638
G1 X1.9256 Y3.8717
G1 X1.9263 Y3.8803
G1 X1.9262 Y3.8896
G1 X1.9253 Y3.8996
G1 X1.9235 Y3.9102
G1 X1.9207 Y3.9213
G1 X1.9168 Y3.9327
G1 X1.9117 Y3.9444
G1 X1.9054 Y3.9563
G1 X1.8978 Y3.9682
G1 X1.8889 Y3.9799
G1 X1.8786 Y3.9913
G1 X1.8671 Y4.0023
G1 X1.8542 Y4.0127
G1 X1.8401 Y4.0224
G1 X1.8248 Y4.0311
G1 X1.8084 Y4.0388
G1 X1.791 Y4.0453
G1 X1.7727 Y4.0505
G1 X1.7537 Y4.0543
G1 X1.7341 Y4.0566
G1 X1.714 Y4.0573
G1 X1.6936 Y4.0565
G1 X1.6731 Y4.0539
G1 X1.6526 Y4.0497
G1 X1.6323 Y4.0437
G1 X1.6124 Y4.0361
G1 X1.5929 Y4.0268
G1 X1.5742 Y4.0159
G1 X1.5562 Y4.0035
G1 X1.5392 Y3.9896
G1 X1.5233 Y3.9742
G1 X1.5086 Y3.9576
G1 X1.4952 Y3.9398
G1 X1.4833 Y3.9209
G1 X1.4729 Y3.901
G1 X1.4641 Y3.8803
G1 X1.4569 Y3.8589
G1 X1.4515 Y3.837
G1 X1.4479 Y3.8147
G1 X1.4461 Y3.7921
G1 X1.446 Y3.7694
G1 X1.4479 Y3.7468
G1 X1.4515 Y3.7243
G1 X1.4569 Y3.7022
G1 X1.4641 Y3.6806
G1 X1.473 Y3.6596
G1 X1.4835 Y3.6394
G1 X1.4957 Y3.62
G1 X1.5094 Y3.6017
G1 X1.5245 Y3.5846
G1 X1.5409 Y3.5687
G1 X1.5586 Y3.5542
G1 X1.5774 Y3.5412
G1 X1.5971 Y3.5297
G1 X1.6178 Y3.5198
G1 X1.6391 Y3.5116
G1 X1.6611 Y3.5051
G1 X1.6835 Y3.5004
G1 X1.7062 Y3.4976
G1 X1.7291 Y3.4965
G1 X1.752 Y3.4974
G1 X1.7747 Y3.5
G1 X1.7972 Y3.5045
G1 X1.8192 Y3.5107
G1 X1.8406 Y3.5187
G1 X1.8614 Y3.5284
G1 X1.8813 Y3.5397
G1 X1.9002 Y3.5526
G1 X1.9181 Y3.567
G1 X1.9347 Y3.5827
G1 X1.95 Y3.5998
G1 X1.9639 Y3.618
G1 X1.9769 Y3.6383
G1 X1.999 Y3.6794
G1 X2.0162 Y3.7173
G1 X2.0276 Y3.7492
G1 X2.0356 Y3.7784
G1 X2.0407 Y3.8057
G1 X2.0435 Y3.8322
G1 X2.0441 Y3.8581
G1 X2.0427 Y3.8833
G1 X2.0394 Y3.908
G1 X2.0341 Y3.9321
G1 X2.0269 Y3.9556
G1 X2.0178 Y3.9786
G1 X2.0068 Y4.0008
G1 X1.994 Y4.0223
G1 X1.9794 Y4.0428
G1 X1.963 Y4.0623
G1 X1.9449 Y4.0807
G1 X1.9251 Y4.0978
G1 X1.9037 Y4.1134
G1 X1.8807 Y4.1275
G1 X1.8564 Y4.1399
G1 X1.8309 Y4.1504
G1 X1.8042 Y4.1589
G1 X1.7766 Y4.1654
G1 X1.7483 Y4.1696
G1 X1.7194 Y4.1716
G1 X1.6902 Y4.1713
G1 X1.6608 Y4.1686
G1 X1.6315 Y4.1635
G1 X1.6025 Y4.156
G1 X1.5739 Y4.1461
G1 X1.546 Y4.1339
G1 X1.519 Y4.1194
G1 X1.4931 Y4.1026
G1 X1.4685 Y4.0837
G1 X1.4453 Y4.0628
G1 X1.4238 Y4.04
G1 X1.4041 Y4.0155
G1 X1.3864 Y3.9893
G1 X1.3708 Y3.9617
G1 X1.3574 Y3.9329
G1 X1.3464 Y3.903
G1 X1.3377 Y3.8722
G1 X1.3316 Y3.8408
G1 X1.328 Y3.8089
G1 X1.3269 Y3.7768
G1 X1.3284 Y3.7447
G1 X1.3325 Y3.7127
G1 X1.3392 Y3.6811
G1 X1.3484 Y3.6502
G1 X1.36 Y3.6201
G1 X1.3741 Y3.5909
G1 X1.3904 Y3.563
G1 X1.409 Y3.5365
G1 X1.4296 Y3.5115
G1 X1.4522 Y3.4883
G1 X1.4765 Y3.4669
G1 X1.5026 Y3.4475
G1 X1.5301 Y3.4303
G1 X1.5589 Y3.4154
