%
(Cavity)
(Used to see CAM setup)
(T7  D=0.375 CR=0. - ZMIN=-0.06 - flat end mill)
G90 G54 G64 G50 G17 G40 G80 G94 G91.1 G49
G20 (Inch)
G30

N10(2D Adaptive1)
T7 G43 H7 M6
S3056 M3 M8
G54
G0 X3.1092 Y2.3592
G0 Z0.6
G0 Z0.2
G0 Z0.102
G3 X2.8908 Y2.6408 Z0.0825 I-0.1092 J0.1408 F1.5
G3 X3.1092 Y2.3592 Z0.0629 I0.1092 J-0.1408
G3 X2.8908 Y2.6408 Z0.0434 I-0.1092 J0.1408
G3 X3.1092 Y2.3592 Z0.0238 I0.1092 J-0.1408
G3 X2.8908 Y2.6408 Z0.0043 I-0.1092 J0.1408
G3 X3.1092 Y2.3592 Z-0.0152 I0.1092 J-0.1408
G3 X2.8908 Y2.6408 Z-0.0348 I-0.1092 J0.1408
G3 X3.1092 Y2.3592 Z-0.0543 I0.1092 J-0.1408
G3 X3.1781 Y2.5 Z-0.06 I-0.1092 J0.1408
G3 X2.8219 I-0.1781 J0.
G3 X3.1781 I0.1781 J0.
G1 X3.1783 Y2.5117 F11.
G1 X3.1852 Y2.5578
G1 X3.1879 Y2.563
G1 X3.1903 Y2.5685
G1 X3.1923 Y2.5748
G1 X3.194 Y2.5819
G1 X3.1952 Y2.5897
G1 X3.1959 Y2.5983
G1 X3.1958 Y2.6077
G1 X3.195 Y2.6176
G1 X3.1932 Y2.6282
G1 X3.1904 Y2.6392
G1 X3.1866 Y2.6507
G1 X3.1815 Y2.6624
G1 X3.1752 Y2.6742
G1 X3.1677 Y2.6861
G1 X3.1588 Y2.6978
G1 X3.1486 Y2.7093
G1 X3.137 Y2.7203
G1 X3.1242 Y2.7307
G1 X3.1101 Y2.7404
G1 X3.0948 Y2.7491
G1 X3.0785 Y2.7569
G1 X3.0611 Y2.7634
G1 X3.0429 Y2.7686
G1 X3.0239 Y2.7725
G1 X3.0043 Y2.7748
G1 X2.9842 Y2.7756
G1 X2.9638 Y2.7748
G1 X2.9433 Y2.7723
G1 X2.9228 Y2.7681
G1 X2.9025 Y2.7622
G1 X2.8825 Y2.7546
G1 X2.8631 Y2.7454
G1 X2.8443 Y2.7345
G1 X2.8263 Y2.7221
G1 X2.8093 Y2.7082
G1 X2.7933 Y2.6929
G1 X2.7786 Y2.6763
G1 X2.7652 Y2.6585
G1 X2.7532 Y2.6397
G1 X2.7428 Y2.6198
G1 X2.7339 Y2.5992
G1 X2.7267 Y2.5778
G1 X2.7213 Y2.5559
G1 X2.7176 Y2.5336
G1 X2.7157 Y2.511
G1 Y2.4883
G1 X2.7174 Y2.4656
G1 X2.721 Y2.4432
G1 X2.7264 Y2.421
G1 X2.7335 Y2.3994
G1 X2.7424 Y2.3784
G1 X2.7529 Y2.3581
G1 X2.765 Y2.3388
G1 X2.7786 Y2.3205
G1 X2.7937 Y2.3033
G1 X2.8101 Y2.2874
G1 X2.8277 Y2.2728
G1 X2.8465 Y2.2598
G1 X2.8662 Y2.2482
G1 X2.8868 Y2.2383
G1 X2.9082 Y2.23
G1 X2.9301 Y2.2235
G1 X2.9525 Y2.2188
G1 X2.9752 Y2.2159
G1 X2.9981 Y2.2148
G1 X3.021 Y2.2156
G1 X3.0437 Y2.2182
G1 X3.0662 Y2.2226
G1 X3.0882 Y2.2288
G1 X3.1097 Y2.2367
G1 X3.1305 Y2.2464
G1 X3.1504 Y2.2577
G1 X3.1694 Y2.2705
G1 X3.1873 Y2.2849
G1 X3.2039 Y2.3006
G1 X3.2193 Y2.3176
G1 X3.2332 Y2.3358
G1 X3.2461 Y2.3558
G1 X3.2682 Y2.3969
G1 X3.2856 Y2.435
G1 X3.2971 Y2.4669
G1 X3.3051 Y2.4962
G1 X3.3103 Y2.5235
G1 X3.3131 Y2.5501
G1 X3.3138 Y2.5759
G1 X3.3124 Y2.6012
G1 X3.3091 Y2.6259
G1 X3.3038 Y2.65
G1 X3.2966 Y2.6735
G1 X3.2876 Y2.6965
G1 X3.2766 Y2.7188
G1 X3.2639 Y2.7402
G1 X3.2493 Y2.7608
G1 X3.2329 Y2.7803
G1 X3.2148 Y2.7987
G1 X3.195 Y2.8158
G1 X3.1737 Y2.8315
G1 X3.1508 Y2.8456
G1 X3.1265 Y2.858
G1 X3.1009 Y2.8685
G1 X3.0743 Y2.8771
G1 X3.0467 Y2.8836
G1 X3.0184 Y2.8879
G1 X2.9895 Y2.8899
G1 X2.9603 Y2.8896
G1 X2.9309 Y2.8869
G1 X2.9016 Y2.8819
G1 X2.8725 Y2.8744
G1 X2.844 Y2.8646
G1 X2.8161 Y2.8524
G1 X2.789 Y2.8379
G1 X2.7631 Y2.8212
G1 X2.7385 Y2.8023
G1 X2.7153 Y2.7814
G1 X2.6938 Y2.7587
G1 X2.6741 Y2.7341
G1 X2.6563 Y2.708
G1 X2.6407 Y2.6804
G1 X2.6273 Y2.6516
G1 X2.6162 Y2.6217
G1 X2.6075 Y2.591
G1 X2.6013 Y2.5595
G1 X2.5976 Y2.5277
G1 X2.5965 Y2.4956
G1 X2.598 Y2.4634
G1 X2.6021 Y2.4315
G1 X2.6087 Y2.3999
G1 X2.6179 Y2.369
G1 X2.6295 Y2.3388
G1 X2.6435 Y2.3097
G1 X2.6598 Y2.2817
G1 X2.6783 Y2.2552
G1 X2.6989 Y2.2302
G1 X2.7214 Y2.2069
G1 X2.7458 Y2.1855
G1 X2.7718 Y2.1661
G1 X2.7992 Y2.1489
G1 X2.828 Y2.1339
G1 X2.8579 Y2.1212
G1 X2.8887 Y2.1111
G1 X2.9203 Y2.1034
G1 X2.9523 Y2.0982
G1 X2.9847 Y2.0957
G1 X3.0172 Y2.0958
G1 X3.0496 Y2.0984
G1 X3.0816 Y2.1037
G1 X3.1132 Y2.1115
G1 X3.144 Y2.1218
G1 X3.1738 Y2.1346
G1 X3.2026 Y2.1497
G1 X3.23 Y2.1671
G1 X3.2562 Y2.1867
G1 X3.2839 Y2.2113
G1 X3.3116 Y2.2401
G1 X3.3377 Y2.2721
G1 X3.3616 Y2.3067
G1 X3.3824 Y2.3427
G1 X3.3998 Y2.3792
G1 X3.4138 Y2.4161
G1 X3.4246 Y2.453
G1 X3.4322 Y2.4899
G1 X3.4367 Y2.5267
G1 X3.4383 Y2.5632
G1 X3.4369 Y2.5993
G1 X3.4326 Y2.6349
G1 X3.4256 Y2.6699
G1 X3.4158 Y2.704
G1 X3.4033 Y2.7373
G1 X3.3882 Y2.7694
G1 X3.3705 Y2.8003
G1 X3.3503 Y2.8298
G1 X3.3277 Y2.8577
G1 X3.3028 Y2.8839
G1 X3.2756 Y2.9082
G1 X3.2463 Y2.9304
G1 X3.2151 Y2.9503
G1 X3.1822 Y2.9678
G1 X3.1476 Y2.9827
G1 X3.1117 Y2.9949
G1 X3.0747 Y3.0043
G1 X3.0367 Y3.0107
G1 X2.998 Y3.0141
G1 X2.9589 Y3.0143
G1 X2.9197 Y3.0114
G1 X2.8806 Y3.0053
G1 X2.8418 Y2.996
G1 X2.8037 Y2.9836
G1 X2.7665 Y2.9681
G1 X2.7305 Y2.9495
G1 X2.6959 Y2.928
G1 X2.6629 Y2.9036
G1 X2.6319 Y2.8766
G1 X2.603 Y2.8471
G1 X2.5766 Y2.8152
G1 X2.5526 Y2.7811
G1 X2.5314 Y2.7452
G1 X2.5132 Y2.7076
G1 X2.4979 Y2.6685
G1 X2.4858 Y2.6282
G1 X2.477 Y2.587
G1 X2.4715 Y2.5452
G1 X2.4693 Y2.5029
G1 X2.4706 Y2.4606
G1 X2.4753 Y2.4185
G1 X2.4833 Y2.3769
G1 X2.4947 Y2.336
G1 X2.5093 Y2.2961
G1 X2.5271 Y2.2574
G1 X2.5479 Y2.2203
G1 X2.5717 Y2.185
G1 X2.5982 Y2.1517
G1 X2.6274 Y2.1206
G1 X2.6589 Y2.0919
G1 X2.6927 Y2.0659
G1 X2.7284 Y2.0426
G1 X2.7659 Y2.0223
G1 X2.805 Y2.005
G1 X2.8453 Y1.991
G1 X2.8866 Y1.9802
G1 X2.9286 Y1.9727
G1 X2.9712 Y1.9687
G1 X3.0139 Y1.9681
G1 X3.0565 Y1.9709
G1 X3.0988 Y1.9771
G1 X3.1404 Y1.9867
G1 X3.1811 Y1.9996
G1 X3.2207 Y2.0158
G1 X3.2599 Y2.0355
G1 X3.2986 Y2.0592
G1 X3.3364 Y2.0866
G1 X3.3719 Y2.117
G1 X3.4049 Y2.15
G1 X3.4353 Y2.1854
G1 X3.463 Y2.223
G1 X3.4878 Y2.2626
G1 X3.5096 Y2.3039
G1 X3.5281 Y2.3468
G1 X3.5433 Y2.3909
G1 X3.555 Y2.4361
G1 X3.5632 Y2.4821
G1 X3.5677 Y2.5286
G1 X3.5685 Y2.5753
G1 X3.5656 Y2.6218
G1 X3.559 Y2.6678
G1 X3.5487 Y2.713
G1 X3.5349 Y2.7571
G1 X3.5176 Y2.8001
G1 X3.4968 Y2.8415
G1 X3.4728 Y2.8812
G1 X3.4456 Y2.9189
G1 X3.4153 Y2.9545
G1 X3.3823 Y2.9875
G1 X3.3467 Y3.0178
G1 X3.3089 Y3.0451
G1 X3.269 Y3.0694
G1 X3.2273 Y3.0905
G1 X3.1841 Y3.1082
G1 X3.1397 Y3.1225
G1 X3.0943 Y3.1334
G1 X3.0482 Y3.1407
G1 X3.0017 Y3.1446
G1 X2.955 Y3.1448
G1 X2.9084 Y3.1416
G1 X2.8622 Y3.1349
G1 X2.8166 Y3.1248
G1 X2.7719 Y3.1113
G1 X2.7283 Y3.0946
G1 X2.686 Y3.0747
G1 X2.6454 Y3.0518
G1 X2.6065 Y3.0258
G1 X2.5697 Y2.9971
G1 X2.5351 Y2.9658
G1 X2.5028 Y2.9321
G1 X2.473 Y2.8962
G1 X2.4458 Y2.8582
G1 X2.4215 Y2.8184
G1 X2.4 Y2.7769
G1 X2.3815 Y2.734
G1 X2.3663 Y2.6899
G1 X2.3542 Y2.6448
G1 X2.3454 Y2.5989
G1 X2.3398 Y2.5526
G1 X2.3376 Y2.5059
G1 X2.3386 Y2.4592
G1 X2.3429 Y2.4127
G1 X2.3504 Y2.3667
G1 X2.3613 Y2.3213
G1 X2.3754 Y2.2767
G1 X2.3926 Y2.2333
G1 X2.4128 Y2.1912
G1 X2.4359 Y2.1507
G1 X2.4618 Y2.1118
G1 X2.4903 Y2.0749
G1 X2.5214 Y2.04
G1 X2.5548 Y2.0074
G1 X2.5906 Y1.9773
G1 X2.6283 Y1.9499
G1 X2.6679 Y1.9251
G1 X2.7091 Y1.9032
G1 X2.7518 Y1.8842
G1 X2.7956 Y1.8682
G1 X2.8405 Y1.8553
G1 X2.8862 Y1.8456
G1 X2.9324 Y1.8393
G1 X2.979 Y1.8362
G1 X3.0257 Y1.8364
G1 X3.0723 Y1.8398
G1 X3.1185 Y1.8465
G1 X3.1641 Y1.8564
G1 X3.209 Y1.8695
G1 X3.2528 Y1.8856
G1 X3.2953 Y1.9048
G1 X3.3365 Y1.9269
G1 X3.3761 Y1.9516
G1 X3.4141 Y1.9788
G1 X3.4502 Y2.0083
G1 X3.4843 Y2.0402
G1 X3.5163 Y2.0742
G1 X3.5461 Y2.1102
G1 X3.5736 Y2.1479
G1 X3.5988 Y2.1872
G1 X3.6214 Y2.2281
G1 X3.6413 Y2.2703
G1 X3.6585 Y2.3137
G1 X3.673 Y2.3581
G1 X3.6846 Y2.4033
G1 X3.6934 Y2.4492
G1 X3.6991 Y2.4955
G1 X3.7018 Y2.5421
G1 X3.7015 Y2.5888
G1 X3.6982 Y2.6354
G1 X3.6919 Y2.6817
G1 X3.6826 Y2.7274
G1 X3.6702 Y2.7724
G1 X3.6548 Y2.8165
G1 X3.6367 Y2.8596
G1 X3.6158 Y2.9013
G1 X3.5923 Y2.9417
G1 X3.5661 Y2.9803
G1 X3.5374 Y3.0171
G1 X3.5063 Y3.052
G1 X3.4732 Y3.0849
G1 X3.4379 Y3.1155
G1 X3.4008 Y3.1438
G1 X3.3618 Y3.1695
G1 X3.3213 Y3.1927
G1 X3.2794 Y3.2133
G1 X3.2363 Y3.2312
G1 X3.1921 Y3.2464
G1 X3.1471 Y3.2587
G1 X3.1013 Y3.268
G1 X3.0551 Y3.2745
G1 X3.0085 Y3.2781
G1 X2.9618 Y3.2789
G1 X2.9152 Y3.2768
G1 X2.8688 Y3.2717
G1 X2.8228 Y3.2638
G1 X2.7773 Y3.2531
G1 X2.7326 Y3.2396
G1 X2.6888 Y3.2235
G1 X2.646 Y3.2047
G1 X2.6046 Y3.1833
G1 X2.5645 Y3.1594
G1 X2.5259 Y3.1331
G1 X2.4889 Y3.1046
G1 X2.4537 Y3.0739
G1 X2.4204 Y3.0412
G1 X2.3892 Y3.0064
G1 X2.3601 Y2.9699
G1 X2.3332 Y2.9318
G1 X2.3086 Y2.8921
G1 X2.2863 Y2.851
G1 X2.2667 Y2.8087
G1 X2.2496 Y2.7652
G1 X2.2351 Y2.7208
G1 X2.2232 Y2.6757
G1 X2.214 Y2.6299
G1 X2.2075 Y2.5837
G1 X2.2037 Y2.5371
G1 X2.2028 Y2.4905
G1 X2.2046 Y2.4438
G1 X2.209 Y2.3973
G1 X2.2162 Y2.3512
G1 X2.2261 Y2.3055
G1 X2.2387 Y2.2606
G1 X2.254 Y2.2165
G1 X2.2718 Y2.1733
G1 X2.2921 Y2.1313
G1 X2.3147 Y2.0904
G1 X2.3397 Y2.051
G1 X2.3671 Y2.0131
G1 X2.3966 Y1.977
G1 X2.4282 Y1.9426
G1 X2.4617 Y1.9101
G1 X2.497 Y1.8795
G1 X2.5341 Y1.8512
G1 X2.5728 Y1.8251
G1 X2.613 Y1.8013
G1 X2.6545 Y1.7798
G1 X2.6971 Y1.7608
G1 X2.7408 Y1.7443
G1 X2.7853 Y1.7304
G1 X2.8307 Y1.7192
G1 X2.8766 Y1.7106
G1 X2.9229 Y1.7048
G1 X2.9695 Y1.7016
G1 X3.0162 Y1.7012
G1 X3.0628 Y1.7034
G1 X3.1092 Y1.7085
G1 X3.1553 Y1.7162
G1 X3.2008 Y1.7266
G1 X3.2457 Y1.7396
G1 X3.2897 Y1.7551
G1 X3.3328 Y1.7731
G1 X3.3747 Y1.7936
G1 X3.4155 Y1.8163
G1 X3.4549 Y1.8413
G1 X3.4929 Y1.8685
G1 X3.5294 Y1.8976
G1 X3.5643 Y1.9286
G1 X3.5974 Y1.9616
G1 X3.6286 Y1.9963
G1 X3.658 Y2.0326
G1 X3.6854 Y2.0704
G1 X3.7108 Y2.1095
G1 X3.7341 Y2.15
G1 X3.7551 Y2.1917
G1 X3.7739 Y2.2345
G1 X3.7903 Y2.2782
G1 X3.8044 Y2.3227
G1 X3.8161 Y2.3679
G1 X3.8253 Y2.4137
G1 X3.8321 Y2.4599
G1 X3.8363 Y2.5064
G1 X3.8379 Y2.553
G1 X3.837 Y2.5997
G1 X3.8336 Y2.6463
G1 X3.8277 Y2.6926
G1 X3.8192 Y2.7385
G1 X3.8082 Y2.7839
G1 X3.7946 Y2.8286
G1 X3.7787 Y2.8725
G1 X3.7604 Y2.9154
G1 X3.7398 Y2.9573
G1 X3.7169 Y2.998
G1 X3.6918 Y3.0374
G1 X3.6645 Y3.0753
G1 X3.6352 Y3.1116
G1 X3.604 Y3.1463
G1 X3.5709 Y3.1793
G1 X3.5362 Y3.2105
G1 X3.4997 Y3.2396
G1 X3.4617 Y3.2667
G1 X3.4222 Y3.2917
G1 X3.3815 Y3.3146
G1 X3.3396 Y3.3352
G1 X3.2967 Y3.3537
G1 X3.2529 Y3.3697
G1 X3.2082 Y3.3833
G1 X3.1629 Y3.3946
G1 X3.117 Y3.4033
G1 X3.0708 Y3.4097
G1 X3.0243 Y3.4137
G1 X2.9776 Y3.4153
G1 X2.9309 Y3.4143
G1 X2.8844 Y3.4108
G1 X2.838 Y3.4049
G1 X2.7921 Y3.3966
G1 X2.7466 Y3.386
G1 X2.7018 Y3.3731
G1 X2.6576 Y3.3578
G1 X2.6144 Y3.3402
G1 X2.5721 Y3.3204
G1 X2.5309 Y3.2984
G1 X2.4909 Y3.2744
G1 X2.4522 Y3.2483
G1 X2.4148 Y3.2203
G1 X2.3789 Y3.1905
G1 X2.3446 Y3.1587
G1 X2.312 Y3.1253
G1 X2.2812 Y3.0903
G1 X2.2521 Y3.0537
G1 X2.2249 Y3.0158
G1 X2.1996 Y2.9765
G1 X2.1764 Y2.936
G1 X2.1554 Y2.8943
G1 X2.1365 Y2.8516
G1 X2.1197 Y2.8081
G1 X2.1051 Y2.7637
G1 X2.0928 Y2.7187
G1 X2.0827 Y2.6731
G1 X2.075 Y2.627
G1 X2.0697 Y2.5806
G1 X2.0667 Y2.534
G1 X2.066 Y2.4874
G1 X2.0676 Y2.4407
G1 X2.0715 Y2.3942
G1 X2.0778 Y2.3479
G1 X2.0864 Y2.302
G1 X2.0974 Y2.2566
G1 X2.1107 Y2.2118
G1 X2.1261 Y2.1678
G1 X2.1437 Y2.1245
G1 X2.1633 Y2.0822
G1 X2.1851 Y2.0409
G1 X2.209 Y2.0008
G1 X2.2349 Y1.9619
G1 X2.2627 Y1.9244
G1 X2.2923 Y1.8883
G1 X2.3237 Y1.8537
G1 X2.3567 Y1.8207
G1 X2.3913 Y1.7894
G1 X2.4275 Y1.7599
G1 X2.4652 Y1.7323
G1 X2.5041 Y1.7065
G1 X2.5443 Y1.6828
G1 X2.5856 Y1.661
G1 X2.628 Y1.6413
G1 X2.6712 Y1.6237
G1 X2.7153 Y1.6084
G1 X2.7602 Y1.5954
G1 X2.8056 Y1.5846
G1 X2.8515 Y1.576
G1 X2.8978 Y1.5697
G1 X2.9443 Y1.5657
G1 X2.9909 Y1.564
G1 X3.0376 Y1.5648
G1 X3.0842 Y1.5678
G1 X3.1306 Y1.5732
G1 X3.1767 Y1.5808
G1 X3.2223 Y1.5907
G1 X3.2674 Y1.6028
G1 X3.3118 Y1.6171
G1 X3.3555 Y1.6336
G1 X3.3983 Y1.6523
G1 X3.4402 Y1.6729
G1 X3.481 Y1.6956
G1 X3.5208 Y1.7201
G1 X3.5593 Y1.7465
G1 X3.5965 Y1.7746
G1 X3.6324 Y1.8046
G1 X3.6667 Y1.8362
G1 X3.6996 Y1.8693
G1 X3.7309 Y1.904
G1 X3.7606 Y1.94
G1 X3.7886 Y1.9773
G1 X3.8149 Y2.016
G1 X3.8393 Y2.0558
G1 X3.8618 Y2.0967
G1 X3.8824 Y2.1386
G1 X3.901 Y2.1814
G1 X3.9177 Y2.225
G1 X3.9324 Y2.2693
G1 X3.945 Y2.3143
G1 X3.9554 Y2.3598
G1 X3.9637 Y2.4058
G1 X3.9698 Y2.4521
G1 X3.9737 Y2.4986
G1 X3.9755 Y2.5452
G1 X3.9751 Y2.5919
G1 X3.9726 Y2.6385
G1 X3.9678 Y2.685
G1 X3.9608 Y2.7312
G1 X3.9516 Y2.7769
G1 X3.9403 Y2.8222
G1 X3.9269 Y2.8669
G1 X3.9114 Y2.911
G1 X3.8938 Y2.9543
G1 X3.8743 Y2.9967
G1 X3.8526 Y3.038
G1 X3.8291 Y3.0783
G1 X3.8036 Y3.1175
G1 X3.7764 Y3.1554
G1 X3.7474 Y3.192
G1 X3.7168 Y3.2273
G1 X3.6845 Y3.261
G1 X3.6506 Y3.2932
G1 X3.6153 Y3.3237
G1 X3.5786 Y3.3525
G1 X3.5405 Y3.3796
G1 X3.5013 Y3.4049
G1 X3.4609 Y3.4283
G1 X3.4195 Y3.4499
G1 X3.3771 Y3.4695
G1 X3.3339 Y3.4871
G1 X3.2898 Y3.5026
G1 X3.2451 Y3.5161
G1 X3.1999 Y3.5275
G1 X3.1541 Y3.5369
G1 X3.108 Y3.5442
G1 X3.0616 Y3.5494
G1 X3.015 Y3.5524
G1 X2.9683 Y3.5532
G1 X2.9216 Y3.5519
G1 X2.8751 Y3.5485
G1 X2.8287 Y3.5431
G1 X2.7826 Y3.5356
G1 X2.7369 Y3.526
G1 X2.6917 Y3.5143
G1 X2.6471 Y3.5006
G1 X2.6031 Y3.4848
G1 X2.5599 Y3.4671
G1 X2.5176 Y3.4475
G1 X2.4761 Y3.4261
G1 X2.4356 Y3.4028
G1 X2.3962 Y3.3777
G1 X2.358 Y3.3509
G1 X2.321 Y3.3224
G1 X2.2854 Y3.2922
G1 X2.2511 Y3.2606
G1 X2.2182 Y3.2274
G1 X2.1868 Y3.1929
G1 X2.1569 Y3.157
G1 X2.1287 Y3.1198
G1 X2.1022 Y3.0813
G1 X2.0774 Y3.0417
G1 X2.0544 Y3.0011
G1 X2.0332 Y2.9595
G1 X2.0138 Y2.917
G1 X1.9963 Y2.8738
G1 X1.9807 Y2.8297
G1 X1.9671 Y2.7851
G1 X1.9555 Y2.7399
G1 X1.9459 Y2.6942
G1 X1.9382 Y2.6481
G1 X1.9326 Y2.6017
G1 X1.929 Y2.5552
G1 X1.9274 Y2.5085
G1 X1.9279 Y2.4618
G1 X1.9304 Y2.4152
G1 X1.9351 Y2.3688
G1 X1.9417 Y2.3225
G1 X1.9504 Y2.2767
G1 X1.961 Y2.2312
G1 X1.9735 Y2.1862
G1 X1.988 Y2.1418
G1 X2.0044 Y2.0981
G1 X2.0228 Y2.0552
G1 X2.043 Y2.0131
G1 X2.0651 Y1.9719
G1 X2.0889 Y1.9318
G1 X2.1144 Y1.8927
G1 X2.1415 Y1.8547
G1 X2.1703 Y1.8179
G1 X2.2007 Y1.7825
G1 X2.2326 Y1.7484
G1 X2.266 Y1.7158
G1 X2.3008 Y1.6846
G1 X2.3369 Y1.655
G1 X2.3742 Y1.6269
G1 X2.4127 Y1.6005
G1 X2.4523 Y1.5758
G1 X2.493 Y1.5528
G1 X2.5346 Y1.5317
G1 X2.5771 Y1.5124
G1 X2.6204 Y1.4949
G1 X2.6645 Y1.4794
G1 X2.7091 Y1.4657
G1 X2.7543 Y1.454
G1 X2.8 Y1.4443
G1 X2.846 Y1.4366
G1 X2.8924 Y1.4309
G1 X2.9389 Y1.4273
G1 X2.9856 Y1.4256
G1 X3.0323 Y1.426
G1 X3.0789 Y1.4284
G1 X3.1254 Y1.4327
G1 X3.1716 Y1.4391
G1 X3.2176 Y1.4475
G1 X3.2631 Y1.4579
G1 X3.3081 Y1.4703
G1 X3.3526 Y1.4845
G1 X3.3964 Y1.5007
G1 X3.4395 Y1.5186
G1 X3.4818 Y1.5383
G1 X3.5233 Y1.5598
G1 X3.5638 Y1.5831
G1 X3.6033 Y1.608
G1 X3.6417 Y1.6346
G1 X3.6789 Y1.6627
G1 X3.715 Y1.6923
G1 X3.7499 Y1.7234
G1 X3.7834 Y1.7558
G1 X3.8156 Y1.7896
G1 X3.8464 Y1.8248
G1 X3.8757 Y1.8611
G1 X3.9035 Y1.8986
G1 X3.9297 Y1.9373
G1 X3.9544 Y1.9769
G1 X3.9774 Y2.0175
G1 X3.9988 Y2.059
G1 X4.0185 Y2.1014
G1 X4.0364 Y2.1445
G1 X4.0525 Y2.1883
G1 X4.0668 Y2.2328
G1 X4.0793 Y2.2778
G1 X4.0899 Y2.3232
G1 X4.0987 Y2.3691
G1 X4.1056 Y2.4153
G1 X4.1106 Y2.4617
G1 X4.1137 Y2.5083
G1 X4.1149 Y2.555
G1 X4.1141 Y2.6017
G1 X4.1113 Y2.6483
G1 X4.1067 Y2.6947
G1 X4.1002 Y2.741
G1 X4.0918 Y2.7869
G1 X4.0815 Y2.8324
G1 X4.0693 Y2.8775
G1 X4.0552 Y2.922
G1 X4.0393 Y2.9659
G1 X4.0216 Y3.0091
G1 X4.0021 Y3.0516
G1 X3.9809 Y3.0931
G1 X3.958 Y3.1338
G1 X3.9334 Y3.1736
G1 X3.9073 Y3.2122
G1 X3.8795 Y3.2497
G1 X3.8502 Y3.2861
G1 X3.8194 Y3.3212
G1 X3.7871 Y3.355
G1 X3.7536 Y3.3874
G1 X3.7187 Y3.4185
G1 X3.6826 Y3.4481
G1 X3.6453 Y3.4762
G1 X3.6069 Y3.5027
G1 X3.5674 Y3.5276
G1 X3.5269 Y3.5509
G1 X3.4855 Y3.5725
G1 X3.4433 Y3.5924
G1 X3.4003 Y3.6106
G1 X3.3566 Y3.627
G1 X3.3122 Y3.6416
G1 X3.2673 Y3.6544
G1 X3.2219 Y3.6654
G1 X3.1761 Y3.6745
G1 X3.13 Y3.6818
G1 X3.0837 Y3.6872
G1 X3.0371 Y3.6908
G1 X2.9904 Y3.6925
G1 X2.9437 Y3.6923
G1 X2.8971 Y3.6902
G1 X2.8506 Y3.6863
G1 X2.8042 Y3.6805
G1 X2.7582 Y3.6729
G1 X2.7125 Y3.6634
G1 X2.6671 Y3.6522
G1 X2.6223 Y3.6391
G1 X2.578 Y3.6243
G1 X2.5344 Y3.6077
G1 X2.4914 Y3.5894
G1 X2.4492 Y3.5695
G1 X2.4078 Y3.5478
G1 X2.3673 Y3.5246
G1 X2.3278 Y3.4998
G1 X2.2892 Y3.4734
G1 X2.2518 Y3.4456
G1 X2.2154 Y3.4163
G1 X2.1802 Y3.3856
G1 X2.1463 Y3.3535
G1 X2.1136 Y3.3201
G1 X2.0823 Y3.2855
G1 X2.0523 Y3.2497
G1 X2.0238 Y3.2128
G1 X1.9967 Y3.1747
G1 X1.9711 Y3.1357
G1 X1.9471 Y3.0956
G1 X1.9247 Y3.0547
G1 X1.9038 Y3.0129
G1 X1.8846 Y2.9703
G1 X1.8671 Y2.927
G1 X1.8513 Y2.8831
G1 X1.8372 Y2.8386
G1 X1.8248 Y2.7936
G1 X1.8141 Y2.7481
G1 X1.8053 Y2.7023
G1 X1.7982 Y2.6561
G1 X1.7929 Y2.6097
G1 X1.7895 Y2.5632
G1 X1.7878 Y2.5165
G1 X1.7879 Y2.4698
G1 X1.7899 Y2.4232
G1 X1.7936 Y2.3766
G1 X1.7991 Y2.3303
G1 X1.8064 Y2.2842
G1 X1.8156 Y2.2384
G1 X1.8264 Y2.193
G1 X1.839 Y2.148
G1 X1.8534 Y2.1036
G1 X1.8694 Y2.0597
G1 X1.8871 Y2.0165
G1 X1.9064 Y1.974
G1 X1.9274 Y1.9323
G1 X1.95 Y1.8914
G1 X1.9742 Y1.8515
G1 X1.9998 Y1.8125
G1 X2.027 Y1.7745
G1 X2.0556 Y1.7376
G1 X2.0855 Y1.7018
G1 X2.1169 Y1.6671
G1 X2.1495 Y1.6338
G1 X2.1834 Y1.6017
G1 X2.2186 Y1.5709
G1 X2.2549 Y1.5416
G1 X2.2923 Y1.5136
G1 X2.3307 Y1.4871
G1 X2.3701 Y1.4621
G1 X2.4105 Y1.4386
G1 X2.4517 Y1.4167
G1 X2.4938 Y1.3964
G1 X2.5366 Y1.3777
G1 X2.5801 Y1.3607
G1 X2.6242 Y1.3454
G1 X2.6688 Y1.3318
G1 X2.714 Y1.3199
G1 X2.7596 Y1.3098
G1 X2.8055 Y1.3014
G1 X2.8517 Y1.2947
G1 X2.8982 Y1.2899
G1 X2.9447 Y1.2869
G1 X2.9914 Y1.2857
G1 X3.0381 Y1.2862
G1 X3.0847 Y1.2886
G1 X3.1313 Y1.2927
G1 X3.1776 Y1.2986
G1 X3.2236 Y1.3062
G1 X3.2694 Y1.3156
G1 X3.3147 Y1.3268
G1 X3.3596 Y1.3396
G1 X3.404 Y1.3542
G1 X3.4477 Y1.3704
G1 X3.4909 Y1.3882
G1 X3.5333 Y1.4077
G1 X3.575 Y1.4287
G1 X3.6159 Y1.4512
G1 X3.656 Y1.4753
G1 X3.6951 Y1.5008
G1 X3.7332 Y1.5278
G1 X3.7703 Y1.5561
G1 X3.8063 Y1.5858
G1 X3.8412 Y1.6168
G1 X3.875 Y1.6491
G1 X3.9076 Y1.6825
G1 X3.9389 Y1.7171
G1 X3.969 Y1.7528
G1 X3.9977 Y1.7896
G1 X4.0251 Y1.8275
G1 X4.051 Y1.8663
G1 X4.0755 Y1.906
G1 X4.0986 Y1.9466
G1 X4.1202 Y1.988
G1 X4.1403 Y2.0301
G1 X4.1589 Y2.073
G1 X4.1759 Y2.1165
G1 X4.1913 Y2.1606
G1 X4.205 Y2.2052
G1 X4.2171 Y2.2503
G1 X4.2276 Y2.2958
G1 X4.2364 Y2.3416
G1 X4.2435 Y2.3878
G1 X4.249 Y2.4342
G1 X4.2527 Y2.4807
G1 X4.2548 Y2.5274
G1 X4.2551 Y2.574
G1 X4.2537 Y2.6207
G1 X4.2506 Y2.6673
G1 X4.2457 Y2.7137
G1 X4.2392 Y2.76
G1 X4.231 Y2.8059
G1 X4.2211 Y2.8516
G1 X4.2096 Y2.8968
G1 X4.1964 Y2.9416
G1 X4.1815 Y2.9859
G1 X4.165 Y3.0295
G1 X4.1469 Y3.0726
G1 X4.1272 Y3.1149
G1 X4.106 Y3.1565
G1 X4.0833 Y3.1973
G1 X4.0591 Y3.2373
G1 X4.0335 Y3.2763
G1 X4.0065 Y3.3144
G1 X3.978 Y3.3514
G1 X3.9482 Y3.3873
G1 X3.9171 Y3.4221
G1 X3.8847 Y3.4558
G1 X3.8512 Y3.4882
G1 X3.8164 Y3.5195
G1 X3.7806 Y3.5494
G1 X3.7437 Y3.578
G1 X3.7058 Y3.6052
G1 X3.6669 Y3.6311
G1 X3.627 Y3.6554
G1 X3.5864 Y3.6783
G1 X3.5449 Y3.6997
G1 X3.5026 Y3.7196
G1 X3.4597 Y3.738
G1 X3.4161 Y3.7547
G1 X3.372 Y3.77
G1 X3.3273 Y3.7836
G1 X3.2822 Y3.7956
G1 X3.2366 Y3.8059
G1 X3.1908 Y3.8146
G1 X3.1446 Y3.8216
G1 X3.0982 Y3.8269
G1 X3.0517 Y3.8306
G1 X3.005 Y3.8327
G1 X2.9583 Y3.833
G1 X2.9117 Y3.8318
G1 X2.8651 Y3.8288
G1 X2.8186 Y3.8242
G1 X2.7723 Y3.8179
G1 X2.7263 Y3.8099
G1 X2.6806 Y3.8003
G1 X2.6353 Y3.7891
G1 X2.5904 Y3.7763
G1 X2.546 Y3.762
G1 X2.5021 Y3.7461
G1 X2.4588 Y3.7286
G1 X2.4161 Y3.7096
G1 X2.3742 Y3.6891
G1 X2.333 Y3.6671
G1 X2.2926 Y3.6437
G1 X2.253 Y3.6189
G1 X2.2144 Y3.5927
G1 X2.1766 Y3.5652
G1 X2.1399 Y3.5364
G1 X2.1042 Y3.5063
G1 X2.0696 Y3.475
G1 X2.0361 Y3.4424
G1 X2.0038 Y3.4087
G1 X1.9727 Y3.3739
G1 X1.9428 Y3.338
G1 X1.9142 Y3.3011
G1 X1.8868 Y3.2633
G1 X1.8609 Y3.2245
G1 X1.8362 Y3.1848
G1 X1.813 Y3.1443
G1 X1.7912 Y3.103
G1 X1.7709 Y3.061
G1 X1.7521 Y3.0182
G1 X1.7347 Y2.9749
G1 X1.7189 Y2.931
G1 X1.7046 Y2.8865
G1 X1.6918 Y2.8416
G1 X1.6806 Y2.7963
G1 X1.671 Y2.7506
G1 X1.6629 Y2.7046
G1 X1.6565 Y2.6583
G1 X1.6518 Y2.6119
G1 X1.6486 Y2.5653
G1 X1.647 Y2.5186
G1 X1.6471 Y2.4719
G1 X1.6487 Y2.4253
G1 X1.652 Y2.3787
G1 X1.6569 Y2.3323
G1 X1.6633 Y2.286
G1 X1.6714 Y2.24
G1 X1.6811 Y2.1944
G1 X1.6923 Y2.1491
G1 X1.7052 Y2.1042
G1 X1.7195 Y2.0597
G1 X1.7354 Y2.0158
G1 X1.7528 Y1.9725
G1 X1.7716 Y1.9298
G1 X1.7919 Y1.8877
G1 X1.8137 Y1.8464
G1 X1.8369 Y1.8059
G1 X1.8615 Y1.7662
G1 X1.8874 Y1.7274
G1 X1.9147 Y1.6895
G1 X1.9432 Y1.6525
G1 X1.973 Y1.6166
G1 X2.0041 Y1.5817
G1 X2.0363 Y1.5479
G1 X2.0696 Y1.5152
G1 X2.1041 Y1.4837
G1 X2.1396 Y1.4534
G1 X2.1762 Y1.4244
G1 X2.2137 Y1.3966
G1 X2.2522 Y1.3702
G1 X2.2916 Y1.345
G1 X2.3318 Y1.3213
G1 X2.3728 Y1.2989
G1 X2.4145 Y1.278
G1 X2.4569 Y1.2585
G1 X2.5 Y1.2405
G1 X2.5437 Y1.224
G1 X2.5879 Y1.2091
G1 X2.6326 Y1.1957
G1 X2.6778 Y1.1838
G1 X2.7233 Y1.1734
G1 X2.7692 Y1.1647
G1 X2.8153 Y1.1575
G1 X2.8617 Y1.1519
G1 X2.9082 Y1.1479
G1 X2.9548 Y1.1455
G1 X3.0015 Y1.1448
G1 X3.0482 Y1.1456
G1 X3.0948 Y1.1481
G1 X3.1413 Y1.1521
G1 X3.1877 Y1.1577
G1 X3.2338 Y1.1649
G1 X3.2797 Y1.1737
G1 X3.3252 Y1.184
G1 X3.3704 Y1.1959
G1 X3.4151 Y1.2093
G1 X3.4594 Y1.2242
G1 X3.5031 Y1.2406
G1 X3.5462 Y1.2585
G1 X3.5887 Y1.2778
G1 X3.6305 Y1.2986
G1 X3.6717 Y1.3207
G1 X3.712 Y1.3441
G1 X3.7516 Y1.3689
G1 X3.7903 Y1.395
G1 X3.8281 Y1.4224
G1 X3.865 Y1.4511
G1 X3.9009 Y1.4809
G1 X3.9358 Y1.5119
G1 X3.9697 Y1.5441
G1 X4.0025 Y1.5773
G1 X4.0342 Y1.6116
G1 X4.0647 Y1.6469
G1 X4.0941 Y1.6832
G1 X4.1223 Y1.7204
G1 X4.1492 Y1.7586
G1 X4.1748 Y1.7976
G1 X4.1992 Y1.8375
G1 X4.2222 Y1.8781
G1 X4.2439 Y1.9194
G1 X4.2642 Y1.9614
G1 X4.2832 Y2.0041
G1 X4.3008 Y2.0474
G1 X4.3169 Y2.0912
G1 X4.3316 Y2.1355
G1 X4.3448 Y2.1803
G1 X4.3565 Y2.2255
G1 X4.3667 Y2.271
G1 X4.3755 Y2.3169
G1 X4.3827 Y2.363
G1 X4.3884 Y2.4094
G1 X4.3926 Y2.4559
G1 X4.3953 Y2.5025
G1 X4.3964 Y2.5492
G1 X4.396 Y2.5959
G1 X4.394 Y2.6425
G1 X4.3904 Y2.6891
G1 X4.3854 Y2.7355
G1 X4.3787 Y2.7817
G1 X4.3706 Y2.8277
G1 X4.361 Y2.8734
G1 X4.3499 Y2.9187
G1 X4.3373 Y2.9637
G1 X4.3232 Y3.0082
G1 X4.3076 Y3.0522
G1 X4.2906 Y3.0957
G1 X4.2721 Y3.1386
G1 X4.2522 Y3.1808
G1 X4.2309 Y3.2224
G1 X4.2083 Y3.2632
G1 X4.1844 Y3.3033
G1 X4.1591 Y3.3426
G1 X4.1326 Y3.381
G1 X4.1048 Y3.4185
G1 X4.0757 Y3.4551
G1 X4.0455 Y3.4907
G1 X4.0141 Y3.5252
G1 X3.9816 Y3.5587
G1 X3.9479 Y3.5911
G1 X3.9133 Y3.6224
G1 X3.8776 Y3.6525
G1 X3.841 Y3.6815
G1 X3.8034 Y3.7092
G1 X3.765 Y3.7357
G1 X3.7257 Y3.7609
G1 X3.6856 Y3.7848
G1 X3.6447 Y3.8074
G1 X3.6031 Y3.8285
G1 X3.5608 Y3.8484
G1 X3.5179 Y3.8668
G1 X3.4744 Y3.8838
G1 X3.4304 Y3.8995
G1 X3.3859 Y3.9137
G1 X3.341 Y3.9264
G1 X3.2957 Y3.9377
G1 X3.25 Y3.9474
G1 X3.2041 Y3.9557
G1 X3.1579 Y3.9624
G1 X3.1115 Y3.9677
G1 X3.0649 Y3.9714
G1 X3.0183 Y3.9737
G1 X2.9716 Y3.9745
G1 X2.9249 Y3.9738
G1 X2.8783 Y3.9715
G1 X2.8318 Y3.9678
G1 X2.7854 Y3.9626
G1 X2.7392 Y3.9558
G1 X2.6932 Y3.9476
G1 X2.6475 Y3.9379
G1 X2.6022 Y3.9267
G1 X2.5572 Y3.9141
G1 X2.5127 Y3.9001
G1 X2.4686 Y3.8846
G1 X2.4251 Y3.8678
G1 X2.3821 Y3.8496
G1 X2.3397 Y3.83
G1 X2.298 Y3.8091
G1 X2.2569 Y3.7868
G1 X2.2166 Y3.7632
G1 X2.1771 Y3.7383
G1 X2.1384 Y3.7123
G1 X2.1005 Y3.685
G1 X2.0635 Y3.6565
G1 X2.0274 Y3.6269
G1 X1.9922 Y3.5962
G1 X1.9581 Y3.5643
G1 X1.925 Y3.5314
G1 X1.893 Y3.4974
G1 X1.8621 Y3.4624
G1 X1.8322 Y3.4265
G1 X1.8036 Y3.3896
G1 X1.7761 Y3.3519
G1 X1.7498 Y3.3133
G1 X1.7247 Y3.2739
G1 X1.7008 Y3.2338
G1 X1.6783 Y3.1929
G1 X1.6571 Y3.1513
G1 X1.6372 Y3.1091
G1 X1.6186 Y3.0662
G1 X1.6014 Y3.0228
G1 X1.5856 Y2.9789
G1 X1.5712 Y2.9345
G1 X1.5581 Y2.8896
G1 X1.5465 Y2.8444
G1 X1.5362 Y2.7989
G1 X1.5274 Y2.753
G1 X1.5201 Y2.7069
G1 X1.5142 Y2.6606
G1 X1.5098 Y2.6141
G1 X1.5069 Y2.5675
G1 X1.5054 Y2.5208
G1 Y2.4741
G1 X1.5068 Y2.4275
G1 X1.5097 Y2.3809
G1 X1.514 Y2.3344
G1 X1.5198 Y2.288
G1 X1.527 Y2.2419
G1 X1.5357 Y2.196
G1 X1.5459 Y2.1505
G1 X1.5574 Y2.1052
G1 X1.5704 Y2.0604
G1 X1.5848 Y2.016
G1 X1.6005 Y1.972
G1 X1.6176 Y1.9286
G1 X1.6361 Y1.8857
G1 X1.6558 Y1.8433
G1 X1.6769 Y1.8017
G1 X1.6993 Y1.7607
G1 X1.7229 Y1.7205
G1 X1.7479 Y1.681
G1 X1.774 Y1.6423
G1 X1.8014 Y1.6044
G1 X1.8299 Y1.5675
G1 X1.8595 Y1.5314
G1 X1.8902 Y1.4962
G1 X1.9221 Y1.4621
G1 X1.9549 Y1.4289
G1 X1.9888 Y1.3968
G1 X2.0237 Y1.3657
G1 X2.0595 Y1.3358
G1 X2.0963 Y1.3071
G1 X2.134 Y1.2794
G1 X2.1725 Y1.253
G1 X2.2118 Y1.2278
G1 X2.2518 Y1.2038
G1 X2.2926 Y1.1811
G1 X2.3341 Y1.1596
G1 X2.3762 Y1.1394
G1 X2.4189 Y1.1206
G1 X2.4622 Y1.1031
G1 X2.506 Y1.0871
G1 X2.5504 Y1.0723
G1 X2.5951 Y1.059
G1 X2.6403 Y1.0471
G1 X2.6857 Y1.0366
G1 X2.7315 Y1.0275
G1 X2.7776 Y1.0198
G1 X2.8239 Y1.0135
G1 X2.8703 Y1.0087
G1 X2.9169 Y1.0054
G1 X2.9635 Y1.0035
G1 X3.0102 Y1.0031
G1 X3.0569 Y1.0041
G1 X3.1035 Y1.0066
G1 X3.1501 Y1.0105
G1 X3.1964 Y1.0159
G1 X3.2426 Y1.0227
G1 X3.2886 Y1.0309
G1 X3.3343 Y1.0405
G1 X3.3797 Y1.0515
G1 X3.4247 Y1.0639
G1 X3.4693 Y1.0778
G1 X3.5134 Y1.093
G1 X3.5571 Y1.1095
G1 X3.6002 Y1.1274
G1 X3.6428 Y1.1465
G1 X3.6848 Y1.167
G1 X3.7261 Y1.1887
G1 X3.7668 Y1.2116
G1 X3.8067 Y1.2358
G1 X3.8459 Y1.2611
G1 X3.8844 Y1.2877
G1 X3.9219 Y1.3154
G1 X3.9586 Y1.3442
G1 X3.9945 Y1.3742
G1 X4.0294 Y1.4052
G1 X4.0634 Y1.4372
G1 X4.0964 Y1.4702
G1 X4.1284 Y1.5042
G1 X4.1595 Y1.5391
G1 X4.1894 Y1.5749
G1 X4.2183 Y1.6116
G1 X4.246 Y1.6491
G1 X4.2726 Y1.6875
G1 X4.298 Y1.7267
G1 X4.3223 Y1.7666
G1 X4.3453 Y1.8072
G1 X4.3672 Y1.8485
G1 X4.3878 Y1.8904
G1 X4.4072 Y1.9328
G1 X4.4253 Y1.9759
G1 X4.4421 Y2.0194
G1 X4.4576 Y2.0635
G1 X4.4718 Y2.108
G1 X4.4846 Y2.1529
G1 X4.496 Y2.1981
G1 X4.5061 Y2.2437
G1 X4.5149 Y2.2896
G1 X4.5222 Y2.3357
G1 X4.5283 Y2.382
G1 X4.5329 Y2.4285
G1 X4.5361 Y2.475
G1 X4.538 Y2.5217
G1 X4.5384 Y2.5684
G1 X4.5375 Y2.6151
G1 X4.5351 Y2.6617
G1 X4.5313 Y2.7082
G1 X4.5261 Y2.7546
G1 X4.5195 Y2.8009
G1 X4.5115 Y2.8469
G1 X4.5022 Y2.8926
G1 X4.4915 Y2.9381
G1 X4.4795 Y2.9832
G1 X4.4661 Y3.0279
G1 X4.4514 Y3.0722
G1 X4.4353 Y3.1161
G1 X4.4179 Y3.1594
G1 X4.3992 Y3.2022
G1 X4.3792 Y3.2444
G1 X4.3579 Y3.2859
G1 X4.3355 Y3.3269
G1 X4.3118 Y3.3671
G1 X4.2869 Y3.4066
G1 X4.2609 Y3.4454
G1 X4.2337 Y3.4833
G1 X4.2054 Y3.5205
G1 X4.1759 Y3.5567
G1 X4.1454 Y3.592
G1 X4.1138 Y3.6264
G1 X4.0812 Y3.6598
G1 X4.0476 Y3.6923
G1 X4.0131 Y3.7237
G1 X3.9777 Y3.7541
G1 X3.9413 Y3.7834
G1 X3.9041 Y3.8117
G1 X3.8661 Y3.8388
G1 X3.8273 Y3.8647
G1 X3.7877 Y3.8895
G1 X3.7474 Y3.913
G1 X3.7064 Y3.9354
G1 X3.6648 Y3.9565
G1 X3.6225 Y3.9764
G1 X3.5797 Y3.995
G1 X3.5363 Y4.0123
G1 X3.4925 Y4.0284
G1 X3.4482 Y4.0431
G1 X3.4035 Y4.0566
G1 X3.3584 Y4.0687
G1 X3.3129 Y4.0794
G1 X3.2672 Y4.0888
G1 X3.2212 Y4.0968
G1 X3.175 Y4.1035
G1 X3.1286 Y4.1088
G1 X3.0821 Y4.1127
G1 X3.0355 Y4.1153
G1 X2.9888 Y4.1165
G1 X2.9421 Y4.1164
G1 X2.8954 Y4.1149
G1 X2.8488 Y4.112
G1 X2.8023 Y4.1077
G1 X2.756 Y4.1021
G1 X2.7098 Y4.0951
G1 X2.6639 Y4.0867
G1 X2.6182 Y4.077
G1 X2.5728 Y4.066
G1 X2.5278 Y4.0536
G1 X2.4831 Y4.04
G1 X2.4389 Y4.0251
G1 X2.3951 Y4.0089
G1 X2.3518 Y3.9914
G1 X2.309 Y3.9727
G1 X2.2668 Y3.9527
G1 X2.2252 Y3.9315
G1 X2.1843 Y3.9091
G1 X2.144 Y3.8855
G1 X2.1044 Y3.8607
G1 X2.0655 Y3.8348
G1 X2.0274 Y3.8079
G1 X1.9901 Y3.7798
G1 X1.9536 Y3.7507
G1 X1.918 Y3.7205
G1 X1.8832 Y3.6893
G1 X1.8494 Y3.6571
G1 X1.8166 Y3.6239
G1 X1.7847 Y3.5898
G1 X1.7538 Y3.5548
G1 X1.724 Y3.5189
G1 X1.6952 Y3.4821
G1 X1.6674 Y3.4446
G1 X1.6407 Y3.4063
G1 X1.6151 Y3.3672
G1 X1.5907 Y3.3274
G1 X1.5674 Y3.287
G1 X1.5453 Y3.2458
G1 X1.5245 Y3.2041
G1 X1.5048 Y3.1617
G1 X1.4864 Y3.1188
G1 X1.4692 Y3.0754
G1 X1.4532 Y3.0315
G1 X1.4385 Y2.9872
G1 X1.4251 Y2.9425
G1 X1.4129 Y2.8974
G1 X1.402 Y2.852
G1 X1.3925 Y2.8063
G1 X1.3842 Y2.7603
G1 X1.3774 Y2.7142
G1 X1.3718 Y2.6678
G1 X1.3676 Y2.6213
G1 X1.3647 Y2.5747
G1 X1.3632 Y2.528
G1 X1.3629 Y2.4813
G1 X1.364 Y2.4347
G1 X1.3664 Y2.388
G1 X1.3702 Y2.3415
G1 X1.3752 Y2.2951
G1 X1.3816 Y2.2488
G1 X1.3894 Y2.2028
G1 X1.3984 Y2.157
G1 X1.4088 Y2.1114
G1 X1.4205 Y2.0662
G1 X1.4335 Y2.0214
G1 X1.4477 Y1.9769
G1 X1.4632 Y1.9329
G1 X1.4799 Y1.8893
G1 X1.4979 Y1.8462
G1 X1.517 Y1.8036
G1 X1.5374 Y1.7616
G1 X1.559 Y1.7202
G1 X1.5817 Y1.6794
G1 X1.6057 Y1.6393
G1 X1.6308 Y1.5999
G1 X1.6569 Y1.5613
G1 X1.6842 Y1.5234
G1 X1.7126 Y1.4863
G1 X1.7419 Y1.45
G1 X1.7723 Y1.4145
G1 X1.8037 Y1.38
G1 X1.8361 Y1.3463
G1 X1.8693 Y1.3135
G1 X1.9036 Y1.2818
G1 X1.9387 Y1.251
G1 X1.9747 Y1.2213
G1 X2.0116 Y1.1926
G1 X2.0492 Y1.165
G1 X2.0876 Y1.1385
G1 X2.1268 Y1.113
G1 X2.1666 Y1.0887
G1 X2.2071 Y1.0655
G1 X2.2483 Y1.0434
G1 X2.2901 Y1.0226
G1 X2.3324 Y1.0029
G1 X2.3753 Y0.9845
G1 X2.4188 Y0.9673
G1 X2.4626 Y0.9514
G1 X2.507 Y0.9367
G1 X2.5517 Y0.9233
G1 X2.5968 Y0.9112
G1 X2.6422 Y0.9004
G1 X2.6879 Y0.8908
G1 X2.7339 Y0.8825
G1 X2.78 Y0.8755
G1 X2.8264 Y0.8699
G1 X2.8729 Y0.8656
G1 X2.9195 Y0.8626
G1 X2.9661 Y0.861
G1 X3.0128 Y0.8607
G1 X3.0595 Y0.8617
G1 X3.1061 Y0.8641
G1 X3.1527 Y0.8677
G1 X3.1991 Y0.8727
G1 X3.2454 Y0.8789
G1 X3.2915 Y0.8865
G1 X3.3373 Y0.8953
G1 X3.3829 Y0.9055
G1 X3.4281 Y0.9169
G1 X3.4731 Y0.9297
G1 X3.5176 Y0.9437
G1 X3.5617 Y0.9589
G1 X3.6054 Y0.9754
G1 X3.6486 Y0.9931
G1 X3.6914 Y1.012
G1 X3.7335 Y1.032
G1 X3.7751 Y1.0532
G1 X3.8161 Y1.0755
G1 X3.8565 Y1.099
G1 X3.8962 Y1.1236
G1 X3.9352 Y1.1493
G1 X3.9734 Y1.1761
G1 X4.0109 Y1.2039
G1 X4.0476 Y1.2328
G1 X4.0835 Y1.2626
G1 X4.1186 Y1.2935
G1 X4.1528 Y1.3252
G1 X4.1861 Y1.3579
G1 X4.2186 Y1.3915
G1 X4.2501 Y1.426
G1 X4.2806 Y1.4613
G1 X4.3102 Y1.4974
G1 X4.3388 Y1.5343
G1 X4.3663 Y1.5721
G1 X4.3927 Y1.6105
G1 X4.4181 Y1.6497
G1 X4.4425 Y1.6896
G1 X4.4657 Y1.73
G1 X4.4879 Y1.7712
G1 X4.5089 Y1.8129
G1 X4.5288 Y1.8551
G1 X4.5475 Y1.8979
G1 X4.5651 Y1.9411
G1 X4.5814 Y1.9849
G1 X4.5965 Y2.029
G1 X4.6104 Y2.0736
G1 X4.6231 Y2.1186
G1 X4.6345 Y2.1638
G1 X4.6447 Y2.2094
G1 X4.6537 Y2.2552
G1 X4.6614 Y2.3013
G1 X4.6678 Y2.3475
G1 X4.673 Y2.3939
G1 X4.677 Y2.4404
G1 X4.6796 Y2.4871
G1 X4.681 Y2.5337
G1 Y2.5804
G1 X4.6797 Y2.6271
G1 X4.6772 Y2.6737
G1 X4.6734 Y2.7203
G1 X4.6683 Y2.7667
G1 X4.6619 Y2.8129
G1 X4.6543 Y2.859
G1 X4.6455 Y2.9048
G1 X4.6353 Y2.9504
G1 X4.624 Y2.9957
G1 X4.6114 Y3.0407
G1 X4.5975 Y3.0853
G1 X4.5824 Y3.1294
G1 X4.5661 Y3.1732
G1 X4.5486 Y3.2165
G1 X4.5299 Y3.2592
G1 X4.51 Y3.3015
G1 X4.489 Y3.3432
G1 X4.4668 Y3.3843
G1 X4.4436 Y3.4248
G1 X4.4192 Y3.4646
G1 X4.3938 Y3.5038
G1 X4.3673 Y3.5422
G1 X4.3397 Y3.5799
G1 X4.3111 Y3.6168
G1 X4.2814 Y3.6529
G1 X4.2508 Y3.6881
G1 X4.2192 Y3.7225
G1 X4.1867 Y3.756
G1 X4.1533 Y3.7887
G1 X4.1191 Y3.8204
G1 X4.0839 Y3.8511
G1 X4.048 Y3.8809
G1 X4.0113 Y3.9097
G1 X3.9737 Y3.9375
G1 X3.9354 Y3.9643
G1 X3.8964 Y3.9899
G1 X3.8567 Y4.0145
G1 X3.8164 Y4.0379
G1 X3.7754 Y4.0603
G1 X3.7338 Y4.0815
G1 X3.6916 Y4.1016
G1 X3.649 Y4.1206
G1 X3.6058 Y4.1384
G1 X3.5622 Y4.155
G1 X3.5181 Y4.1705
G1 X3.4737 Y4.1847
G1 X3.4288 Y4.1978
G1 X3.3836 Y4.2095
G1 X3.3381 Y4.22
G1 X3.2924 Y4.2293
G1 X3.2464 Y4.2373
G1 X3.2002 Y4.2441
G1 X3.1538 Y4.2497
G1 X3.1073 Y4.254
G1 X3.0607 Y4.2571
G1 X3.0141 Y4.2589
G1 X2.9674 Y4.2595
G1 X2.9207 Y4.2588
G1 X2.8741 Y4.2568
G1 X2.8275 Y4.2536
G1 X2.781 Y4.249
G1 X2.7347 Y4.2433
G1 X2.6885 Y4.2363
G1 X2.6426 Y4.228
G1 X2.5968 Y4.2185
G1 X2.5514 Y4.2079
G1 X2.5062 Y4.196
G1 X2.4614 Y4.1829
G1 X2.4169 Y4.1687
G1 X2.3729 Y4.1532
G1 X2.3293 Y4.1366
G1 X2.2861 Y4.1188
G1 X2.2434 Y4.0998
G1 X2.2013 Y4.0797
G1 X2.1597 Y4.0584
G1 X2.1187 Y4.0361
G1 X2.0783 Y4.0127
G1 X2.0386 Y3.9882
G1 X1.9995 Y3.9627
G1 X1.961 Y3.9361
G1 X1.9233 Y3.9086
G1 X1.8864 Y3.8801
G1 X1.8502 Y3.8506
G1 X1.8148 Y3.8201
G1 X1.7803 Y3.7887
G1 X1.7466 Y3.7563
G1 X1.7138 Y3.7231
G1 X1.6818 Y3.689
G1 X1.6508 Y3.6541
G1 X1.6208 Y3.6184
G1 X1.5916 Y3.5819
G1 X1.5635 Y3.5447
G1 X1.5363 Y3.5067
G1 X1.5101 Y3.4681
G1 X1.4849 Y3.4287
G1 X1.4609 Y3.3887
G1 X1.4379 Y3.3481
G1 X1.416 Y3.3068
G1 X1.3952 Y3.265
G1 X1.3755 Y3.2227
G1 X1.357 Y3.1798
G1 X1.3395 Y3.1365
G1 X1.3233 Y3.0928
G1 X1.3081 Y3.0486
G1 X1.2941 Y3.0041
G1 X1.2813 Y2.9592
G1 X1.2697 Y2.9139
G1 X1.2592 Y2.8684
G1 X1.2501 Y2.8226
G1 X1.2421 Y2.7766
G1 X1.2353 Y2.7304
G1 X1.2298 Y2.6841
G1 X1.2255 Y2.6376
G1 X1.2224 Y2.591
G1 X1.2206 Y2.5443
G1 X1.2199 Y2.4976
G1 X1.2205 Y2.451
G1 X1.2222 Y2.4043
G1 X1.2252 Y2.3577
G1 X1.2295 Y2.3112
G1 X1.2349 Y2.2648
G1 X1.2416 Y2.2186
G1 X1.2496 Y2.1726
G1 X1.2587 Y2.1268
G1 X1.2691 Y2.0813
G1 X1.2806 Y2.036
G1 X1.2933 Y1.9911
G1 X1.3072 Y1.9465
G1 X1.3222 Y1.9023
G1 X1.3384 Y1.8585
G1 X1.3557 Y1.8152
G1 X1.3741 Y1.7723
G1 X1.3937 Y1.7299
G1 X1.4144 Y1.688
G1 X1.4362 Y1.6467
G1 X1.459 Y1.606
G1 X1.483 Y1.5659
G1 X1.508 Y1.5265
G1 X1.534 Y1.4877
G1 X1.561 Y1.4496
G1 X1.589 Y1.4123
G1 X1.6179 Y1.3756
G1 X1.6478 Y1.3398
G1 X1.6786 Y1.3047
G1 X1.7104 Y1.2704
G1 X1.743 Y1.237
G1 X1.7765 Y1.2045
G1 X1.8109 Y1.1729
G1 X1.8461 Y1.1422
G1 X1.882 Y1.1124
G1 X1.9188 Y1.0836
G1 X1.9563 Y1.0558
G1 X1.9944 Y1.0289
G1 X2.0333 Y1.003
G1 X2.0728 Y0.9782
G1 X2.113 Y0.9544
G1 X2.1538 Y0.9316
G1 X2.1951 Y0.9099
G1 X2.2371 Y0.8894
G1 X2.2795 Y0.87
G1 X2.3225 Y0.8517
G1 X2.3659 Y0.8345
G1 X2.4098 Y0.8185
G1 X2.454 Y0.8036
G1 X2.4986 Y0.7899
G1 X2.5436 Y0.7773
G1 X2.5889 Y0.7659
G1 X2.6344 Y0.7557
G1 X2.6803 Y0.7466
G1 X2.7263 Y0.7388
G1 X2.7725 Y0.7322
G1 X2.8189 Y0.7269
G1 X2.8654 Y0.7228
G1 X2.912 Y0.7199
G1 X2.9587 Y0.7182
G1 X3.0054 Y0.7177
G1 X3.052 Y0.7184
G1 X3.0987 Y0.7204
G1 X3.1453 Y0.7235
G1 X3.1918 Y0.7279
G1 X3.2381 Y0.7334
G1 X3.2843 Y0.7402
G1 X3.3303 Y0.7481
G1 X3.3761 Y0.7573
G1 X3.4216 Y0.7677
G1 X3.4669 Y0.7792
G1 X3.5118 Y0.792
G1 X3.5564 Y0.8059
G1 X3.6006 Y0.8209
G1 X3.6444 Y0.8371
G1 X3.6878 Y0.8543
G1 X3.7307 Y0.8727
G1 X3.7731 Y0.8922
G1 X3.8151 Y0.9127
G1 X3.8565 Y0.9343
G1 X3.8973 Y0.957
G1 X3.9375 Y0.9807
G1 X3.9771 Y1.0055
G1 X4.016 Y1.0312
G1 X4.0543 Y1.058
G1 X4.0919 Y1.0857
G1 X4.1287 Y1.1144
G1 X4.1649 Y1.1439
G1 X4.2002 Y1.1744
G1 X4.2348 Y1.2058
G1 X4.2686 Y1.238
G1 X4.3016 Y1.271
G1 X4.3337 Y1.3049
G1 X4.365 Y1.3396
G1 X4.3953 Y1.3751
G1 X4.4248 Y1.4114
G1 X4.4532 Y1.4483
G1 X4.4808 Y1.486
G1 X4.5074 Y1.5244
G1 X4.533 Y1.5634
G1 X4.5577 Y1.6031
G1 X4.5813 Y1.6434
G1 X4.6039 Y1.6842
G1 X4.6255 Y1.7256
G1 X4.6461 Y1.7675
G1 X4.6656 Y1.8099
G1 X4.684 Y1.8529
G1 X4.7013 Y1.8962
G1 X4.7175 Y1.94
G1 X4.7325 Y1.9842
G1 X4.7465 Y2.0288
G1 X4.7593 Y2.0737
G1 X4.771 Y2.1189
G1 X4.7815 Y2.1644
G1 X4.7909 Y2.2101
G1 X4.7992 Y2.2561
G1 X4.8063 Y2.3022
G1 X4.8123 Y2.3485
G1 X4.8171 Y2.395
G1 X4.8206 Y2.4415
G1 X4.823 Y2.4882
G1 X4.8242 Y2.5348
G1 Y2.5815
G1 X4.823 Y2.6282
G1 X4.8206 Y2.6748
G1 X4.8171 Y2.7214
G1 X4.8124 Y2.7678
G1 X4.8065 Y2.8142
G1 X4.7994 Y2.8603
G1 X4.7912 Y2.9063
G1 X4.7819 Y2.952
G1 X4.7714 Y2.9975
G1 X4.7597 Y3.0427
G1 X4.7468 Y3.0876
G1 X4.7328 Y3.1322
G1 X4.7177 Y3.1763
G1 X4.7015 Y3.2201
G1 X4.6841 Y3.2635
G1 X4.6657 Y3.3064
G1 X4.6462 Y3.3488
G1 X4.6256 Y3.3907
G1 X4.604 Y3.4321
G1 X4.5813 Y3.4729
G1 X4.5576 Y3.5131
G1 X4.5329 Y3.5528
G1 X4.5072 Y3.5917
G1 X4.4805 Y3.63
G1 X4.4528 Y3.6676
G1 X4.4242 Y3.7045
G1 X4.3946 Y3.7407
G1 X4.3642 Y3.7761
G1 X4.3328 Y3.8107
G1 X4.3006 Y3.8445
G1 X4.2676 Y3.8775
G1 X4.2337 Y3.9096
G1 X4.1991 Y3.9409
G1 X4.1637 Y3.9713
G1 X4.1275 Y4.0008
G1 X4.0905 Y4.0294
G1 X4.0529 Y4.057
G1 X4.0145 Y4.0836
G1 X3.9755 Y4.1093
G1 X3.9359 Y4.134
G1 X3.8956 Y4.1576
G1 X3.8548 Y4.1803
G1 X3.8134 Y4.2019
G1 X3.7715 Y4.2225
G1 X3.7291 Y4.242
G1 X3.6862 Y4.2605
G1 X3.6429 Y4.2778
G1 X3.6182 Y4.287
G1 X3.6083 Y4.29
G1 X3.5981 Y4.2919
G1 X3.5877 Y4.2925
G1 X3.2305
G1 X3.208 Y4.2936
G1 X3.1967 Y4.2945
G1 X3.1743 Y4.2989
G1 X3.163 Y4.3016
G1 X3.1393 Y4.3102
G1 X3.1293 Y4.3145
G1 X3.1068 Y4.3248
G1 X3.0956 Y4.3314
G1 X3.0862 Y4.3366
G1 X3.0605 Y4.3482
G1 X3.0286 Y4.3597
G1 X3.0061 Y4.3658
G1 X2.9922 Y4.3683
G1 X2.978 Y4.3686
G1 X2.9639 Y4.3666
G1 X2.9504 Y4.3624
G1 X2.9377 Y4.356
G1 X2.9262 Y4.3476
G3 X2.9457 Y4.2831 I0.0254 J-0.0276
G1 X3.0687 Y4.2632
G3 X3.0956 Y4.3314 I0.006 J0.037
G1 X3.0936 Y4.3326
G1 X3.0781 Y4.3439
G1 X3.0731 Y4.3482
G1 X3.0618 Y4.3586
G1 X3.054 Y4.3664
G1 X3.0506 Y4.3702
G1 X3.0445 Y4.3776
G1 X3.0362 Y4.3889
G1 X3.0325 Y4.3935
G1 X3.0237 Y4.4005
G1 X3.0136 Y4.4051
G1 X3.0026 Y4.4071
G1 X2.9914 Y4.4063
G1 X2.9808 Y4.4028
G1 X2.9714 Y4.3969
G1 X2.9637 Y4.3888
G3 X2.9672 Y4.3352 I0.0359 J-0.0246
G3 X3.0362 Y4.3889 I0.0326 J0.0293
G1 X3.0281 Y4.4001
G1 X3.0253 Y4.4029
G1 X3.0225 Y4.4053
G1 X3.0197 Y4.4072
G1 X3.0169 Y4.4087
G1 X3.0135 Y4.4102
G1 X3.0101 Y4.4114
G1 X3.0056 Y4.4123
G1 X3. Y4.4127
G1 X2.9944 Y4.4123
G1 X2.9899 Y4.4114
G1 X2.9865 Y4.4102
G1 X2.9831 Y4.4087
G1 X2.9803 Y4.4072
G1 X2.9775 Y4.4053
G1 X2.9747 Y4.4029
G1 X2.9719 Y4.4001
G1 X2.9674 Y4.3939
G1 Y4.3938
G1 X2.9654 Y4.3897
G1 X2.9631 Y4.3856
G1 X2.9611 Y4.3824
G1 X2.9587 Y4.3794
G1 X2.9495 Y4.3691
G1 X2.9402 Y4.3586
G1 X2.9376 Y4.3559
G1 X2.9346 Y4.3535
G1 X2.9309 Y4.3508
G1 X2.927 Y4.3483
G1 X2.9269 Y4.3482
G1 X2.9219 Y4.3439
G1 X2.9064 Y4.3326
G1 X2.9044 Y4.3314
G1 X2.8932 Y4.3248
G1 X2.8707 Y4.3145
G1 X2.8607 Y4.3102
G1 X2.837 Y4.3016
G1 X2.8257 Y4.2989
G1 X2.8033 Y4.2945
G1 X2.792 Y4.2936
G1 X2.7695 Y4.2925
G1 X2.4885
G1 X2.4418 Y4.2902
G1 X2.3954 Y4.2854
G1 X2.3495 Y4.277
G1 X2.3042 Y4.2657
G1 X2.2596 Y4.2519
G1 X2.2156 Y4.2362
G1 X2.1723 Y4.2186
G1 X2.1297 Y4.1995
G1 X2.0877 Y4.1791
G1 X2.0464 Y4.1573
G1 X2.0058 Y4.1344
G1 X1.9657 Y4.1103
G1 X1.9264 Y4.0852
G1 X1.8877 Y4.0591
G1 X1.8497 Y4.0319
G1 X1.8124 Y4.0038
G1 X1.7758 Y3.9748
G1 X1.74 Y3.9448
G1 X1.705 Y3.914
G1 X1.6707 Y3.8823
G1 X1.6372 Y3.8498
G1 X1.6046 Y3.8164
G1 X1.5727 Y3.7822
G1 X1.5418 Y3.7473
G1 X1.5117 Y3.7116
G1 X1.4824 Y3.6752
G1 X1.4541 Y3.6381
G1 X1.4267 Y3.6003
G1 X1.4002 Y3.5618
G1 X1.3747 Y3.5227
G1 X1.3501 Y3.483
G1 X1.3265 Y3.4427
G1 X1.3039 Y3.4019
G1 X1.2823 Y3.3605
G1 X1.2618 Y3.3185
G1 X1.2423 Y3.2761
G1 X1.2238 Y3.2332
G1 X1.2064 Y3.1899
G1 X1.19 Y3.1462
G1 X1.1747 Y3.1021
G1 X1.1604 Y3.0576
G1 X1.1473 Y3.0128
G1 X1.1352 Y2.9677
G1 X1.1243 Y2.9223
G1 X1.1144 Y2.8767
G1 X1.1057 Y2.8308
G1 X1.0981 Y2.7847
G1 X1.0917 Y2.7385
G1 X1.0864 Y2.6921
G1 X1.0822 Y2.6456
G1 X1.0792 Y2.599
G1 X1.0772 Y2.5523
G1 X1.0764 Y2.5057
G1 X1.0768 Y2.459
G1 X1.0782 Y2.4123
G1 X1.0808 Y2.3657
G1 X1.0845 Y2.3191
G1 X1.0894 Y2.2727
G1 X1.0954 Y2.2264
G1 X1.1025 Y2.1802
G1 X1.1108 Y2.1343
G1 X1.1202 Y2.0885
G1 X1.1307 Y2.0431
G1 X1.1423 Y1.9978
G1 X1.155 Y1.9529
G1 X1.1687 Y1.9083
G1 X1.1836 Y1.864
G1 X1.1995 Y1.8201
G1 X1.2164 Y1.7766
G1 X1.2344 Y1.7335
G1 X1.2535 Y1.6909
G1 X1.2736 Y1.6487
G1 X1.2947 Y1.6071
G1 X1.3168 Y1.566
G1 X1.3399 Y1.5254
G1 X1.364 Y1.4854
G1 X1.3891 Y1.446
G1 X1.4151 Y1.4073
G1 X1.4421 Y1.3691
G1 X1.4699 Y1.3317
G1 X1.4987 Y1.2949
G1 X1.5283 Y1.2588
G1 X1.5588 Y1.2234
G1 X1.5902 Y1.1888
G1 X1.6224 Y1.155
G1 X1.6553 Y1.122
G1 X1.6891 Y1.0897
G1 X1.7237 Y1.0584
G1 X1.759 Y1.0278
G1 X1.7951 Y0.9982
G1 X1.8319 Y0.9694
G1 X1.8693 Y0.9415
G1 X1.9074 Y0.9146
G1 X1.9462 Y0.8885
G1 X1.9856 Y0.8634
G1 X2.0255 Y0.8393
G1 X2.0661 Y0.8161
G1 X2.1072 Y0.7939
G1 X2.1488 Y0.7727
G1 X2.1909 Y0.7526
G1 X2.2335 Y0.7335
G1 X2.2765 Y0.7154
G1 X2.2814 Y0.7135
G1 X2.2917 Y0.7102
G1 X2.3024 Y0.7082
G1 X2.3133 Y0.7075
G1 X2.7695
G1 X2.792 Y0.7064
G1 X2.8033 Y0.7055
G1 X2.8257 Y0.7011
G1 X2.837 Y0.6984
G1 X2.8608 Y0.6898
G1 X2.8707 Y0.6855
G1 X2.8932 Y0.6752
G1 X2.9044 Y0.6686
G1 X2.9064 Y0.6674
G1 X2.9157 Y0.6606
G1 X2.9282 Y0.6524
G1 X2.9479 Y0.6417
G1 X2.9718 Y0.6311
G1 X2.9792 Y0.6285
G1 X2.9944 Y0.6246
G1 X3.0101 Y0.6235
G1 X3.0258 Y0.6253
G1 X3.0409 Y0.6298
G1 X3.0549 Y0.637
G1 X3.0674 Y0.6466
G3 X3.0472 Y0.7103 I-0.0263 J0.0267
G1 X2.9449 Y0.7272
G3 X2.9157 Y0.6606 I-0.0061 J-0.037
G1 X2.9219 Y0.6561
G1 X2.9269 Y0.6518
G1 X2.9382 Y0.6415
G1 X2.946 Y0.6336
G1 X2.9494 Y0.6298
G1 X2.9555 Y0.6224
G1 X2.9638 Y0.6111
G1 X2.9682 Y0.605
G1 X2.9694 Y0.6035
G1 X2.9701 Y0.6024
G1 X2.9725 Y0.5995
G1 X2.9736 Y0.5983
G1 X2.9747 Y0.5971
G3 X3.0039 Y0.5979 I0.014 J0.0183
G3 X2.9741 Y0.6323 I-0.0149 J0.0172
G3 X2.9701 Y0.6024 I0.0149 J-0.0172
G1 X2.972 Y0.5999
G1 X2.9747 Y0.5971
G1 X2.9775 Y0.5948
G1 X2.9803 Y0.5929
G1 X2.9831 Y0.5913
G1 X2.9866 Y0.5898
G1 X2.99 Y0.5886
G1 X2.9944 Y0.5877
G1 X3. Y0.5873
G1 X3.0056 Y0.5877
G1 X3.01 Y0.5886
G1 X3.0134 Y0.5898
G1 X3.0169 Y0.5913
G1 X3.0197 Y0.5929
G1 X3.0225 Y0.5948
G1 X3.0253 Y0.5971
G1 X3.0281 Y0.6
G1 X3.0362 Y0.6111
G1 X3.0445 Y0.6224
G1 X3.0506 Y0.6298
G1 X3.054 Y0.6336
G1 X3.0618 Y0.6415
G1 X3.0731 Y0.6518
G1 X3.0781 Y0.6561
G1 X3.0936 Y0.6674
G1 X3.0956 Y0.6686
G1 X3.1068 Y0.6752
G1 X3.1293 Y0.6855
G1 X3.1392 Y0.6898
G1 X3.163 Y0.6984
G1 X3.1743 Y0.7011
G1 X3.1967 Y0.7055
G1 X3.208 Y0.7064
G1 X3.2305 Y0.7075
G1 X3.5565
G1 X3.6031 Y0.7098
G1 X3.6263 Y0.7126
G1 X3.6724 Y0.7199
G1 X3.7178 Y0.7307
G1 X3.7625 Y0.7442
G1 X3.8065 Y0.7599
G1 X3.8498 Y0.7775
G1 X3.8923 Y0.7968
G1 X3.9341 Y0.8175
G1 X3.9753 Y0.8395
G1 X4.0158 Y0.8627
G1 X4.0556 Y0.8871
G1 X4.0948 Y0.9125
G1 X4.1333 Y0.939
G1 X4.1711 Y0.9664
G1 X4.2082 Y0.9947
G1 X4.2447 Y1.0239
G1 X4.2804 Y1.054
G1 X4.3154 Y1.0849
G1 X4.3496 Y1.1166
G1 X4.3831 Y1.1492
G1 X4.4158 Y1.1825
G1 X4.4477 Y1.2166
G1 X4.4787 Y1.2515
G1 X4.509 Y1.2871
G1 X4.5383 Y1.3234
G1 X4.5668 Y1.3603
G1 X4.5945 Y1.398
G1 X4.6212 Y1.4362
G1 X4.6471 Y1.4751
G1 X4.672 Y1.5146
G1 X4.696 Y1.5546
G1 X4.7191 Y1.5952
G1 X4.7413 Y1.6363
G1 X4.7624 Y1.6779
G1 X4.7826 Y1.72
G1 X4.8018 Y1.7626
G1 X4.82 Y1.8056
G1 X4.8371 Y1.8491
G1 X4.8532 Y1.8929
G1 X4.8683 Y1.9371
G1 X4.8823 Y1.9816
G1 X4.8953 Y2.0264
G1 X4.9073 Y2.0716
G1 X4.9182 Y2.117
G1 X4.9281 Y2.1626
G1 X4.9368 Y2.2085
G1 X4.9446 Y2.2545
G1 X4.9512 Y2.3007
G1 X4.9568 Y2.3471
G1 X4.9612 Y2.3936
G1 X4.9645 Y2.4402
G1 X4.9667 Y2.4868
G1 X4.9679 Y2.5335
G1 Y2.5802
G1 X4.9668 Y2.6269
G1 X4.9646 Y2.6735
G1 X4.9614 Y2.7201
G1 X4.9571 Y2.7666
G1 X4.9516 Y2.8129
G1 X4.9451 Y2.8592
G1 X4.9376 Y2.9053
G1 X4.9289 Y2.9511
G1 X4.9192 Y2.9968
G1 X4.9084 Y3.0422
G1 X4.8964 Y3.0874
G1 X4.8834 Y3.1322
G1 X4.8694 Y3.1767
G1 X4.8543 Y3.2209
G1 X4.8382 Y3.2647
G1 X4.8211 Y3.3082
G1 X4.8029 Y3.3512
G1 X4.7838 Y3.3938
G1 X4.7636 Y3.4359
G1 X4.7425 Y3.4776
G1 X4.7204 Y3.5187
G1 X4.6974 Y3.5593
G1 X4.6734 Y3.5994
G1 X4.6484 Y3.6388
G1 X4.6225 Y3.6777
G1 X4.5957 Y3.7159
G1 X4.568 Y3.7535
G1 X4.5394 Y3.7904
G1 X4.51 Y3.8267
G1 X4.4797 Y3.8622
G1 X4.4486 Y3.897
G1 X4.4167 Y3.9311
G1 X4.3841 Y3.9645
G1 X4.3506 Y3.9971
G1 X4.3164 Y4.0289
G1 X4.2815 Y4.0598
G1 X4.2458 Y4.09
G1 X4.2094 Y4.1192
G1 X4.1724 Y4.1476
G1 X4.1347 Y4.1752
G1 X4.0963 Y4.2018
G1 X4.0573 Y4.2275
G1 X4.0178 Y4.2523
G1 X3.9777 Y4.2762
G1 X3.9688 Y4.2812
G1 X3.9552 Y4.2874
G1 X3.9407 Y4.2912
G1 X3.9258 Y4.2925
G1 X3.5877
G3 X3.5606 Y4.2795 I0.0013 J-0.0375
G1 X3.5577 Y4.2761 Z-0.0597
G1 X3.5548 Y4.2727 Z-0.0589
G1 X3.5519 Y4.2694 Z-0.0576
G1 X3.5493 Y4.2663 Z-0.0557
G1 X3.5467 Y4.2634 Z-0.0534
G1 X3.5444 Y4.2607 Z-0.0506
G1 X3.5423 Y4.2582 Z-0.0474
G1 X3.5405 Y4.2561 Z-0.0438
G1 X3.539 Y4.2544 Z-0.0399
G1 X3.5377 Y4.2529 Z-0.0358
G1 X3.5369 Y4.2519 Z-0.0315
G1 X3.5363 Y4.2513 Z-0.027
G1 X3.5361 Y4.2511 Z-0.0225
G0 Z0.2
G0 X3.4946 Y0.7354
G0 Z0.015
G1 Z-0.0225 F11.
G1 X3.4948 Y0.7352 Z-0.027
G1 X3.4955 Y0.7348 Z-0.0315
G1 X3.4967 Y0.7341 Z-0.0358
G1 X3.4983 Y0.7332 Z-0.0399
G1 X3.5003 Y0.732 Z-0.0438
G1 X3.5027 Y0.7306 Z-0.0474
G1 X3.5054 Y0.7289 Z-0.0506
G1 X3.5085 Y0.7271 Z-0.0534
G1 X3.5118 Y0.7251 Z-0.0557
G1 X3.5154 Y0.723 Z-0.0576
G1 X3.5191 Y0.7208 Z-0.0589
G1 X3.5229 Y0.7185 Z-0.0597
G1 X3.5268 Y0.7162 Z-0.06
G3 X3.5565 Y0.7075 I0.0318 J0.0536
G1 X3.8825
G1 X3.9146 Y0.7091
G1 X3.9461 Y0.7132
G1 X3.9836 Y0.7213
G1 X4.0284 Y0.7347
G1 X4.0719 Y0.7516
G1 X4.1142 Y0.7713
G1 X4.1555 Y0.7932
G1 X4.1957 Y0.8169
G1 X4.235 Y0.8422
G1 X4.2733 Y0.8687
G1 X4.3109 Y0.8965
G1 X4.3476 Y0.9254
G1 X4.3835 Y0.9552
G1 X4.4187 Y0.9859
G1 X4.453 Y1.0176
G1 X4.4866 Y1.05
G1 X4.5194 Y1.0832
G1 X4.5514 Y1.1172
G1 X4.5826 Y1.1519
G1 X4.613 Y1.1874
G1 X4.6427 Y1.2234
G1 X4.6715 Y1.2602
G1 X4.6995 Y1.2975
G1 X4.7267 Y1.3355
G1 X4.753 Y1.374
G1 X4.7785 Y1.4132
G1 X4.8032 Y1.4528
G1 X4.827 Y1.493
G1 X4.8499 Y1.5337
G1 X4.8718 Y1.5749
G1 X4.8929 Y1.6166
G1 X4.913 Y1.6587
G1 X4.9322 Y1.7012
G1 X4.9505 Y1.7442
G1 X4.9678 Y1.7876
G1 X4.9842 Y1.8313
G1 X4.9996 Y1.8754
G1 X5.0141 Y1.9198
G1 X5.0276 Y1.9645
G1 X5.0401 Y2.0095
G1 X5.0517 Y2.0547
G1 X5.0622 Y2.1002
G1 X5.0718 Y2.1459
G1 X5.0803 Y2.1918
G1 X5.0879 Y2.2379
G1 X5.0944 Y2.2841
G1 X5.0999 Y2.3305
G1 X5.1044 Y2.3769
G1 X5.1078 Y2.4235
G1 X5.1103 Y2.4701
G1 X5.1117 Y2.5168
G1 X5.1121 Y2.5635
G1 X5.1114 Y2.6102
G1 X5.1098 Y2.6568
G1 X5.1072 Y2.7035
G1 X5.1035 Y2.75
G1 X5.0988 Y2.7965
G1 X5.0931 Y2.8428
G1 X5.0864 Y2.889
G1 X5.0787 Y2.9351
G1 X5.0699 Y2.9809
G1 X5.0602 Y3.0266
G1 X5.0494 Y3.072
G1 X5.0376 Y3.1172
G1 X5.0249 Y3.1621
G1 X5.0111 Y3.2067
G1 X4.9964 Y3.251
G1 X4.9807 Y3.295
G1 X4.9641 Y3.3387
G1 X4.9465 Y3.3819
G1 X4.928 Y3.4248
G1 X4.9086 Y3.4672
G1 X4.8882 Y3.5092
G1 X4.8669 Y3.5508
G1 X4.8447 Y3.5919
G1 X4.8216 Y3.6324
G1 X4.7976 Y3.6725
G1 X4.7727 Y3.712
G1 X4.7469 Y3.7509
G1 X4.7203 Y3.7893
G1 X4.6929 Y3.8271
G1 X4.6646 Y3.8643
G1 X4.6356 Y3.9008
G1 X4.6057 Y3.9367
G1 X4.5751 Y3.972
G1 X4.5438 Y4.0066
G1 X4.5116 Y4.0405
G1 X4.4788 Y4.0736
G1 X4.4452 Y4.1061
G1 X4.4109 Y4.1378
G1 X4.3759 Y4.1687
G1 X4.3403 Y4.1988
G1 X4.304 Y4.2282
G1 X4.267 Y4.2567
G1 X4.2418 Y4.2754
G1 X4.23 Y4.2827
G1 X4.2171 Y4.2881
G1 X4.2036 Y4.2914
G1 X4.1898 Y4.2925
G1 X3.9258
G3 X3.8987 Y4.2795 I0.0013 J-0.0375
G1 X3.8957 Y4.2761 Z-0.0597
G1 X3.8928 Y4.2727 Z-0.0589
G1 X3.89 Y4.2694 Z-0.0576
G1 X3.8873 Y4.2663 Z-0.0557
G1 X3.8848 Y4.2634 Z-0.0534
G1 X3.8825 Y4.2607 Z-0.0506
G1 X3.8804 Y4.2582 Z-0.0474
G1 X3.8785 Y4.2561 Z-0.0438
G1 X3.877 Y4.2544 Z-0.0399
G1 X3.8758 Y4.2529 Z-0.0358
G1 X3.8749 Y4.2519 Z-0.0315
G1 X3.8744 Y4.2513 Z-0.027
G1 X3.8742 Y4.2511 Z-0.0225
G0 Z0.2
G0 X3.8206 Y0.7354
G0 Z0.015
G1 Z-0.0225 F11.
G1 X3.8208 Y0.7352 Z-0.027
G1 X3.8215 Y0.7348 Z-0.0315
G1 X3.8227 Y0.7341 Z-0.0358
G1 X3.8243 Y0.7332 Z-0.0399
G1 X3.8263 Y0.732 Z-0.0438
G1 X3.8287 Y0.7306 Z-0.0474
G1 X3.8315 Y0.7289 Z-0.0506
G1 X3.8345 Y0.7271 Z-0.0534
G1 X3.8379 Y0.7251 Z-0.0557
G1 X3.8414 Y0.723 Z-0.0576
G1 X3.8451 Y0.7208 Z-0.0589
G1 X3.849 Y0.7185 Z-0.0597
G1 X3.8528 Y0.7162 Z-0.06
G3 X3.8825 Y0.7075 I0.0318 J0.0536
G1 X4.1411
G1 X4.1654 Y0.7087
G1 X4.1916 Y0.7122
G1 X4.2216 Y0.7186
G1 X4.257 Y0.7292
G1 X4.2987 Y0.7454
G1 X4.3407 Y0.7658
G1 X4.3813 Y0.789
G1 X4.4205 Y0.8144
G1 X4.4584 Y0.8415
G1 X4.4953 Y0.8702
G1 X4.5311 Y0.9002
G1 X4.5659 Y0.9313
G1 X4.5999 Y0.9633
G1 X4.6329 Y0.9963
G1 X4.6651 Y1.0301
G1 X4.6965 Y1.0647
G1 X4.727 Y1.1
G1 X4.7568 Y1.136
G1 X4.7857 Y1.1726
G1 X4.8139 Y1.2099
G1 X4.8412 Y1.2477
G1 X4.8678 Y1.2862
G1 X4.8935 Y1.3251
G1 X4.9184 Y1.3646
G1 X4.9425 Y1.4046
G1 X4.9658 Y1.4451
G1 X4.9882 Y1.486
G1 X5.0098 Y1.5274
G1 X5.0305 Y1.5693
G1 X5.0504 Y1.6115
G1 X5.0693 Y1.6542
G1 X5.0874 Y1.6972
G1 X5.1046 Y1.7407
G1 X5.1209 Y1.7844
G1 X5.1363 Y1.8285
G1 X5.1508 Y1.8729
G1 X5.1644 Y1.9175
G1 X5.1771 Y1.9625
G1 X5.1889 Y2.0077
G1 X5.1997 Y2.0531
G1 X5.2096 Y2.0987
G1 X5.2186 Y2.1445
G1 X5.2266 Y2.1905
G1 X5.2337 Y2.2367
G1 X5.2399 Y2.283
G1 X5.2451 Y2.3294
G1 X5.2493 Y2.3759
G1 X5.2525 Y2.4224
G1 X5.2548 Y2.4691
G1 X5.2562 Y2.5157
G1 X5.2566 Y2.5624
G1 X5.256 Y2.6091
G1 X5.2545 Y2.6558
G1 X5.252 Y2.7024
G1 X5.2486 Y2.749
G1 X5.2442 Y2.7955
G1 X5.2389 Y2.8419
G1 X5.2327 Y2.8881
G1 X5.2254 Y2.9343
G1 X5.2173 Y2.9802
G1 X5.2081 Y3.026
G1 X5.1981 Y3.0716
G1 X5.1871 Y3.117
G1 X5.1751 Y3.1621
G1 X5.1623 Y3.207
G1 X5.1485 Y3.2516
G1 X5.1338 Y3.2959
G1 X5.1182 Y3.3399
G1 X5.1017 Y3.3836
G1 X5.0843 Y3.427
G1 X5.066 Y3.4699
G1 X5.0469 Y3.5125
G1 X5.0268 Y3.5547
G1 X5.006 Y3.5965
G1 X4.9842 Y3.6378
G1 X4.9616 Y3.6787
G1 X4.9382 Y3.719
G1 X4.914 Y3.7589
G1 X4.8889 Y3.7983
G1 X4.863 Y3.8372
G1 X4.8363 Y3.8755
G1 X4.8089 Y3.9133
G1 X4.7806 Y3.9505
G1 X4.7517 Y3.9871
G1 X4.7219 Y4.0231
G1 X4.6915 Y4.0585
G1 X4.6603 Y4.0933
G1 X4.6285 Y4.1274
G1 X4.5959 Y4.1608
G1 X4.5627 Y4.1936
G1 X4.5287 Y4.2257
G1 X4.4942 Y4.2571
G1 X4.4783 Y4.271
G1 X4.4656 Y4.2802
G1 X4.4515 Y4.2869
G1 X4.4364 Y4.2911
G1 X4.4208 Y4.2925
G1 X4.1898
G3 X4.1627 Y4.2795 I0.0013 J-0.0375
G1 X4.1597 Y4.2761 Z-0.0597
G1 X4.1568 Y4.2727 Z-0.0589
G1 X4.154 Y4.2694 Z-0.0576
G1 X4.1513 Y4.2663 Z-0.0557
G1 X4.1488 Y4.2634 Z-0.0534
G1 X4.1465 Y4.2607 Z-0.0506
G1 X4.1444 Y4.2582 Z-0.0474
G1 X4.1425 Y4.2561 Z-0.0438
G1 X4.141 Y4.2544 Z-0.0399
G1 X4.1398 Y4.2529 Z-0.0358
G1 X4.1389 Y4.2519 Z-0.0315
G1 X4.1384 Y4.2513 Z-0.027
G1 X4.1382 Y4.2511 Z-0.0225
G0 Z0.2
G0 X4.0792 Y0.7354
G0 Z0.015
G1 Z-0.0225 F11.
G1 X4.0794 Y0.7352 Z-0.027
G1 X4.0801 Y0.7348 Z-0.0315
G1 X4.0813 Y0.7341 Z-0.0358
G1 X4.0829 Y0.7332 Z-0.0399
G1 X4.0849 Y0.732 Z-0.0438
G1 X4.0873 Y0.7306 Z-0.0474
G1 X4.09 Y0.7289 Z-0.0506
G1 X4.0931 Y0.7271 Z-0.0534
G1 X4.0964 Y0.7251 Z-0.0557
G1 X4.1 Y0.723 Z-0.0576
G1 X4.1037 Y0.7208 Z-0.0589
G1 X4.1075 Y0.7185 Z-0.0597
G1 X4.1114 Y0.7162 Z-0.06
G3 X4.1411 Y0.7075 I0.0318 J0.0536
G1 X4.3659
G1 X4.3888 Y0.7086
G1 X4.4115 Y0.7116
G1 X4.438 Y0.7173
G1 X4.4688 Y0.7265
G1 X4.5038 Y0.7401
G1 X4.5449 Y0.7601
G1 X4.5851 Y0.7838
G1 X4.6237 Y0.8101
G1 X4.6608 Y0.8384
G1 X4.6965 Y0.8685
G1 X4.731 Y0.8999
G1 X4.7645 Y0.9325
G1 X4.7969 Y0.9661
G1 X4.8283 Y1.0006
G1 X4.8588 Y1.036
G1 X4.8885 Y1.072
G1 X4.9173 Y1.1088
G1 X4.9452 Y1.1462
G1 X4.9724 Y1.1842
G1 X4.9988 Y1.2227
G1 X5.0243 Y1.2618
G1 X5.0491 Y1.3013
G1 X5.0731 Y1.3414
G1 X5.0962 Y1.382
G1 X5.1186 Y1.423
G1 X5.1401 Y1.4644
G1 X5.1608 Y1.5062
G1 X5.1807 Y1.5485
G1 X5.1997 Y1.5911
G1 X5.218 Y1.6341
G1 X5.2354 Y1.6774
G1 X5.2519 Y1.7211
G1 X5.2676 Y1.7651
G1 X5.2825 Y1.8093
G1 X5.2885 Y1.8282
G1 X5.2907 Y1.8369
G1 X5.292 Y1.8456
G1 X5.2925 Y1.8545
G1 Y3.1184
G1 X5.2902 Y3.165
G1 X5.2865 Y3.2116
G1 X5.2795 Y3.2577
G1 X5.27 Y3.3034
G1 X5.2584 Y3.3487
G1 X5.2451 Y3.3934
G1 X5.2303 Y3.4377
G1 X5.2141 Y3.4815
G1 X5.1968 Y3.5249
G1 X5.1784 Y3.5678
G1 X5.159 Y3.6103
G1 X5.1387 Y3.6523
G1 X5.1174 Y3.6939
G1 X5.0953 Y3.735
G1 X5.0723 Y3.7756
G1 X5.0485 Y3.8158
G1 X5.0239 Y3.8555
G1 X4.9986 Y3.8947
G1 X4.9724 Y3.9334
G1 X4.9455 Y3.9716
G1 X4.9179 Y4.0092
G1 X4.8895 Y4.0463
G1 X4.8605 Y4.0828
G1 X4.8307 Y4.1188
G1 X4.8002 Y4.1542
G1 X4.7691 Y4.1889
G1 X4.7372 Y4.2231
G1 X4.7048 Y4.2567
G1 X4.6943 Y4.267
G1 X4.6839 Y4.2759
G1 X4.6722 Y4.283
G1 X4.6596 Y4.2882
G1 X4.6463 Y4.2914
G1 X4.6326 Y4.2925
G1 X4.4208
G3 X4.3919 Y4.2328 I0.0013 J-0.0375
G1 X5.2248 Y3.0975
G3 X5.2925 Y3.1184 I0.0302 J0.0222
G1 Y3.5119
G1 X5.2904 Y3.5544
G1 X5.2853 Y3.5933
G1 X5.2755 Y3.639
G1 X5.2622 Y3.6837
G1 X5.2463 Y3.7276
G1 X5.2282 Y3.7707
G1 X5.2084 Y3.813
G1 X5.1871 Y3.8545
G1 X5.1645 Y3.8954
G1 X5.1408 Y3.9356
G1 X5.1161 Y3.9752
G1 X5.0905 Y4.0143
G1 X5.0641 Y4.0527
G1 X5.0368 Y4.0906
G1 X5.0087 Y4.128
G1 X4.98 Y4.1648
G1 X4.9505 Y4.201
G1 X4.9203 Y4.2366
G1 X4.8973 Y4.2628
G1 X4.8866 Y4.2731
G1 X4.8743 Y4.2814
G1 X4.8608 Y4.2875
G1 X4.8464 Y4.2912
G1 X4.8316 Y4.2925
G1 X4.6326
G3 X4.6052 Y4.2309 I0.0013 J-0.0375
G1 X5.2263 Y3.4891
G3 X5.2925 Y3.5119 I0.0288 J0.0241
G1 Y3.8042
G1 X5.2907 Y3.8411
G1 X5.2867 Y3.8714
G1 X5.2789 Y3.9078
G1 X5.2657 Y3.9517
G1 X5.2488 Y3.9952
G1 X5.2291 Y4.0375
G1 X5.2072 Y4.0788
G1 X5.1835 Y4.1191
G1 X5.1584 Y4.1584
G1 X5.1321 Y4.197
G1 X5.1047 Y4.2348
G1 X5.0863 Y4.2585
G1 X5.0755 Y4.2702
G1 X5.0627 Y4.2797
G1 X5.0484 Y4.2867
G1 X5.033 Y4.291
G1 X5.0171 Y4.2925
G1 X4.8316
G3 X4.8056 Y4.2294 I0.0013 J-0.0375
G1 X5.2277 Y3.7799
G3 X5.2925 Y3.8042 I0.0273 J0.0257
G1 Y4.0628
G1 X5.2911 Y4.0901
G1 X5.2876 Y4.1168
G1 X5.2811 Y4.1474
G1 X5.2703 Y4.1834
G1 X5.2563 Y4.2193
G1 X5.2426 Y4.2475
G1 X5.2415 Y4.2494
G1 X5.2328 Y4.2617
G1 X5.222 Y4.2723
G1 X5.2096 Y4.281
G1 X5.1958 Y4.2873
G1 X5.1812 Y4.2912
G1 X5.1661 Y4.2925
G3 X5.1333 Y4.2394 I0.0013 J-0.0375
G1 X5.2209 Y4.0485
G3 X5.2925 Y4.0628 I0.0341 J0.0156
G1 Y4.1865
G1 X5.2926 Y4.1977
G1 X5.2933 Y4.2202
G1 X5.2941 Y4.2315
G1 X5.2943 Y4.2333
G1 X5.2949 Y4.2393
G1 X5.2937 Y4.2511
G1 X5.29 Y4.2623
G1 X5.2841 Y4.2725
G1 X5.2761 Y4.2812
G1 X5.2664 Y4.2879
G1 X5.2555 Y4.2924
G1 X5.2438 Y4.2945
G1 X5.232 Y4.2941
G3 X5.1891 Y4.2436 I0.0094 J-0.0515
G3 X5.2943 Y4.2333 I0.053 J-0.001
G1 X5.2956 Y4.2427
G1 X5.2979 Y4.2539
G1 X5.2984 Y4.2596
G1 X5.2981 Y4.2652
G1 X5.2969 Y4.2708
G1 X5.2948 Y4.2764
G1 X5.2919 Y4.2816
G1 X5.2878 Y4.2867
G1 X5.2868 Y4.2877
G1 X5.2843 Y4.29
G1 X5.2817 Y4.2919
G1 X5.2765 Y4.2949
G1 X5.2709 Y4.297
G1 X5.2653 Y4.2982
G1 X5.2597 Y4.2985
G1 X5.2541 Y4.2979
G1 X5.2428 Y4.2957
G1 X5.2316 Y4.294
G1 X5.2091 Y4.293
G1 X5.1979 Y4.2925
G1 X5.0171
G3 X4.99 Y4.2795 I0.0013 J-0.0375
G1 X4.9871 Y4.2761 Z-0.0597
G1 X4.9842 Y4.2727 Z-0.0589
G1 X4.9814 Y4.2694 Z-0.0576
G1 X4.9787 Y4.2663 Z-0.0557
G1 X4.9761 Y4.2634 Z-0.0534
G1 X4.9738 Y4.2607 Z-0.0506
G1 X4.9717 Y4.2582 Z-0.0474
G1 X4.9699 Y4.2561 Z-0.0438
G1 X4.9684 Y4.2544 Z-0.0399
G1 X4.9672 Y4.2529 Z-0.0358
G1 X4.9663 Y4.2519 Z-0.0315
G1 X4.9657 Y4.2513 Z-0.027
G1 X4.9656 Y4.2511 Z-0.0225
G0 Z0.2
G0 X4.304 Y0.7354
G0 Z0.015
G1 Z-0.0225 F11.
G1 X4.3043 Y0.7352 Z-0.027
G1 X4.305 Y0.7348 Z-0.0315
G1 X4.3061 Y0.7341 Z-0.0358
G1 X4.3077 Y0.7332 Z-0.0399
G1 X4.3097 Y0.732 Z-0.0438
G1 X4.3121 Y0.7306 Z-0.0474
G1 X4.3149 Y0.7289 Z-0.0506
G1 X4.3179 Y0.7271 Z-0.0534
G1 X4.3213 Y0.7251 Z-0.0557
G1 X4.3248 Y0.723 Z-0.0576
G1 X4.3285 Y0.7208 Z-0.0589
G1 X4.3324 Y0.7185 Z-0.0597
G1 X4.3363 Y0.7162 Z-0.06
G3 X4.3659 Y0.7075 I0.0318 J0.0536
G1 X4.5683
G1 X4.5952 Y0.7088
G1 X4.6158 Y0.7116
G1 X4.6401 Y0.7167
G1 X4.6675 Y0.7249
G1 X4.6987 Y0.7371
G1 X4.7348 Y0.7546
G1 X4.775 Y0.7783
G1 X4.8133 Y0.805
G1 X4.8499 Y0.8341
G1 X4.8849 Y0.865
G1 X4.9185 Y0.8974
G1 X4.9509 Y0.931
G1 X4.9821 Y0.9657
G1 X5.0123 Y1.0014
G1 X5.0415 Y1.0378
G1 X5.0698 Y1.0749
G1 X5.0972 Y1.1128
G1 X5.1237 Y1.1512
G1 X5.1494 Y1.1902
G1 X5.1743 Y1.2297
G1 X5.1984 Y1.2697
G1 X5.2216 Y1.3101
G1 X5.2441 Y1.3511
G1 X5.2658 Y1.3924
G1 X5.2832 Y1.4271
G1 X5.2883 Y1.4397
G1 X5.2915 Y1.4528
G1 X5.2925 Y1.4663
G1 Y1.8545
G3 X5.2231 Y1.8729 I-0.0375 J-0.0013
G1 X4.5377 Y0.7647
G3 X4.5683 Y0.7075 I0.0319 J-0.0197
G1 X4.7706
G1 X4.7887 Y0.7084
G1 X4.8082 Y0.711
G1 X4.831 Y0.7158
G1 X4.8563 Y0.7234
G1 X4.8851 Y0.7346
G1 X4.9183 Y0.7507
G1 X4.9561 Y0.773
G1 X4.9943 Y0.7999
G1 X5.0306 Y0.8293
G1 X5.0651 Y0.8608
G1 X5.098 Y0.8939
G1 X5.1296 Y0.9283
G1 X5.1599 Y0.9638
G1 X5.189 Y1.0003
G1 X5.2172 Y1.0375
G1 X5.2443 Y1.0755
G1 X5.2705 Y1.1142
G1 X5.2785 Y1.1267
G1 X5.2845 Y1.1377
G1 X5.2889 Y1.1494
G1 X5.2916 Y1.1616
G1 X5.2925 Y1.1741
G1 Y1.4663
G3 X5.2239 Y1.4859 I-0.0375 J-0.0013
G1 X4.7408 Y0.7659
G3 X4.7706 Y0.7075 I0.0311 J-0.0209
G1 X4.9505
G1 X4.975 Y0.7087
G1 X4.9937 Y0.7112
G1 X5.0153 Y0.7158
G1 X5.0393 Y0.723
G1 X5.0663 Y0.7335
G1 X5.0973 Y0.7486
G1 X5.1323 Y0.7691
G1 X5.1705 Y0.796
G1 X5.2065 Y0.8257
G1 X5.2406 Y0.8576
G1 X5.2681 Y0.8861
G1 X5.2766 Y0.8965
G1 X5.2834 Y0.908
G1 X5.2884 Y0.9204
G1 X5.2915 Y0.9334
G1 X5.2925 Y0.9468
G1 Y1.1741
G3 X5.2244 Y1.1945 I-0.0375 J-0.0013
G1 X4.9212 Y0.7667
G3 X4.9505 Y0.7075 I0.0306 J-0.0217
G1 X5.1304
G1 X5.1547 Y0.7087
G1 X5.1729 Y0.7111
G1 X5.1935 Y0.7155
G1 X5.2164 Y0.7224
G1 X5.2404 Y0.7317
G1 X5.2432 Y0.7331
G1 X5.2553 Y0.7402
G1 X5.2662 Y0.7492
G1 X5.2754 Y0.7599
G1 X5.2828 Y0.7718
G1 X5.2883 Y0.7848
G1 X5.2915 Y0.7985
G1 X5.2925 Y0.8126
G3 X5.2374 Y0.844 I-0.0375 J-0.0016
G1 X5.114 Y0.778
G3 X5.1304 Y0.7075 I0.0177 J-0.0331
G1 X5.1979
G1 X5.2091 Y0.707
G1 X5.2316 Y0.706
G1 X5.2428 Y0.7043
G1 X5.2447 Y0.704
G1 X5.2506 Y0.7031
G1 X5.262 Y0.7041
G1 X5.2727 Y0.7079
G1 X5.2821 Y0.7143
G1 X5.2895 Y0.723
G1 X5.2945 Y0.7332
G1 X5.2967 Y0.7444
G1 X5.2959 Y0.7558
G3 X5.2595 Y0.7883 I-0.0414 J-0.0097
G3 X5.2447 Y0.704 I-0.005 J-0.0426
G1 X5.2541 Y0.7021
G1 X5.2597 Y0.7015
G1 X5.2653 Y0.7018
G1 X5.2709 Y0.703
G1 X5.2765 Y0.7051
G1 X5.2817 Y0.7081
G1 X5.2843 Y0.71
G1 X5.2869 Y0.7123
G1 X5.2878 Y0.7133
G1 X5.2919 Y0.7184
G1 X5.2948 Y0.7236
G1 X5.2969 Y0.7292
G1 X5.2981 Y0.7348
G1 X5.2984 Y0.7404
G1 X5.2979 Y0.7461
G1 X5.2957 Y0.7573
G1 X5.2941 Y0.7685
G1 X5.2933 Y0.7798
G1 X5.2926 Y0.8023
G1 X5.2925 Y0.8135
G1 Y0.9468
G3 X5.2795 Y0.9739 I-0.0375 J-0.0013
G1 X5.2761 Y0.9768 Z-0.0597
G1 X5.2727 Y0.9797 Z-0.0589
G1 X5.2694 Y0.9826 Z-0.0576
G1 X5.2663 Y0.9853 Z-0.0557
G1 X5.2634 Y0.9878 Z-0.0534
G1 X5.2607 Y0.9901 Z-0.0506
G1 X5.2582 Y0.9922 Z-0.0474
G1 X5.2561 Y0.994 Z-0.0438
G1 X5.2544 Y0.9956 Z-0.0399
G1 X5.2529 Y0.9968 Z-0.0358
G1 X5.2519 Y0.9977 Z-0.0315
G1 X5.2513 Y0.9982 Z-0.027
G1 X5.2511 Y0.9984 Z-0.0225
G0 Z0.2
G0 X2.5504 Y4.2646
G0 Z0.015
G1 Z-0.0225 F11.
G1 X2.5501 Y4.2648 Z-0.027
G1 X2.5494 Y4.2652 Z-0.0315
G1 X2.5483 Y4.2659 Z-0.0358
G1 X2.5467 Y4.2668 Z-0.0399
G1 X2.5447 Y4.268 Z-0.0438
G1 X2.5423 Y4.2694 Z-0.0474
G1 X2.5395 Y4.2711 Z-0.0506
G1 X2.5365 Y4.2729 Z-0.0534
G1 X2.5331 Y4.2749 Z-0.0557
G1 X2.5296 Y4.277 Z-0.0576
G1 X2.5259 Y4.2792 Z-0.0589
G1 X2.522 Y4.2815 Z-0.0597
G1 X2.5181 Y4.2838 Z-0.06
G3 X2.4885 Y4.2925 I-0.0318 J-0.0536
G1 X2.1512
G1 X2.1115 Y4.2905
G1 X2.079 Y4.2863
G1 X2.0403 Y4.278
G1 X1.9956 Y4.2646
G1 X1.952 Y4.2477
G1 X1.9096 Y4.2282
G1 X1.8683 Y4.2066
G1 X1.8279 Y4.1831
G1 X1.7885 Y4.158
G1 X1.75 Y4.1317
G1 X1.7123 Y4.1041
G1 X1.6754 Y4.0754
G1 X1.6394 Y4.0457
G1 X1.6042 Y4.015
G1 X1.5698 Y3.9835
G1 X1.5362 Y3.9511
G1 X1.5034 Y3.9179
G1 X1.4713 Y3.8839
G1 X1.4401 Y3.8491
G1 X1.4098 Y3.8137
G1 X1.3802 Y3.7775
G1 X1.3515 Y3.7407
G1 X1.3236 Y3.7033
G1 X1.2966 Y3.6652
G1 X1.2704 Y3.6265
G1 X1.2452 Y3.5872
G1 X1.2209 Y3.5474
G1 X1.1975 Y3.5069
G1 X1.175 Y3.466
G1 X1.1535 Y3.4246
G1 X1.133 Y3.3827
G1 X1.1134 Y3.3403
G1 X1.0947 Y3.2975
G1 X1.077 Y3.2542
G1 X1.0603 Y3.2106
G1 X1.0446 Y3.1667
G1 X1.0299 Y3.1224
G1 X1.0162 Y3.0777
G1 X1.0035 Y3.0328
G1 X0.9918 Y2.9876
G1 X0.9812 Y2.9421
G1 X0.9716 Y2.8964
G1 X0.9631 Y2.8505
G1 X0.9556 Y2.8044
G1 X0.9492 Y2.7582
G1 X0.9438 Y2.7118
G1 X0.9394 Y2.6653
G1 X0.9361 Y2.6187
G1 X0.9339 Y2.5721
G1 X0.9327 Y2.5254
G1 X0.9326 Y2.4787
G1 X0.9335 Y2.4321
G1 X0.9354 Y2.3854
G1 X0.9384 Y2.3388
G1 X0.9425 Y2.2923
G1 X0.9476 Y2.2459
G1 X0.9538 Y2.1996
G1 X0.9611 Y2.1535
G1 X0.9694 Y2.1075
G1 X0.9787 Y2.0618
G1 X0.9891 Y2.0163
G1 X1.0005 Y1.971
G1 X1.0129 Y1.926
G1 X1.0263 Y1.8812
G1 X1.0407 Y1.8368
G1 X1.0561 Y1.7928
G1 X1.0725 Y1.749
G1 X1.0899 Y1.7057
G1 X1.1082 Y1.6628
G1 X1.1276 Y1.6202
G1 X1.1479 Y1.5782
G1 X1.1691 Y1.5366
G1 X1.1913 Y1.4955
G1 X1.2144 Y1.455
G1 X1.2384 Y1.4149
G1 X1.2634 Y1.3755
G1 X1.2892 Y1.3365
G1 X1.3158 Y1.2982
G1 X1.3433 Y1.2605
G1 X1.3717 Y1.2234
G1 X1.4009 Y1.1869
G1 X1.4309 Y1.1512
G1 X1.4617 Y1.1161
G1 X1.4933 Y1.0817
G1 X1.5256 Y1.048
G1 X1.5587 Y1.0151
G1 X1.5926 Y0.983
G1 X1.6272 Y0.9516
G1 X1.6625 Y0.921
G1 X1.6985 Y0.8913
G1 X1.7351 Y0.8623
G1 X1.7723 Y0.8342
G1 X1.8102 Y0.8069
G1 X1.8487 Y0.7804
G1 X1.8878 Y0.7549
G1 X1.9274 Y0.7302
G1 X1.9451 Y0.7197
G1 X1.9591 Y0.713
G1 X1.9742 Y0.7089
G1 X1.9897 Y0.7075
G1 X2.3133
G3 X2.3404 Y0.7205 I-0.0013 J0.0375
G1 X2.3433 Y0.7239 Z-0.0597
G1 X2.3462 Y0.7273 Z-0.0589
G1 X2.349 Y0.7306 Z-0.0576
G1 X2.3517 Y0.7337 Z-0.0557
G1 X2.3543 Y0.7366 Z-0.0534
G1 X2.3566 Y0.7393 Z-0.0506
G1 X2.3587 Y0.7418 Z-0.0474
G1 X2.3605 Y0.7439 Z-0.0438
G1 X2.362 Y0.7456 Z-0.0399
G1 X2.3633 Y0.7471 Z-0.0358
G1 X2.3641 Y0.7481 Z-0.0315
G1 X2.3647 Y0.7487 Z-0.027
G1 X2.3648 Y0.7489 Z-0.0225
G0 Z0.2
G0 X2.2131 Y4.2646
G0 Z0.015
G1 Z-0.0225 F11.
G1 X2.2129 Y4.2648 Z-0.027
G1 X2.2122 Y4.2652 Z-0.0315
G1 X2.211 Y4.2659 Z-0.0358
G1 X2.2094 Y4.2668 Z-0.0399
G1 X2.2074 Y4.268 Z-0.0438
G1 X2.205 Y4.2694 Z-0.0474
G1 X2.2023 Y4.2711 Z-0.0506
G1 X2.1992 Y4.2729 Z-0.0534
G1 X2.1959 Y4.2749 Z-0.0557
G1 X2.1923 Y4.277 Z-0.0576
G1 X2.1886 Y4.2792 Z-0.0589
G1 X2.1848 Y4.2815 Z-0.0597
G1 X2.1809 Y4.2838 Z-0.06
G3 X2.1512 Y4.2925 I-0.0318 J-0.0536
G1 X1.8926
G1 X1.8568 Y4.2907
G1 X1.8302 Y4.2872
G1 X1.8 Y4.2808
G1 X1.7643 Y4.2701
G1 X1.7222 Y4.2537
G1 X1.6802 Y4.2333
G1 X1.6397 Y4.2101
G1 X1.6005 Y4.1848
G1 X1.5625 Y4.1576
G1 X1.5257 Y4.129
G1 X1.4898 Y4.099
G1 X1.455 Y4.0679
G1 X1.4211 Y4.0358
G1 X1.3881 Y4.0028
G1 X1.3559 Y3.9689
G1 X1.3246 Y3.9343
G1 X1.2942 Y3.8989
G1 X1.2645 Y3.8628
G1 X1.2358 Y3.826
G1 X1.2078 Y3.7887
G1 X1.1807 Y3.7507
G1 X1.1544 Y3.7121
G1 X1.1289 Y3.6729
G1 X1.1044 Y3.6332
G1 X1.0806 Y3.593
G1 X1.0578 Y3.5523
G1 X1.0358 Y3.5111
G1 X1.0147 Y3.4694
G1 X0.9945 Y3.4273
G1 X0.9752 Y3.3848
G1 X0.9568 Y3.3419
G1 X0.9394 Y3.2986
G1 X0.9228 Y3.2549
G1 X0.9072 Y3.2109
G1 X0.8925 Y3.1666
G1 X0.8788 Y3.122
G1 X0.866 Y3.0771
G1 X0.8542 Y3.0319
G1 X0.8433 Y2.9865
G1 X0.8334 Y2.9408
G1 X0.8245 Y2.895
G1 X0.8165 Y2.849
G1 X0.8096 Y2.8028
G1 X0.8036 Y2.7565
G1 X0.7985 Y2.7101
G1 X0.7945 Y2.6636
G1 X0.7914 Y2.617
G1 X0.7894 Y2.5704
G1 X0.7883 Y2.5237
G1 X0.7882 Y2.477
G1 X0.7891 Y2.4303
G1 X0.791 Y2.3837
G1 X0.7939 Y2.3371
G1 X0.7977 Y2.2905
G1 X0.8026 Y2.2441
G1 X0.8084 Y2.1978
G1 X0.8152 Y2.1516
G1 X0.823 Y2.1055
G1 X0.8318 Y2.0597
G1 X0.8415 Y2.014
G1 X0.8521 Y1.9685
G1 X0.8638 Y1.9233
G1 X0.8764 Y1.8784
G1 X0.8899 Y1.8337
G1 X0.9044 Y1.7893
G1 X0.9198 Y1.7452
G1 X0.9362 Y1.7015
G1 X0.9534 Y1.6581
G1 X0.9716 Y1.6151
G1 X0.9907 Y1.5725
G1 X1.0107 Y1.5303
G1 X1.0315 Y1.4885
G1 X1.0533 Y1.4472
G1 X1.0759 Y1.4063
G1 X1.0994 Y1.366
G1 X1.1237 Y1.3261
G1 X1.1488 Y1.2868
G1 X1.1748 Y1.248
G1 X1.2016 Y1.2097
G1 X1.2292 Y1.1721
G1 X1.2576 Y1.135
G1 X1.2867 Y1.0985
G1 X1.3167 Y1.0627
G1 X1.3473 Y1.0275
G1 X1.3787 Y0.9929
G1 X1.4109 Y0.959
G1 X1.4437 Y0.9259
G1 X1.4772 Y0.8934
G1 X1.5115 Y0.8616
G1 X1.5463 Y0.8305
G1 X1.5819 Y0.8002
G1 X1.618 Y0.7707
G1 X1.6548 Y0.7419
G1 X1.6774 Y0.725
G1 X1.6893 Y0.7175
G1 X1.7022 Y0.712
G1 X1.7158 Y0.7086
G1 X1.7298 Y0.7075
G1 X1.9897
G3 X2.0168 Y0.7205 I-0.0013 J0.0375
G1 X2.0197 Y0.7239 Z-0.0597
G1 X2.0226 Y0.7273 Z-0.0589
G1 X2.0254 Y0.7306 Z-0.0576
G1 X2.0281 Y0.7337 Z-0.0557
G1 X2.0307 Y0.7366 Z-0.0534
G1 X2.033 Y0.7393 Z-0.0506
G1 X2.0351 Y0.7418 Z-0.0474
G1 X2.0369 Y0.7439 Z-0.0438
G1 X2.0384 Y0.7456 Z-0.0399
G1 X2.0396 Y0.7471 Z-0.0358
G1 X2.0405 Y0.7481 Z-0.0315
G1 X2.0411 Y0.7487 Z-0.027
G1 X2.0412 Y0.7489 Z-0.0225
G0 Z0.2
G0 X1.9545 Y4.2646
G0 Z0.015
G1 Z-0.0225 F11.
G1 X1.9543 Y4.2648 Z-0.027
G1 X1.9536 Y4.2652 Z-0.0315
G1 X1.9524 Y4.2659 Z-0.0358
G1 X1.9509 Y4.2668 Z-0.0399
G1 X1.9488 Y4.268 Z-0.0438
G1 X1.9464 Y4.2694 Z-0.0474
G1 X1.9437 Y4.2711 Z-0.0506
G1 X1.9406 Y4.2729 Z-0.0534
G1 X1.9373 Y4.2749 Z-0.0557
G1 X1.9337 Y4.277 Z-0.0576
G1 X1.93 Y4.2792 Z-0.0589
G1 X1.9262 Y4.2815 Z-0.0597
G1 X1.9223 Y4.2838 Z-0.06
G3 X1.8926 Y4.2925 I-0.0318 J-0.0536
G1 X1.6566
G1 X1.6331 Y4.2913
G1 X1.6104 Y4.2883
G1 X1.5838 Y4.2827
G1 X1.553 Y4.2734
G1 X1.518 Y4.2598
G1 X1.4769 Y4.2399
G1 X1.4367 Y4.2162
G1 X1.3981 Y4.1899
G1 X1.361 Y4.1615
G1 X1.3253 Y4.1314
G1 X1.2908 Y4.1
G1 X1.2574 Y4.0673
G1 X1.2251 Y4.0337
G1 X1.1937 Y3.9991
G1 X1.1633 Y3.9636
G1 X1.1338 Y3.9275
G1 X1.1051 Y3.8906
G1 X1.0773 Y3.8531
G1 X1.0504 Y3.815
G1 X1.0243 Y3.7763
G1 X0.999 Y3.737
G1 X0.9745 Y3.6972
G1 X0.9509 Y3.6569
G1 X0.9281 Y3.6162
G1 X0.9062 Y3.575
G1 X0.8851 Y3.5333
G1 X0.8649 Y3.4912
G1 X0.8455 Y3.4488
G1 X0.8269 Y3.4059
G1 X0.8093 Y3.3627
G1 X0.7924 Y3.3191
G1 X0.7765 Y3.2752
G1 X0.7614 Y3.2311
G1 X0.7472 Y3.1866
G1 X0.7339 Y3.1418
G1 X0.7215 Y3.0968
G1 X0.71 Y3.0515
G1 X0.7098 Y3.0505
G1 X0.7085 Y3.0439
G1 X0.7078 Y3.0373
G1 X0.7075 Y3.0306
G1 Y2.1065
G1 X0.7098 Y2.0599
G1 X0.7125 Y2.0132
G1 X0.7178 Y1.9668
G1 X0.7253 Y1.9208
G1 X0.7347 Y1.875
G1 X0.7456 Y1.8296
G1 X0.758 Y1.7846
G1 X0.7716 Y1.7399
G1 X0.7863 Y1.6956
G1 X0.8021 Y1.6517
G1 X0.8189 Y1.6081
G1 X0.8367 Y1.565
G1 X0.8554 Y1.5222
G1 X0.875 Y1.4798
G1 X0.8955 Y1.4378
G1 X0.9168 Y1.3963
G1 X0.939 Y1.3552
G1 X0.962 Y1.3146
G1 X0.9858 Y1.2744
G1 X1.0104 Y1.2347
G1 X1.0357 Y1.1955
G1 X1.0619 Y1.1568
G1 X1.0889 Y1.1187
G1 X1.1166 Y1.0811
G1 X1.145 Y1.0441
G1 X1.1742 Y1.0076
G1 X1.2041 Y0.9718
G1 X1.2347 Y0.9365
G1 X1.266 Y0.9018
G1 X1.2979 Y0.8678
G1 X1.3306 Y0.8344
G1 X1.3638 Y0.8017
G1 X1.3978 Y0.7696
G1 X1.4323 Y0.7382
G1 X1.4427 Y0.7291
G1 X1.4554 Y0.7199
G1 X1.4696 Y0.7131
G1 X1.4847 Y0.7089
G1 X1.5003 Y0.7075
G1 X1.7298
G3 X1.7589 Y0.767 I-0.0013 J0.0375
G1 X0.7754 Y2.1272
G3 X0.7075 Y2.1065 I-0.0304 J-0.022
G1 Y1.6568
G1 X0.7098 Y1.6101
G1 X0.7126 Y1.5869
G1 X0.7202 Y1.5409
G1 X0.7314 Y1.4956
G1 X0.7455 Y1.451
G1 X0.7617 Y1.4072
G1 X0.7798 Y1.3642
G1 X0.7993 Y1.3218
G1 X0.8202 Y1.28
G1 X0.8423 Y1.2389
G1 X0.8654 Y1.1983
G1 X0.8895 Y1.1583
G1 X0.9144 Y1.1188
G1 X0.9402 Y1.0799
G1 X0.9668 Y1.0415
G1 X0.9942 Y1.0037
G1 X1.0223 Y0.9665
G1 X1.0512 Y0.9297
G1 X1.0807 Y0.8936
G1 X1.111 Y0.858
G1 X1.1419 Y0.823
G1 X1.1734 Y0.7886
G1 X1.2056 Y0.7548
G1 X1.2267 Y0.7335
G1 X1.2371 Y0.7245
G1 X1.2489 Y0.7172
G1 X1.2617 Y0.7118
G1 X1.2751 Y0.7086
G1 X1.2889 Y0.7075
G1 X1.5003
G3 X1.5279 Y0.7689 I-0.0013 J0.0375
G1 X0.7739 Y1.6794
G3 X0.7075 Y1.6568 I-0.0289 J-0.0239
G1 Y1.3419
G1 X0.7094 Y1.3037
G1 X0.7137 Y1.2714
G1 X0.722 Y1.2325
G1 X0.7354 Y1.1878
G1 X0.7521 Y1.1442
G1 X0.7715 Y1.1017
G1 X0.7929 Y1.0602
G1 X0.816 Y1.0197
G1 X0.8405 Y0.9799
G1 X0.8662 Y0.9409
G1 X0.8929 Y0.9027
G1 X0.9206 Y0.8651
G1 X0.9491 Y0.8281
G1 X0.9785 Y0.7918
G1 X1.0086 Y0.7561
G1 X1.0253 Y0.7371
G1 X1.036 Y0.7269
G1 X1.0483 Y0.7186
G1 X1.0618 Y0.7125
G1 X1.0762 Y0.7088
G1 X1.0909 Y0.7075
G1 X1.2889
G3 X1.3153 Y0.7702 I-0.0013 J0.0375
G1 X0.7727 Y1.3659
G3 X0.7075 Y1.3419 I-0.0277 J-0.0253
G1 Y1.0721
G1 X0.7088 Y1.0462
G1 X0.7124 Y1.0186
G1 X0.7193 Y0.9865
G1 X0.7307 Y0.9485
G1 X0.7476 Y0.905
G1 X0.7678 Y0.8629
G1 X0.7905 Y0.8221
G1 X0.8152 Y0.7825
G1 X0.8416 Y0.7439
G1 X0.8436 Y0.7412
G1 X0.8545 Y0.7296
G1 X0.8673 Y0.7202
G1 X0.8815 Y0.7132
G1 X0.8968 Y0.7089
G1 X0.9127 Y0.7075
G1 X1.0909
G3 X1.1154 Y0.7722 I-0.0013 J0.0375
G1 X0.7707 Y1.098
G3 X0.7075 Y1.0721 I-0.0258 J-0.0273
G1 Y0.836
G1 X0.7086 Y0.8135
G1 X0.7112 Y0.794
G1 X0.7154 Y0.7743
G1 X0.7173 Y0.7679
G1 X0.7233 Y0.7531
G1 X0.732 Y0.7397
G1 X0.7431 Y0.7281
G1 X0.7561 Y0.7188
G1 X0.7706 Y0.7122
G1 X0.7862 Y0.7083
G1 X0.8021 Y0.7075
G3 X0.8327 Y0.7648 I-0.0013 J0.0375
G1 X0.7768 Y0.8545
G3 X0.7075 Y0.836 I-0.0318 J-0.0198
G1 Y0.8135
G1 X0.7074 Y0.8023
G1 X0.7067 Y0.7798
G1 X0.7059 Y0.7685
G1 X0.7043 Y0.7573
G1 X0.7026 Y0.7483
G1 X0.7021 Y0.7461
G1 X0.7016 Y0.7404
G1 X0.7019 Y0.7348
G1 X0.7031 Y0.7292
G1 X0.7052 Y0.7236
G1 X0.7081 Y0.7184
G1 X0.7122 Y0.7133
G1 X0.7131 Y0.7123
G1 X0.7157 Y0.71
G1 X0.7183 Y0.7081
G1 X0.7235 Y0.7051
G1 X0.7291 Y0.703
G1 X0.7347 Y0.7018
G1 X0.7403 Y0.7015
G1 X0.7459 Y0.7021
G1 X0.7572 Y0.7043
G1 X0.7684 Y0.706
G1 X0.7909 Y0.707
G1 X0.8021 Y0.7075
G1 X0.9127
G3 X0.9398 Y0.7205 I-0.0013 J0.0375
G1 X0.9427 Y0.7239 Z-0.0597
G1 X0.9456 Y0.7273 Z-0.0589
G1 X0.9484 Y0.7306 Z-0.0576
G1 X0.9511 Y0.7337 Z-0.0557
G1 X0.9537 Y0.7366 Z-0.0534
G1 X0.956 Y0.7393 Z-0.0506
G1 X0.9581 Y0.7418 Z-0.0474
G1 X0.9599 Y0.7439 Z-0.0438
G1 X0.9614 Y0.7456 Z-0.0399
G1 X0.9627 Y0.7471 Z-0.0358
G1 X0.9635 Y0.7481 Z-0.0315
G1 X0.9641 Y0.7487 Z-0.027
G1 X0.9642 Y0.7489 Z-0.0225
G0 Z0.2
G0 X1.7185 Y4.2646
G0 Z0.015
G1 Z-0.0225 F11.
G1 X1.7182 Y4.2648 Z-0.027
G1 X1.7175 Y4.2652 Z-0.0315
G1 X1.7164 Y4.2659 Z-0.0358
G1 X1.7148 Y4.2668 Z-0.0399
G1 X1.7128 Y4.268 Z-0.0438
G1 X1.7104 Y4.2694 Z-0.0474
G1 X1.7076 Y4.2711 Z-0.0506
G1 X1.7045 Y4.2729 Z-0.0534
G1 X1.7012 Y4.2749 Z-0.0557
G1 X1.6977 Y4.277 Z-0.0576
G1 X1.6939 Y4.2792 Z-0.0589
G1 X1.6901 Y4.2815 Z-0.0597
G1 X1.6862 Y4.2838 Z-0.06
G3 X1.6566 Y4.2925 I-0.0318 J-0.0536
G1 X1.4542
G1 X1.4267 Y4.2911
G1 X1.406 Y4.2884
G1 X1.3818 Y4.2832
G1 X1.3545 Y4.2751
G1 X1.3234 Y4.2629
G1 X1.2874 Y4.2455
G1 X1.2471 Y4.2218
G1 X1.2089 Y4.195
G1 X1.1723 Y4.166
G1 X1.1374 Y4.135
G1 X1.1038 Y4.1025
G1 X1.0715 Y4.0688
G1 X1.0404 Y4.034
G1 X1.0103 Y3.9983
G1 X0.9813 Y3.9617
G1 X0.9532 Y3.9245
G1 X0.926 Y3.8865
G1 X0.8997 Y3.8479
G1 X0.8742 Y3.8088
G1 X0.8497 Y3.7691
G1 X0.8259 Y3.7289
G1 X0.803 Y3.6882
G1 X0.7808 Y3.6471
G1 X0.7595 Y3.6055
G1 X0.739 Y3.5636
G1 X0.7194 Y3.5212
G1 X0.715 Y3.5113
G1 X0.7108 Y3.4999
G1 X0.7083 Y3.488
G1 X0.7075 Y3.4759
G1 Y3.0306
G3 X0.7774 Y3.0131 I0.0375 J0.0013
G1 X1.4853 Y4.2362
G3 X1.4542 Y4.2925 I-0.0325 J0.0188
G1 X1.2518
G1 X1.2334 Y4.2916
G1 X1.214 Y4.289
G1 X1.1913 Y4.2842
G1 X1.1661 Y4.2766
G1 X1.1374 Y4.2654
G1 X1.1044 Y4.2495
G1 X1.0669 Y4.2273
G1 X1.0287 Y4.2005
G1 X0.9924 Y4.171
G1 X0.958 Y4.1395
G1 X0.9251 Y4.1063
G1 X0.8937 Y4.0718
G1 X0.8635 Y4.0362
G1 X0.8345 Y3.9996
G1 X0.8066 Y3.9622
G1 X0.7797 Y3.924
G1 X0.7537 Y3.8852
G1 X0.7286 Y3.8458
G1 X0.7202 Y3.8318
G1 X0.7132 Y3.8175
G1 X0.7089 Y3.8023
G1 X0.7075 Y3.7865
G1 Y3.4759
G3 X0.7764 Y3.4568 I0.0375 J0.0013
G1 X1.282 Y4.2346
G3 X1.2518 Y4.2925 I-0.0314 J0.0204
G1 X1.072
G1 X1.0477 Y4.2913
G1 X1.029 Y4.2888
G1 X1.0076 Y4.2842
G1 X0.9837 Y4.2771
G1 X0.9568 Y4.2666
G1 X0.9261 Y4.2517
G1 X0.8915 Y4.2314
G1 X0.8533 Y4.2045
G1 X0.8173 Y4.1748
G1 X0.7833 Y4.1428
G1 X0.751 Y4.1091
G1 X0.7291 Y4.084
G1 X0.7199 Y4.0713
G1 X0.7131 Y4.0572
G1 X0.7089 Y4.0421
G1 X0.7075 Y4.0264
G1 Y3.7865
G3 X0.7757 Y3.7663 I0.0375 J0.0013
G1 X1.1014 Y4.2336
G3 X1.072 Y4.2925 I-0.0308 J0.0214
G1 X0.8921
G1 X0.8687 Y4.2913
G1 X0.8507 Y4.289
G1 X0.8301 Y4.2846
G1 X0.8074 Y4.2777
G1 X0.7818 Y4.2678
G1 X0.7543 Y4.2545
G1 X0.7506 Y4.2523
G1 X0.7383 Y4.2435
G1 X0.7277 Y4.2327
G1 X0.719 Y4.2203
G1 X0.7127 Y4.2066
G1 X0.7088 Y4.192
G1 X0.7075 Y4.1769
G3 X0.7625 Y4.145 I0.0375 J0.0013
G1 X0.9083 Y4.2218
G3 X0.8921 Y4.2925 I-0.0175 J0.0332
G1 X0.8021
G1 X0.7909 Y4.293
G1 X0.7684 Y4.294
G1 X0.7622 Y4.2949
G1 X0.7543 Y4.2957
G1 X0.7422 Y4.2944
G1 X0.7309 Y4.2902
G1 X0.7209 Y4.2834
G1 X0.7129 Y4.2743
G1 X0.7073 Y4.2635
G1 X0.7046 Y4.2517
G1 X0.7048 Y4.2396
G3 X0.7183 Y4.2131 I0.0504 J0.0089
G3 X0.7886 Y4.2808 I0.0352 J0.0338
G3 X0.7622 Y4.2949 I-0.0352 J-0.0338
G1 X0.7572 Y4.2957
G1 X0.7459 Y4.2979
G1 X0.7403 Y4.2985
G1 X0.7347 Y4.2982
G1 X0.7291 Y4.297
G1 X0.7235 Y4.2949
G1 X0.7183 Y4.2919
G1 X0.7157 Y4.29
G1 X0.7131 Y4.2877
G1 X0.7122 Y4.2867
G1 X0.7081 Y4.2816
G1 X0.7052 Y4.2764
G1 X0.7031 Y4.2708
G1 X0.7019 Y4.2652
G1 X0.7016 Y4.2596
G1 X0.7021 Y4.2539
G1 X0.7044 Y4.2427
G1 X0.7059 Y4.2315
G1 X0.7067 Y4.2202
G1 X0.7074 Y4.1977
G1 X0.7075 Y4.1865
G1 Y4.0264
G3 X0.7205 Y3.9993 I0.0375 J0.0013
G1 X0.7239 Y3.9964 Z-0.0597
G1 X0.7273 Y3.9935 Z-0.0589
G1 X0.7306 Y3.9907 Z-0.0576
G1 X0.7337 Y3.988 Z-0.0557
G1 X0.7366 Y3.9854 Z-0.0534
G1 X0.7393 Y3.9831 Z-0.0506
G1 X0.7418 Y3.981 Z-0.0474
G1 X0.7439 Y3.9792 Z-0.0438
G1 X0.7456 Y3.9777 Z-0.0399
G1 X0.7471 Y3.9764 Z-0.0358
G1 X0.7481 Y3.9756 Z-0.0315
G1 X0.7487 Y3.975 Z-0.027
G1 X0.7489 Y3.9749 Z-0.0225
G0 Z0.6

N20(2D Contour1)
S3056 M3 M8
G0 X3.2252 Y4.1978
G0 Z0.6
G0 Z0.2
G1 Z0.0394 F1.5
G1 Z-0.0225
G1 Y4.1981 Z-0.027
G1 X3.2253 Y4.1989 Z-0.0315
G1 X3.2255 Y4.2003 Z-0.0358
G1 X3.2257 Y4.2021 Z-0.0399
G1 X3.2259 Y4.2044 Z-0.0438
G1 X3.2262 Y4.2072 Z-0.0474
G1 X3.2266 Y4.2104 Z-0.0506
G1 X3.227 Y4.2139 Z-0.0534
G1 X3.2274 Y4.2178 Z-0.0557
G1 X3.2279 Y4.2219 Z-0.0576
G1 X3.2283 Y4.2262 Z-0.0589
G1 X3.2288 Y4.2306 Z-0.0597
G1 X3.2293 Y4.2351 Z-0.06
G1 X3.2334 Y4.2724 F11.
G3 X3.2003 Y4.3138 I-0.0373 J0.0041
G2 X3.0124 Y4.5012 I0.0233 J0.2112
G1 Y4.5014
G3 X2.9876 I-0.0124 J-0.0014
G1 Y4.5012
G2 X2.7764 Y4.3125 I-0.2112 J0.0238
G1 X0.7932
G2 X0.6433 Y4.3744 I0. J0.2125
G1 X0.6432 Y4.3745
G3 X0.6255 Y4.3568 I-0.0088 J-0.0088
G2 X0.6875 Y4.2069 I-0.1505 J-0.15
G1 Y4.2068
G1 Y0.7932
G2 X0.6255 Y0.6432 I-0.2125 J0.
G3 X0.6432 Y0.6255 I0.0089 J-0.0088
G2 X0.7932 Y0.6875 I0.15 J-0.1505
G1 X2.7764
G2 X2.9876 Y0.4986 I0. J-0.2125
G3 X3.0124 I0.0124 J0.0014
G2 X3.2236 Y0.6875 I0.2112 J-0.0236
G1 X5.2068
G1 X5.2069
G2 X5.3568 Y0.6255 I-0.0001 J-0.2125
G3 X5.3745 Y0.6432 I0.0088 J0.0089
G1 X5.3744 Y0.6433
G2 X5.3125 Y0.7932 I0.1506 J0.1499
G1 Y4.2068
G2 X5.3744 Y4.3567 I0.2125 J0.
G1 X5.3745 Y4.3568
G3 X5.3568 Y4.3745 I-0.0088 J0.0088
G1 X5.3567 Y4.3744
G2 X5.2068 Y4.3125 I-0.1499 J0.1506
G1 X3.2236
G2 X3.2003 Y4.3138 I0. J0.2125
G3 X3.1589 Y4.2806 I-0.0041 J-0.0373
G1 X3.1548 Y4.2434
G1 X3.1543 Y4.2389 Z-0.0597
G1 X3.1538 Y4.2344 Z-0.0589
G1 X3.1533 Y4.2301 Z-0.0576
G1 X3.1529 Y4.226 Z-0.0557
G1 X3.1524 Y4.2222 Z-0.0534
G1 X3.152 Y4.2186 Z-0.0506
G1 X3.1517 Y4.2155 Z-0.0474
G1 X3.1514 Y4.2127 Z-0.0438
G1 X3.1511 Y4.2103 Z-0.0399
G1 X3.1509 Y4.2085 Z-0.0358
G1 X3.1508 Y4.2072 Z-0.0315
G1 X3.1507 Y4.2064 Z-0.027
G1 Y4.2061 Z-0.0225
G0 Z0.6
M5 M9

G30
M30
%
